choohosung/2022-USG-Ai-Data-Problem-Solving-Competition/반도체/test_input.csv
A0,A1,A2,A3,A4,A5,A6,A7,A8,A9,A10,A11,A12,A13,A14,A15,A16,A17,A18,A19,A20,A21,A22,A23,A24,A25,A26,A27,A28,A29,A30,B0,B1,B2,B3,B4,B5,B6,B7,B8,B9,B10,B11,B12,B13,B14,B15,B16,B17,B18,B19,B20,B21,B22,B23,B24,B25,B26,B27,B28,B29,B30,C0,C1,C2,C3,C4,C5,C6,C7,C8,C9,C10,C11,C12,C13,C14,C15,C16,C17,C18,C19,C20,C21,C22,C23,C24,C25,C26,C27,C28,C29,C30,D0,D1,D2,D3,D4,D5,D6,D7,D8,D9,D10,D11,D12,D13,D14,D15,D16,D17,D18,D19,D20,D21,D22,D23,D24,D25,D26,D27,D28,D29,D30,E0,E1,E2,E3,E4,E5,E6,E7,E8,E9,E10,E11,E12,E13,E14,E15,E16,E17,E18,E19,E20,E21,E22,E23,E24,E25,E26,E27,E28,E29,E30,F0,F1,F2,F3,F4,F5,F6,F7,F8,F9,F10,F11,F12,F13,F14,F15,F16,F17,F18,F19,F20,F21,F22,F23,F24,F25,F26,F27,F28,F29,F30,G0,G1,G2,G3,G4,G5,G6,G7,G8,G9,G10,G11,G12,G13,G14,G15,G16,G17,G18,G19,G20,G21,G22,G23,G24,G25,G26,G27,G28,G29,G30,H0,H1,H2,H3,H4,H5,H6,H7,H8,H9,H10,H11,H12,H13,H14,H15,H16,H17,H18,H19,H20,H21,H22,H23,H24,H25,H26,H27,H28,H29,H30,I0,I1,I2,I3,I4,I5,I6,I7,I8,I9,I10,I11,I12,I13,I14,I15,I16,I17,I18,I19,I20,I21,I22,I23,I24,I25,I26,I27,I28,I29,I30,J0,J1,J2,J3,J4,J5,J6,J7,J8,J9,J10,J11,J12,J13,J14,J15,J16,J17,J18,J19,J20,J21,J22,J23,J24,J25,J26,J27,J28,J29,J30,K0,K1,K2,K3,K4,K5,K6,K7,K8,K9,K10,K11,K12,K13,K14,K15,K16,K17,K18,K19,K20,K21,K22,K23,K24,K25,K26,K27,K28,K29,K30,L0,L1,L2,L3,L4,L5,L6,L7,L8,L9,L10,L11,L12,L13,L14,L15,L16,L17,L18,L19,L20,L21,L22,L23,L24,L25,L26,L27,L28,L29,L30,M0,M1,M2,M3,M4,M5,M6,M7,M8,M9,M10,M11,M12,M13,M14,M15,M16,M17,M18,M19,M20,M21,M22,M23,M24,M25,M26,M27,M28,M29,M30,N0,N1,N2,N3,N4,N5,N6,N7,N8,N9,N10,N11,N12,N13,N14,N15,N16,N17,N18,N19,N20,N21,N22,N23,N24,N25,N26,N27,N28,N29,N30,O0,O1,O2,O3,O4,O5,O6,O7,O8,O9,O10,O11,O12,O13,O14,O15,O16,O17,O18,O19,O20,O21,O22,O23,O24
4.7117,7.7295,7.4718,2.7353,0.0043,6.2137,6.914,-0.0001,134.7555,106.0,2.4772,161.2492,8.1719,0.0026,-0.0212,-0.0519,264.272,0.0137,2.4224,0.2168,61.2474,7.6071,-0.0044,0.1078,0.185,4.0427,2.9521,4.799,148.3294,0.7905,1.0,0.0,1352.0566,0.5671,92.5753,3.0339,0.1147,0.068,7.2185,0.0363,2434.0,0.0,0.0003,14.23,10.68,10.91,35.6522,0.1212,-0.0115,631.0145,,-2039.5,1362.3398,0.54,0.0149,29.9044,0.0363,0.526,73.836,0.0483,0.0893,3.8271,0.012,-0.1042,0.1846,24.28,14.6348,2.969,1373.0,0.021,0.303,8.0961,6.1867,3.338,1.2392,7.7719,0.0,0.0859,2.0032,18.94,86.7475,,0.7172,0.0403,0.1104,-0.0518,0.09,0.1013,7.683,5.041,3.0258,679.767,15.6506,0.932,,6.8943,0.35,0.0137,,0.0041,20.823,1.2395,1.3914,,92.37,188.1207,2.5998,0.9582,0.8611,0.0052,0.0456,1.4927,12.2481,4.5,0.7298,0.0431,1.4035,0.0145,-4.8609,0.3225,0.9235,5.5465,80.3388,0.0722,0.9889,2.4862,0.0033,4.598,531.3091,0.0402,0.3358,0.031,85.1175,28.087,-0.0072,10.85,1.4827,97.843,581.0,352.1736,944.8819,4.5587,3.1787,28.7328,-4977.5,0.278,15.91,351.9891,0.9365,2527.68,7.1883,0.709,91.211,1.9363,7.4123,74.0778,,0.003,2.3593,254.337,0.475,-0.0004,0.0997,0.8201,69.0217,1807.5841,7.0087,-1.371,0.1386,153.196,2.374,2.683,0.0128,0.9711,3.3609,0.0056,1.1612,0.4348,0.0273,0.144,3.4721,0.8,227.6,9.1747,0.0453,0.0862,0.9637,0.0004,64.5777,-0.0383,0.1784,,23.24,0.2238,3.5098,0.0,64.2547,1.7139,18.1007,0.259,0.9413,0.015,,0.0165,0.084,0.0382,4.0219,-0.0006,2.8622,0.0474,12.4781,3307.0,465.5704,0.6945,411.367,1.0085,371.8615,1.8353,8.1314,0.0041,1.229,0.0092,0.125,1.4141,0.0326,0.219,0.0877,2.1375,618.7664,-308.25,42.3517,3.0124,0.478,0.0636,0.5669,72.3643,0.2264,14.283,0.0024,21.0173,55.8999,0.9668,0.1105,0.0418,0.0077,0.0901,119.0638,,0.0081,0.0054,2.6,6.4832,8.77,8.3908,0.0256,695.082,9.0043,15.1731,1.8844,0.0306,0.0195,3.9717,0.0308,3.609,0.01,0.0192,0.6369,3.2915,0.1877,21.52,0.0263,0.001,4.9912,0.048,5.19,0.9748,0.0257,0.5533,,15.5828,0.2675,201.9062,144.0855,0.9883,815.6863,4.5733,85.7005,-0.0464,3.6262,1.4827,2.1778,0.008,147.5527,0.5987,,8.5044,66.1799,1.9126,6.6836,9.16,0.1387,,70.0,2212.3,613.9161,707.1731,778.6022,9.7217,-0.0001,10.4366,,1698.811,0.0314,0.1043,0.3448,1410.7002,0.9607,0.0216,0.4968,4.9287,9.7896,,5.7536,,72.3535,0.0041,0.0008,0.7314,8.8777,2.6469,0.0056,0.2938,2.2432,87.2449,978.156,0.3447,0.1744,19.75,107.271,72.4711,0.015,3.683,1.3645,2.7902,2.0421,9.0973,2521.0,14.3189,23.0464,0.0016,0.0041,2.0902,0.0714,84.3147,410.5107,401.982,24.8609,847.5181,0.1335,737.0775,1.292,120.722,0.1123,0.9973,4.0706,0.0911,0.6846,49.634,4.5,-0.0001,0.0445,9639.37,2.8128,0.0,3.6726,0.0337,12.5439,6.2351,,0.0947,,0.373,4.66,42.8748,3117.3,445.4177,0.0096,15.9,0.2303,11.3281,0.146,0.9816,4.1558,412.2993,0.0011,0.0564,9.0454,204.1999,30.1272,0.0373,-0.1893,0.0844,0.1627,-0.0231,2854.0,80.79,428.7059,28.244,0.0018,15.85,0.0045,0.5012,192.1845,193.7,9.2,,3.8319,48.5321,3.1918,0.1396,119.2245,0.1212,37.6064,7.9417,0.0078,9.4944,5.6815,4.8067,0.0,15.4662,0.0257,193.4633,19.75,9.6515,0.9189,8.7352,3.5483,119.343,66.439,2.5268,76.8443,50.3661,5.504,,17.5016,37.8875,25.7778,0.0013,0.2457,4.178,1006.7654,1.9,-0.023,4.98,-0.0016,8.8535,10.3865,0.0016,
4.613,8.7578,6.1686,3.0365,0.0055,2.3146,5.925,-0.0001,135.3055,63.0,4.5064,139.9602,10.6326,0.0042,-0.0256,-0.0565,,0.0253,2.9354,0.1969,58.803,7.4439,0.0244,0.1096,0.087,5.1536,4.2071,4.767,112.0424,1.1152,1.0,-0.0046,1316.5398,,66.2335,1.3693,0.2693,0.1114,7.3763,0.0108,2331.0,0.0,0.0103,18.57,11.49,7.06,34.6667,0.1202,-0.0075,641.7755,,-4169.0,190.7677,1.12,0.0237,31.5354,0.0731,0.231,75.81,0.1043,0.3822,2.285,0.0435,0.0195,0.2394,22.19,13.2889,3.116,399.0,0.0513,0.2778,5.2178,4.5239,3.351,1.3963,8.6678,-0.0001,0.1111,1.9975,18.75,86.4047,,0.4531,0.0554,0.134,-0.041,0.0448,0.5391,4.5617,6.3232,1.7972,280.9139,6.6929,0.9266,,6.1278,0.61,0.0177,,0.0026,23.387,0.5819,1.3812,,103.9367,196.6997,3.1619,0.9567,1.1547,0.0034,0.0263,3.804,10.7173,9.87,0.3808,0.0557,1.3974,0.0131,14.9018,0.1622,0.9365,7.8978,29.4518,0.0349,0.9657,3.3177,0.0026,4.561,526.8464,0.0443,0.3476,0.1529,0.0,19.883,0.0031,7.06,2.9013,134.791,371.0,362.1182,0.0,4.6391,5.0344,39.9021,-5143.5,0.191,15.87,360.33,1.4478,2467.11,3.7547,0.6897,95.199,2.3356,7.9597,63.8889,,0.0028,2.4487,187.6033,0.459,0.0007,3.5381,0.9187,26.6127,1493.8781,7.3796,-0.5204,0.1953,168.6107,2.888,2.571,0.0158,1.3061,3.4514,0.0074,0.9231,0.2413,0.0394,0.075,0.6141,1.038,89.8,7.7153,0.0465,0.1431,0.9619,-0.0007,18.944,0.0038,0.1032,0.4688,6.65,0.3267,5.9478,0.0,63.9038,2.3814,39.3256,0.104,1.6069,0.0115,,0.0229,0.0246,,4.6108,-0.0002,3.1737,0.0149,23.8203,401.0,462.4475,0.9965,405.6238,0.5424,228.3659,1.5597,11.5631,0.0071,1.078,-0.1301,0.082,2.649,0.0385,0.101,,2.3307,631.0582,410.0,20.0336,3.5963,0.4828,0.0535,0.5593,70.2065,0.2738,2.491,0.0026,29.201,95.0999,0.9559,0.1013,-0.0571,0.0291,0.1748,132.916,,0.0135,0.0039,3.8,6.4413,4.23,9.8465,0.0142,41.1301,3.6399,23.7686,,0.0624,0.0301,2.7765,0.0175,2.5601,0.021,0.0516,0.6802,1.7365,0.1833,23.442,0.0292,0.0342,3.751,0.165,8.5615,0.9247,0.1773,0.7379,,43.4972,0.4257,199.5867,144.3518,0.9874,0.0,4.4466,113.0204,-0.0226,2.4706,2.9013,3.1444,0.0096,151.4745,0.6013,0.1183,6.7733,65.7964,2.5033,2.1739,5.44,0.1953,,70.0,2214.7111,173.7642,716.1259,0.0,9.6448,0.0,41.2733,,1801.128,0.0241,0.0789,0.4946,1132.0005,0.9628,0.0133,0.5019,4.7601,9.7625,25.2256,9.7082,,63.3404,0.0028,0.0013,1.4774,7.116,1.4813,0.0031,0.5551,2.3128,54.0636,228.5714,0.4946,0.089,15.0,141.5887,58.611,0.0181,1.0362,2.6983,4.8957,1.34,24.0366,2666.5,6.5315,13.9134,-0.0004,0.0039,,0.044,86.3239,356.4187,406.458,25.0982,647.8563,0.1403,747.6613,1.332,117.5064,0.2013,0.9947,0.8032,0.0877,0.982,49.6355,9.87,-0.0001,0.0638,8518.3601,1.952,0.0,2.5331,0.04,12.46,7.8561,,0.061,,0.6253,13.717,37.8829,3067.43,97.3171,0.0078,15.91,0.1625,14.496,0.1357,1.5899,4.9334,349.5702,0.0014,0.2045,6.3144,96.884,17.3769,0.0402,-0.2782,0.0368,0.2353,0.0486,2897.0,74.48,342.2439,18.033,0.0009,15.82,0.0082,0.2793,189.9419,71.0,11.9,0.0166,2.4119,40.0514,2.377,0.1595,119.2536,0.0347,18.8043,7.3342,0.0087,4.0698,2.2418,2.8904,0.0,,-0.053,81.3456,15.0,9.5642,1.1306,5.1048,4.5746,55.9127,7.7962,4.294,34.8442,50.3645,4.715,,17.2943,42.7792,40.2803,0.001,0.4747,4.232,1005.7904,1.7,-0.0175,,0.0004,8.6266,10.3225,0.0013,
,1.2438,13.0763,2.3355,0.0021,5.2518,5.6802,-0.0001,140.3773,99.0,3.5004,221.8678,8.2147,0.0056,-0.0166,-0.0829,263.684,0.0142,0.396,0.2416,59.6146,7.9251,-0.0146,0.1096,0.102,5.9357,2.3754,4.861,78.0891,0.8846,1.0,-0.0067,1220.8999,0.7889,245.6311,5.5864,0.2413,0.034,5.0838,0.0102,2933.0,871.3755,0.0003,21.16,12.16,9.15,20.4122,0.1217,-0.0127,632.25,,-4225.0,215.84,,0.0115,22.364,0.0675,0.104,,0.0694,0.2666,1.6486,0.0171,-0.2185,0.0941,15.14,8.1568,3.275,126.0,0.0336,0.252,6.5181,8.191,3.1281,1.3412,6.5913,0.0001,0.0583,1.8862,,87.241,,0.3606,0.025,0.1182,-0.0959,0.1342,0.2197,8.3634,6.333,1.2776,265.262,2.2366,0.9245,,4.2651,0.33,0.0735,,0.0026,44.708,1.0059,1.6405,,99.4889,79.2011,0.505,0.9424,0.8942,0.0031,0.0327,1.8025,13.17,5.98,,0.0766,1.4135,0.0161,2.4345,,0.9439,12.5109,49.5202,0.0365,0.9909,2.0695,0.0043,4.582,532.7645,0.0514,0.338,0.08,334.6091,34.579,-0.041,8.58,1.6174,64.219,481.0,354.9773,413.0909,4.5251,3.0349,36.3272,-6489.25,0.191,15.85,356.4855,1.0886,2675.58,3.9231,0.8117,107.3952,1.678,8.8827,66.1667,,0.004,2.4292,236.3364,0.437,0.0013,0.1072,0.8845,57.8173,1568.0936,8.2939,-0.2365,0.1222,154.1174,4.18,2.746,0.0213,0.9552,4.6499,0.0051,1.4396,0.3806,0.0224,0.074,3.6045,0.827,128.4,9.6694,0.0209,0.0569,0.9588,-0.0013,17.0058,0.0457,0.1472,0.466,22.81,0.2396,4.534,0.0,63.9428,1.5766,34.0441,0.314,0.8355,0.0213,,0.0151,0.0873,0.0716,0.6637,-0.0017,3.6334,0.1274,22.4824,490.0,464.9626,0.6505,420.2281,,249.9464,1.8971,9.3504,0.0037,1.035,-0.0936,0.105,1.4777,0.153,0.284,0.1675,1.7204,619.08,1491.75,44.9352,3.414,0.5562,0.1131,0.6576,,0.2293,15.147,0.0026,17.6657,54.2998,0.958,0.1275,0.1169,0.0005,0.0604,149.4442,,0.0077,0.0058,3.0,6.3529,2.98,1.4208,0.0104,120.8333,4.799,11.7398,4.1982,0.0806,0.0212,4.8572,0.0169,2.9163,0.0277,0.0225,0.5609,2.9618,0.191,17.313,0.0226,0.0011,6.5841,0.0586,5.0909,0.9466,0.0392,0.5718,,30.8174,0.5741,196.8626,136.8955,0.9688,181.0219,4.1646,57.936,-0.0209,5.0751,1.6174,2.5333,0.0073,143.2645,0.605,0.0183,5.452,65.9503,1.0014,6.5126,9.98,0.1222,,70.0,2200.7,66.4699,711.9075,204.722,9.4607,-0.0002,23.0054,,1801.8521,0.059,0.0872,0.3232,760.0996,0.9673,0.0186,0.5041,5.0501,10.0674,3.9378,7.3545,,74.8635,0.0064,0.0018,,7.116,0.957,0.0022,0.197,2.3672,47.3684,525.5575,0.3232,0.0316,29.22,59.7969,123.0704,0.0172,3.6078,3.4056,2.6213,1.6105,28.0784,3075.75,10.4241,15.6385,-0.0051,0.0037,4.4814,0.031,84.5743,244.6997,,17.5655,810.6502,0.1205,734.2715,0.9785,117.5134,0.1568,0.9999,4.935,0.0454,0.6424,49.6869,5.98,0.0,0.048,9318.6301,2.5871,0.0,2.7354,0.0341,12.5894,4.0485,,0.0633,,0.4672,6.892,25.7838,3099.87,8.4465,0.0078,15.87,0.1625,12.4903,0.1334,0.9496,0.7217,741.4348,0.0005,0.084,11.0109,81.2156,28.9641,0.0365,-0.0844,0.0428,0.1629,-0.0233,2862.0,64.4,273.494,38.44,0.0007,15.87,0.0049,0.4363,187.4019,162.8,5.8,0.0055,5.2351,38.8115,4.7199,0.1202,119.33,0.0325,16.9162,7.7721,0.0102,2.9953,6.9391,4.4167,0.0,21.2296,-0.0876,0.0,29.22,9.396,1.0735,11.3756,1.7261,69.4201,7.5509,2.4674,64.4611,50.3131,5.933,,9.6329,48.3165,20.3662,0.0009,,3.165,1006.3086,1.2,0.0085,11.07,0.0052,,10.4932,0.0013,
2.8687,8.5731,7.097,0.4572,0.0032,1.8449,8.694,0.0001,138.9555,144.0,,90.2226,7.669,0.0082,-0.0144,-0.011,264.272,0.0067,3.05,0.399,59.4528,5.2735,-0.0166,0.1079,0.134,5.6526,0.8709,4.855,115.0192,0.5469,1.0,0.0006,737.3658,0.5671,92.4335,1.229,0.1643,0.0526,7.3228,0.0229,1626.0,0.0,0.0003,20.62,13.48,10.95,44.0529,0.1194,-0.0114,642.9945,,-3634.5,66.8256,1.61,0.0179,29.9163,0.0446,0.502,81.702,0.0683,0.2192,2.96,0.0132,-0.037,0.1312,24.12,9.9823,3.474,8401.0,0.0282,0.3007,7.8802,4.3745,4.2129,1.5371,7.7077,0.0,0.1389,2.0077,11.58,86.7776,,0.7124,0.0568,0.138,-0.0004,0.0417,0.6543,8.5294,6.6528,3.2407,689.1609,15.0977,0.9192,,6.6007,0.27,0.038,202.5901,0.005,30.223,0.7362,1.4048,,91.64,103.4065,3.183,0.9456,0.9849,0.0037,0.0586,1.8761,17.3681,4.42,0.828,0.0684,1.3985,0.0236,-4.7818,0.3713,0.9433,7.37,23.7162,0.0321,0.9893,1.7984,0.0023,4.591,531.4591,0.0563,0.3913,0.0832,0.0,20.745,0.0266,9.66,1.4276,12.332,396.0,365.4155,708.8608,4.5457,3.546,24.9168,-5729.5,0.237,15.69,364.7909,1.2771,2450.49,3.4865,0.825,110.3075,1.9611,9.7242,72.4889,,0.0033,2.3072,168.6653,0.484,-0.0006,0.0938,1.0223,19.3191,2023.4334,8.6192,-2.317,0.1303,,2.71,3.054,0.017,1.0219,3.325,0.0034,0.8158,0.3032,0.0082,0.07,3.2817,0.773,67.9,8.7647,0.0254,0.0799,0.972,0.0006,41.0536,-0.0059,0.1199,0.4617,12.52,0.1598,6.2078,0.0,64.1009,1.0475,17.8357,0.097,1.0656,0.0105,,0.0102,0.0363,0.0382,4.4466,0.0004,4.0286,-0.027,14.9184,151.0,,0.6416,406.0695,1.1147,211.4155,2.0061,5.3958,0.005,1.617,-0.0141,0.171,0.6878,0.0861,0.09,0.0877,1.2305,625.6264,2425.3333,25.5203,3.0847,0.7769,0.0794,0.9136,74.2797,0.246,13.326,0.0021,20.6887,62.2,0.9791,0.1197,0.0278,0.0088,0.0558,156.765,,0.0024,0.0038,4.5,6.4625,5.76,9.0777,0.0242,562.1239,2.7709,12.6151,1.8844,0.1061,0.0222,2.8894,0.0225,3.2073,0.0354,0.0155,0.6282,1.967,0.1616,12.4,0.0045,0.0009,,0.052,5.9644,0.9585,0.1406,0.6313,,21.3831,0.8465,202.9385,138.6236,0.9661,0.0,4.5054,410.8597,-0.0729,2.6568,1.4276,1.8333,0.0012,146.9936,0.5906,0.0267,4.5748,66.5094,1.4895,4.4711,9.71,0.1304,,70.0,2269.2556,4434.5803,717.9711,174.2723,10.1361,0.0,64.0311,0.0179,1818.7974,0.0421,0.0916,0.3189,1059.0,0.9796,0.0159,0.4966,4.9303,10.0795,5.7892,6.0789,,127.3337,0.0029,0.0023,1.9706,6.7814,2.0791,0.0039,0.2474,2.4172,109.0909,411.7381,0.3188,0.1714,15.67,11.1797,121.2957,0.0153,1.9471,4.3905,2.1457,1.8176,19.5433,2760.0,10.2251,14.3478,-0.0015,0.0036,2.0902,0.0748,85.04,358.5953,403.666,24.7818,893.381,-0.1709,747.8874,1.3105,119.0374,0.1221,0.9993,3.902,0.0536,0.6338,49.6858,4.42,0.0001,0.0454,10608.8,3.0554,0.0,3.0756,0.0411,12.5833,3.7689,0.005,0.0859,0.0088,0.3928,6.397,39.3012,3002.82,346.3854,0.0073,15.86,0.1991,14.3976,0.1318,1.1215,4.4731,310.5287,0.0008,0.0464,5.7661,234.9223,36.6213,0.0373,0.3275,0.0611,0.1534,0.0657,2881.0,80.46,372.8696,20.366,0.0014,15.85,0.0022,0.3494,192.8024,55.4,5.54,0.0065,2.7231,37.4357,2.5047,0.1412,113.8418,0.0664,34.059,8.5209,0.0103,6.2855,2.1339,6.5916,0.0,15.4662,0.066,202.5901,15.67,8.8097,1.1015,5.2279,2.6792,44.7379,2.6355,2.741,111.441,50.3142,6.715,,12.8746,51.6988,3.9231,0.0016,0.6806,3.517,1007.6922,2.0,0.0277,4.98,0.0015,5.0163,10.7426,0.0015,
5.0794,5.8301,9.3914,0.3509,0.0029,5.9947,7.1874,0.0,143.6336,110.0,,69.2844,5.35,0.0006,-0.0184,-0.0186,258.072,0.0081,2.146,0.2145,57.5174,12.1227,0.0023,0.113,0.169,5.308,1.9838,4.893,89.0121,0.5041,1.0,0.0101,1861.5926,0.706,255.2691,1.9874,0.0856,0.0474,7.296,0.007,3946.0,495.6629,0.0003,19.27,12.6,5.64,30.2267,0.1216,-0.0099,649.87,0.001,-4326.25,617.4401,0.62,0.0469,31.0876,0.0271,0.509,73.57,0.0419,0.1734,1.2778,0.0128,0.1398,0.1214,20.11,9.7379,3.072,4822.0,0.0188,0.2073,3.9267,3.8739,3.8117,0.9864,8.0506,0.0001,0.0518,1.999,20.64,87.3675,1.5006,0.6164,0.0236,0.2879,0.2091,0.0772,0.1173,4.9115,5.89,4.5051,523.7209,14.2533,0.9223,3.5473,5.5141,0.43,0.02,,0.003,42.966,1.3269,1.5111,1.0826,95.4022,257.0552,2.2479,0.9477,0.876,0.0047,0.0377,3.6635,18.2436,8.28,0.4648,0.1009,1.4017,0.0188,-3.2436,0.2065,0.9465,13.8795,56.2729,0.0225,0.9897,2.5816,0.0033,4.638,514.4364,0.0517,0.301,0.0623,354.6468,23.3329,-0.0106,431.71,2.6236,65.864,684.0,364.6991,0.0,4.5444,2.4414,19.935,-5395.5,0.327,15.74,363.0345,1.0404,2508.03,2.6013,0.7348,102.6043,1.866,8.9022,76.3,0.0003,0.0015,2.4612,312.4819,0.524,0.0012,0.0674,0.6553,53.7654,1283.4368,3.9342,-0.8042,0.1196,,2.925,2.594,0.0267,0.9598,3.5711,0.0038,1.3882,0.2246,0.0188,0.052,1.7545,0.535,167.6,7.7347,0.0553,0.3315,0.9742,-0.0011,11.7679,0.0135,0.0844,,13.53,0.1476,4.8493,0.0,64.7823,1.1209,35.6227,0.084,0.691,0.027,1.5918,0.0109,0.0306,0.0492,3.0103,0.0,3.6869,0.0019,9.5981,1239.0,,0.5995,427.7493,0.9167,262.2785,2.073,5.3949,0.0151,1.366,0.0148,0.137,0.8337,0.0477,0.145,0.1257,1.7659,631.6264,-2180.25,50.6204,2.6343,0.4972,0.0938,0.5858,50.7027,0.219,7.505,0.0026,19.7442,50.5,0.9763,0.3284,0.0116,0.0331,0.08,70.627,1.5627,0.0075,0.0042,3.7,6.3697,5.63,6.2209,0.035,634.8562,6.6825,67.3679,3.3208,0.0404,0.0325,3.241,0.0351,138.3859,0.0137,0.0216,0.6621,4.0752,0.1667,17.708,0.0034,0.0007,,0.05,4.2447,1.3435,0.0288,0.5675,236.4012,37.8285,0.0653,203.0182,141.5373,0.9926,0.0,4.9625,356.4516,0.094,4.0745,2.6236,2.0,0.0013,150.2982,0.5968,,5.8125,66.432,1.3249,3.8179,5.81,0.1196,0.4587,70.0,2207.9555,2224.2312,719.9203,633.4118,9.3448,0.0001,12.2248,,1795.223,0.0469,0.1395,0.2964,840.5996,0.9794,0.0159,0.499,6.765,10.0,,7.5569,98.1729,54.6742,0.0084,0.0002,0.8427,8.4732,1.8065,0.0015,1.2571,2.2809,95.0,0.0,0.2964,0.1866,12.64,64.1923,215.5306,0.0131,2.0819,1.7726,3.4124,83.919,9.3883,2490.75,13.0477,27.4616,-0.0005,0.0036,3.7853,0.1109,84.8754,312.1508,406.35,23.2436,739.5716,0.0251,751.0079,1.2953,119.2618,0.1589,0.999,2.4495,0.1176,0.5863,49.445,8.28,-0.0001,0.0663,8632.2199,1.9729,0.0,1.8604,0.0751,12.6012,5.7353,,0.1273,,0.4814,11.76,37.5861,3222.84,221.1673,0.0096,15.79,0.2742,21.4314,0.1174,1.8467,3.0642,276.2887,0.0008,0.0673,7.0569,152.4982,29.0,0.0993,-0.1382,0.0697,0.1511,0.0198,2871.0,81.59,638.2632,18.037,0.0005,15.78,0.0024,0.2571,193.6734,193.2,8.62,,2.4017,43.3855,2.0012,0.1453,118.2936,0.0196,40.8061,21.7318,0.013,5.9013,1.8484,5.0245,0.0,17.8036,0.0163,141.6245,12.64,9.1637,0.8921,4.6372,2.3852,91.2106,22.9636,2.2872,90.6618,50.555,6.628,0.1031,12.0356,19.6552,23.4749,0.0009,0.2397,3.882,1002.7791,1.9,-0.0461,8.57,0.0004,8.9932,10.5591,0.0016,0.9837
4.8418,6.8682,7.2222,1.8384,0.0035,3.1034,6.2475,0.0003,131.7991,104.0,2.8276,161.6247,7.1217,0.0057,-0.0596,-0.0375,264.272,0.0081,2.5294,0.2168,52.8068,9.6107,-0.0036,0.1112,0.104,5.6675,3.8297,4.823,133.4351,0.3126,1.0,-0.0141,1205.1695,0.5671,154.9404,4.1892,0.0911,0.068,7.209,0.01,2565.0,434.9446,0.0016,19.87,4.72,11.57,44.4444,0.1198,-0.0121,623.9445,0.0019,-3104.75,578.3935,1.39,0.0469,27.401,0.0322,0.662,73.314,0.0205,0.0955,2.1461,0.0163,-0.0641,0.1846,20.88,12.6983,3.069,1217.0,0.0087,0.2183,8.7785,6.0139,1.372,1.2392,7.1194,0.0001,0.0548,2.0017,19.49,86.7475,1.1336,0.4137,0.0238,0.1084,0.0439,0.1345,0.1173,4.6107,5.5986,2.9295,645.3679,20.7357,0.9323,2.6685,6.0209,0.6,0.0247,,0.0054,22.966,1.4642,1.4888,0.7998,95.7878,282.7586,2.5863,0.9546,0.8611,0.0027,0.0576,1.807,6.7378,4.02,0.4644,0.2577,1.4021,0.0128,-2.5945,0.1926,0.9404,6.3656,32.1986,0.068,0.9642,1.6733,0.0061,4.605,535.9491,0.036,0.3358,0.0336,207.5724,27.377,-0.0128,9.88,1.1502,87.267,196.0,346.7927,458.7413,4.5941,4.4904,34.7159,-5294.5,0.278,15.86,350.5964,1.0583,2806.91,7.7432,0.6957,115.7535,1.9753,3.2473,74.7,0.0005,0.0063,2.3682,94.3486,0.221,-0.0012,0.5267,0.8201,30.098,1303.5386,7.2864,0.0,0.1386,149.8727,2.374,2.593,0.0572,0.9598,3.1926,0.0044,0.8779,0.4348,0.036,0.155,1.9584,0.721,108.9,7.9646,0.0209,0.1212,0.9685,0.0012,18.5793,-0.0224,0.1784,,13.17,0.1016,4.2838,0.0,64.2547,1.4333,17.7919,0.249,1.2306,0.0205,1.7496,0.0139,0.0845,0.0382,3.5502,0.0001,2.5647,-0.0056,10.8491,1300.0,469.4273,0.6945,409.2625,0.7955,186.3946,2.0751,3.0963,0.0151,1.593,-0.0032,0.192,0.8311,0.0466,0.302,0.0877,3.4837,619.3,178.0,61.9216,2.7137,0.478,0.0932,0.5669,58.3809,0.2264,8.015,0.0024,22.0636,63.3999,0.9771,0.313,0.0349,0.0331,0.109,131.267,1.7327,0.0117,0.0073,3.2,6.2945,8.73,7.0435,0.0237,0.0,3.8797,18.4727,1.8844,0.0496,0.0274,3.8658,0.0376,3.5115,0.0171,0.0141,0.6599,4.4085,0.1832,34.924,0.0177,0.0051,4.7607,0.0613,8.5035,0.9852,0.0288,0.5533,235.4042,19.0321,0.5855,203.5542,145.3527,0.9766,0.0,2.1573,169.0667,-0.0427,2.6638,1.1502,1.6889,0.0058,145.9455,0.6063,,10.4498,66.1799,1.9126,5.1572,5.66,0.1387,0.536,70.0,2231.0555,598.6323,708.1876,397.6517,10.0962,0.0001,12.2248,,1801.537,0.0494,0.1043,0.3448,1175.3994,0.9647,0.0371,0.5028,5.0189,10.124,,5.463,99.0332,75.7903,0.0049,0.0018,1.896,9.2002,2.8248,0.0028,0.3649,2.2718,71.0526,0.0,0.3447,0.1928,10.89,75.3904,66.1541,0.0136,2.1108,2.1821,4.8026,1.8435,9.7942,2665.5,8.3383,7.3532,0.0045,0.0036,2.0902,0.0694,84.3147,348.8415,402.538,22.5945,829.6125,-0.417,735.5886,1.2472,120.722,0.1162,0.9951,2.0417,0.045,0.6846,49.634,4.02,0.0004,0.0634,9256.32,1.6412,0.0,3.2337,0.0301,12.4933,3.3232,,0.1387,,0.3439,5.215,40.0209,2916.12,683.7079,0.0102,15.9,0.2303,11.0074,0.1305,0.9751,3.4603,550.9434,0.001,0.0508,8.9129,221.6175,25.7124,0.089,0.7892,0.0435,0.1434,-0.0294,2835.0,80.79,75.535,23.977,0.0009,15.82,0.0028,0.5012,193.4579,90.5,4.85,,3.2596,36.8835,3.4022,0.0769,122.7582,0.034,49.5089,21.024,0.0092,9.1139,5.42,4.7198,0.0,15.4662,0.0073,141.6245,21.07,9.6515,0.84,7.6387,2.921,82.6153,24.5538,2.8417,133.8497,50.3661,7.284,0.1966,16.084,41.7988,29.06,0.0019,0.5703,4.136,1002.5096,1.2,-0.0252,4.98,-0.0045,9.3155,10.2442,0.0011,0.9829
,5.5453,9.8569,2.6067,0.0042,5.8596,5.0532,0.0007,143.1864,170.0,,124.2062,3.747,0.0021,-0.025,-0.0921,,0.018,1.8348,0.2118,57.4551,13.364,-0.0102,0.1096,0.142,5.6462,2.1733,4.778,138.8928,0.4774,1.0,-0.0058,298.7178,,212.0401,3.0497,0.132,0.0379,7.4433,0.0074,612.0,704.0685,0.0002,19.83,9.9,3.81,20.6769,0.1213,0.0203,628.5345,,-3695.5,355.1549,,0.0113,23.2157,0.0378,0.521,,0.0977,0.3092,2.6711,0.0113,0.0675,0.0807,15.67,14.9804,3.21,4925.0,0.0426,0.1022,2.6609,6.2953,2.6787,1.4068,7.2556,0.0,0.1194,2.0317,,87.1954,,0.4055,0.0527,0.2337,-0.0966,0.0985,0.4722,8.4123,6.3932,4.5618,218.269,15.5626,0.9337,,4.4492,0.93,0.0497,73.6411,0.0042,57.814,0.7871,1.4243,,106.96,187.0752,1.9521,0.9572,0.9174,0.0039,0.051,2.6291,17.0281,6.34,,0.0924,1.3896,0.0135,2.99,,0.9485,18.2876,62.2234,0.0382,0.9912,3.0269,0.0161,4.574,532.1318,0.0409,0.358,0.0951,441.0646,36.582,0.0076,9.3701,1.9763,66.747,846.0,352.1991,0.0,4.5319,3.1768,28.116,-5513.5,0.166,15.87,351.2082,0.7574,2314.35,4.4789,0.7747,125.9747,2.3355,7.4353,65.9111,,0.0356,2.3541,377.281,0.467,0.0008,0.0616,0.9365,59.3279,875.7538,3.2231,0.0473,0.147,,3.462,2.841,0.0254,0.987,3.3478,0.0072,1.0427,0.2261,0.0206,0.091,3.0938,0.378,180.2,9.4448,0.0294,0.13,0.9655,-0.0008,13.954,-0.0263,0.1003,0.4611,19.66,0.1418,3.9447,0.0,63.9959,2.1239,37.2722,0.407,1.0652,0.1118,,0.0205,0.1012,,2.9402,-0.0019,2.9398,0.1423,13.1942,759.0,,0.7576,412.722,,0.0,4.5651,5.0879,0.004,0.9365,-0.084,0.151,1.8725,0.116,0.227,,2.5218,611.5064,-3628.25,31.7248,2.3312,0.4955,0.0711,0.577,,0.222,12.769,0.0026,16.5459,49.5,0.9605,0.093,-0.0333,0.0154,0.1923,60.2979,,0.0067,0.0174,2.6,6.3477,5.31,6.0227,0.0311,84.6429,7.7862,17.3695,,0.0463,0.0426,5.2121,0.0461,3.3101,0.0142,0.0238,0.5873,2.3018,0.1845,25.332,0.0252,0.0006,,0.0411,5.5291,1.4418,0.102,0.5871,,35.4372,0.2071,197.9876,133.1491,0.9911,203.9216,4.4188,101.7649,-0.0403,3.7892,1.9763,1.7778,0.0085,144.1591,0.6058,0.0168,8.7842,66.5687,0.8274,5.4972,9.77,0.147,,70.0,2179.2,2094.5856,701.865,0.0,9.3832,0.0022,47.843,0.0113,1870.7982,0.0357,0.0648,0.3767,1303.3999,0.9652,0.0549,0.4984,6.1383,10.0881,3.6451,9.1848,,102.155,0.0359,0.0006,,7.116,1.6608,0.0035,0.4057,2.3604,61.875,904.2202,0.3767,0.1556,21.15,52.9844,205.6264,0.0116,3.1279,1.9616,7.4462,1.7609,24.3307,2884.75,10.8833,29.3266,-0.0016,0.0035,,0.1074,85.8807,364.4817,,17.01,749.6111,-1.0008,725.0807,1.3048,118.0116,0.1847,0.9999,3.8037,0.0632,0.7492,49.7225,6.34,0.0002,0.0937,8700.71,2.9916,0.0,1.0982,0.0645,12.4896,6.8674,0.004,0.1584,0.0154,0.583,8.227,39.1467,3025.81,135.7404,0.0078,15.86,0.1407,16.2053,0.131,1.2708,3.042,0.0,0.0012,0.0809,11.1178,75.9057,40.3694,0.0363,0.5388,0.0654,0.1566,-0.0089,2834.0,65.11,253.3066,31.209,0.0013,15.86,0.0061,0.2593,188.6044,177.3,9.9,0.005,4.3042,38.4421,3.4587,0.1404,116.1391,0.0257,24.9236,6.5296,0.0115,4.9645,8.9807,7.5736,0.0,,-0.0522,73.6411,21.15,9.754,1.0008,9.3046,3.463,16.5607,13.7662,2.2715,96.4514,50.2775,13.652,,18.5286,16.8534,16.9301,0.0017,,3.541,1004.5168,1.1,0.0027,,0.0016,,10.5685,0.0014,
4.7986,7.9119,12.1701,1.9291,0.0035,2.491,5.7176,-0.0002,139.5273,113.0,,141.8291,8.0055,0.0015,-0.0214,-0.0065,262.066,0.0121,2.7855,0.1495,58.1559,4.7196,-0.0036,0.1092,0.156,4.1206,2.7068,4.83,88.6069,0.1959,1.0,0.0021,742.2152,0.624,157.5781,0.5061,0.1613,0.0738,7.3115,0.0175,1646.0,0.0,0.008,14.51,11.88,6.35,26.3104,0.1237,-0.0122,635.0691,,-3883.0,129.4176,1.09,0.0087,30.1688,0.0476,0.482,72.672,0.0256,0.3033,1.4957,0.0097,-0.0379,0.1865,18.84,9.3221,2.967,15082.0,0.0114,0.1922,4.5511,6.3806,3.9576,0.9125,7.0652,0.0001,0.0436,1.987,19.17,86.797,,5.1549,0.0207,0.1359,0.0882,0.0197,0.4087,11.3419,5.3949,3.9904,320.788,13.6098,0.9314,,5.3447,0.21,0.0125,,0.0032,75.544,1.267,1.4233,,86.7956,41.7448,2.7952,0.9503,0.8598,0.005,0.2258,2.0864,14.87,4.66,0.2575,0.0525,1.4345,0.0335,-2.9573,0.1036,0.9413,21.9183,50.647,0.0538,0.963,2.3508,0.002,4.59,504.9173,0.0939,0.2269,0.0916,75.629,33.731,-0.0049,438.87,1.4808,149.577,4099.0,352.4991,279.8354,4.659,3.9578,34.7506,-5349.75,0.938,15.57,352.1355,5.711,2398.4,5.8883,0.7859,155.0317,2.2656,8.3052,71.6,,0.0044,2.3627,2004.8779,0.746,0.0098,2.7305,0.6053,23.4982,2130.9862,7.8669,-2.08,0.0702,,3.396,2.779,0.0139,0.994,3.5416,0.0044,1.5421,0.1498,0.0255,0.117,3.1273,0.8,165.8,9.5859,0.0551,0.5502,0.9694,-0.0099,31.6538,-0.0348,0.0543,,18.8,0.0603,26.3966,213.8062,64.4107,1.3706,20.2986,0.299,1.2493,0.017,,0.0133,0.1017,0.0524,4.0301,0.0003,6.5438,-0.0205,16.1073,302.0,,0.3408,333.4486,0.5617,184.7458,1.1225,4.3827,0.0022,0.9649,-0.0367,0.725,1.2404,0.0263,0.037,0.1315,2.3799,620.1991,1609.6667,54.4356,2.6898,0.4059,0.099,0.466,45.838,0.1984,10.428,0.0019,15.7643,41.2,0.9753,0.1339,0.0035,0.0247,0.0523,144.6616,,0.0097,0.0048,18.9,6.3494,3.92,7.9709,0.0305,269.3878,6.9129,96.9601,3.4686,0.1013,0.024,4.76,0.0206,131.4529,0.0344,0.0132,0.5349,3.846,0.2003,23.556,0.0185,0.0263,,0.0389,6.8055,1.2842,0.0973,0.5538,,22.4205,0.1474,200.7919,143.0427,0.9882,0.0,7.217,822.9885,-0.1307,4.7212,1.4808,0.7667,0.0058,147.9782,0.5992,,8.6549,66.3369,2.1246,5.9596,13.62,0.0702,,70.0,2211.4334,8599.4442,708.6296,902.0408,4.4696,-0.0003,41.1198,,1838.8758,0.051,0.3932,0.1701,827.0,0.9579,0.0211,0.4997,4.3898,9.9931,,4.8467,,76.4889,0.0046,0.0005,1.4999,7.0908,1.3485,0.0019,2.1967,2.3075,0.0,0.0,0.1701,0.1639,21.09,96.4815,217.3887,0.0134,2.9603,4.3917,1.6735,86.9192,26.7162,3395.25,12.0069,120.7275,0.006,0.0037,3.8572,0.0943,87.1083,291.4269,399.494,22.9573,784.527,0.2807,738.7985,1.2992,118.0094,0.0997,0.9998,3.6129,0.1153,0.3396,49.9078,4.66,-0.0002,0.0537,8871.3899,4.6627,0.0,1.8646,0.0477,12.5488,5.1967,,0.0746,,0.3077,6.764,28.1477,3030.88,936.9642,0.0077,15.67,0.7949,10.5799,0.127,1.1351,3.9697,640.6871,0.0009,0.0442,10.83,104.0964,29.0785,0.0566,-0.3341,0.0713,0.1102,0.0236,2855.0,77.83,540.0468,31.239,0.0006,15.67,0.0042,0.1726,196.3223,75.5,7.69,,4.2284,38.7933,3.4005,0.1954,120.0855,0.0634,15.0535,9.4077,0.0086,4.5164,6.4177,5.1738,0.0,21.0798,0.0613,35.3988,21.09,8.7779,1.0015,9.8162,2.8291,42.3899,5.6451,1.863,657.7621,50.0922,3.61,,11.2943,45.7862,48.2774,0.0011,0.3982,3.454,989.8022,16.3,-0.0116,9.09,-0.0061,8.4914,10.3367,0.0017,
,7.8002,5.4395,0.2737,0.0039,6.6376,6.9993,0.0001,143.7364,140.0,,156.9053,9.1163,0.0015,-0.0189,0.0166,260.91,0.0169,2.5338,0.1894,55.396,6.8529,0.0199,0.1123,0.133,4.3487,3.6612,4.868,92.3907,1.5035,1.0,0.0157,710.9444,0.8489,119.1933,2.1759,0.1353,0.0664,7.2153,0.0242,1535.0,354.708,0.0004,15.53,7.57,6.73,46.3158,0.1211,-0.0119,626.0645,,-3786.0,264.9446,,0.0235,18.9734,0.037,0.395,,0.1033,0.2048,2.96,0.0157,0.0314,0.1807,24.79,9.4909,3.419,14400.0,0.0487,0.2439,4.6822,7.7674,2.6169,1.1825,7.8047,0.0,0.0293,1.9955,,86.9351,,0.4583,0.012,0.2854,0.0843,0.0745,0.1975,6.3996,5.1702,1.1253,290.196,11.4944,0.9256,,7.0081,0.19,0.0101,106.1758,0.0055,24.785,1.1396,1.4914,,101.6111,664.3087,2.8783,0.943,0.977,0.0046,0.0341,2.2379,10.1335,6.34,,0.0986,1.4136,0.0122,5.3191,,0.9397,6.9929,64.8731,0.026,0.9911,2.1924,0.0029,4.59,530.6746,0.034,0.3253,0.071,76.5499,30.799,-0.0023,10.8,1.7709,80.314,387.0,353.7345,0.0,4.6622,5.8064,53.4215,-5392.5,0.254,15.68,357.12,0.4755,2514.67,3.1571,0.666,89.4849,2.0193,5.8868,73.2111,,0.003,2.4393,171.6807,0.49,-0.0007,0.1259,0.7801,65.9561,1173.8377,7.205,-0.4731,0.1119,,3.054,2.894,0.0284,1.0038,3.4364,0.0081,0.6796,0.3024,0.0344,0.063,3.3619,0.939,180.8,9.081,0.0478,0.086,0.9481,0.0007,37.2223,-0.0278,0.1114,0.4648,22.56,0.4375,2.1855,0.0,64.5242,2.5601,43.1853,0.276,2.0536,0.0178,,0.0243,0.0881,0.1296,4.0298,0.0001,2.4052,-0.0074,13.441,626.0,,0.5875,412.5335,,134.4037,1.8278,16.2719,0.0078,1.395,0.0132,0.097,1.7646,0.0213,0.157,0.2878,2.3624,617.5227,-2334.0,44.9927,2.2111,0.486,0.0813,0.5765,,0.2404,13.869,0.0018,17.3969,52.0999,0.9591,0.0945,0.0067,0.0221,0.0481,127.9607,,0.0118,0.0045,1.6,6.2018,6.89,9.1966,0.0095,613.5849,7.1898,15.1082,2.4951,0.0881,0.018,4.3768,0.0221,3.894,0.0294,0.0102,0.8539,3.5115,0.1802,23.646,0.0027,0.0012,,0.0558,10.4816,1.2368,0.0405,0.6304,,41.3475,0.1479,202.8022,128.5936,0.9854,0.0,4.6864,246.988,0.1111,2.0348,1.7709,1.7667,0.0009,146.49,0.5974,0.0174,7.1108,65.973,2.1618,6.7486,7.29,0.1119,,70.0,2200.2333,7201.3667,703.6855,0.0,9.2397,-0.0003,19.6702,0.0235,1776.0103,0.04,0.1009,0.2914,781.3003,0.9807,0.0174,0.5013,4.9267,10.3003,3.7417,3.0685,,84.3146,0.0044,0.0005,,5.1301,2.2877,0.0039,0.3051,2.3195,62.2642,496.4128,0.2914,0.1286,15.9,89.7514,46.3952,0.0111,3.6035,3.7976,1.5189,2.0351,15.42,2655.75,10.3341,14.5722,-0.0001,0.0031,2.7197,0.0274,84.3084,277.5521,,14.6809,713.2748,-0.07,722.6588,1.287,117.9356,0.0727,0.9987,4.6146,0.0864,0.5782,49.6004,6.34,0.0002,0.041,8232.1,2.3201,0.0,1.9488,0.0819,12.5094,4.8468,0.0078,0.0743,0.0221,0.1903,7.845,33.9859,3004.08,616.9666,0.0058,15.73,0.2154,23.0767,0.1318,1.3281,4.5348,0.0,0.001,0.0289,9.7847,95.0969,35.0454,0.0289,0.3393,0.0626,0.1193,-0.0218,2858.0,79.94,457.7483,25.024,0.0014,15.72,0.0057,0.3478,193.5625,199.4,7.1,0.0053,3.4628,37.408,4.0339,0.1311,113.9127,0.0671,24.722,6.3361,0.0098,6.7808,5.9199,6.3355,0.0,33.9043,-0.0156,106.1758,24.91,8.3591,1.0066,7.9145,3.2198,40.5441,11.6087,2.3679,81.2849,50.3996,5.778,,12.953,44.6211,24.2678,0.0018,,5.151,1000.9221,1.1,0.0003,6.51,0.0001,,10.4558,0.0018,
5.1386,5.7026,9.2152,0.6898,0.0039,4.8998,7.5373,0.0002,134.6173,152.0,,187.7385,7.1483,0.003,-0.0068,0.0123,264.272,0.0105,2.0931,0.1883,59.5625,14.4055,0.0077,0.114,0.118,6.5644,2.842,4.882,173.0358,0.6463,1.0,0.008,309.8326,0.5671,92.522,2.1747,0.1271,0.0352,7.3575,,729.0,663.2319,0.0004,23.2,8.21,10.63,27.9612,0.1196,-0.0129,637.9382,0.0012,-3606.25,374.9809,0.42,0.0596,34.9591,0.0429,0.933,72.59,0.037,0.0811,3.5807,0.0148,-0.074,0.0841,23.59,,3.204,16320.0,0.0157,0.2437,7.8965,7.4516,2.4822,1.1214,7.8582,0.0,0.0525,2.0308,19.97,86.4814,0.7628,0.654,0.0243,0.1113,0.0214,0.0774,0.1166,7.5198,6.8188,2.9185,408.0831,27.3367,0.9286,1.8071,6.7069,0.25,0.0114,136.2608,0.0036,40.443,0.8188,1.4174,0.5184,103.9611,130.742,2.2238,0.9481,0.9753,0.005,0.0324,3.4519,9.5452,6.22,0.435,0.0626,1.4186,0.0056,-6.7227,0.197,0.9239,12.1161,56.5877,0.0719,0.9896,2.203,0.0026,4.629,536.5927,0.0157,0.2828,0.0283,269.496,37.884,0.0384,6.82,2.1441,119.768,274.0,351.7273,0.0,4.5354,2.4643,18.5999,-5631.0,0.251,15.47,353.42,1.1949,2505.29,8.5683,0.6799,132.1238,2.1566,5.4158,74.0444,0.0004,0.005,2.3917,128.3001,0.553,-0.0006,0.1169,0.7404,45.848,1078.786,11.329,-1.277,0.1737,,4.597,2.51,0.0161,0.9523,3.413,0.0049,1.4167,0.3394,0.0263,0.174,2.9724,0.695,159.8,9.8821,0.0589,0.1331,0.9663,0.0006,,-0.0094,0.1283,,23.41,0.1885,4.5918,0.0,64.0727,1.5547,23.2761,0.253,0.7467,0.0149,2.2173,0.015,0.0786,0.0382,3.0711,-0.0001,1.1074,0.0046,13.2817,844.0,,0.8713,423.699,0.8113,68.0493,3.7287,6.5631,0.0212,1.102,0.0277,0.091,1.0791,0.0254,0.16,0.0877,0.778,629.7482,-1354.3333,31.0172,2.2371,0.5264,0.1079,0.6254,53.6194,0.2446,12.594,0.0025,22.1723,56.7,0.9727,0.1585,-0.0012,0.0437,0.0754,192.7689,2.179,0.0072,0.0046,3.4,6.2375,5.36,6.3489,0.0248,389.8826,6.3785,20.5512,1.8844,0.0861,0.0252,5.3175,0.0196,2.3058,0.0306,0.0211,0.7157,2.4374,,7.677,0.0067,0.0012,,0.0531,4.1373,1.2,0.0272,0.6249,236.8977,33.1158,0.3013,195.5345,151.5936,0.9871,0.0,5.6113,449.5935,-0.0685,3.9777,2.1441,2.4444,0.0024,151.4573,0.5939,,3.218,66.0271,0.9344,6.3152,9.39,0.1737,0.6821,70.0,2204.6667,8201.7767,712.4409,177.0545,9.8472,-0.0002,12.2444,0.0596,1701.5523,0.0517,0.1068,0.4344,,0.9733,0.0168,0.5016,2.8927,9.7225,,3.2385,98.2707,90.1464,0.004,0.0009,0.5786,7.6629,1.7918,0.0052,0.4432,2.3025,77.7273,814.3089,0.4344,0.2853,17.92,90.6483,217.4366,0.0112,3.6696,3.7393,1.9907,1.271,8.8588,2510.25,9.3078,10.9152,-0.0014,0.003,2.0902,0.0698,84.1675,,388.628,26.7227,888.9527,-0.3308,747.4,1.2677,119.623,0.0648,0.9976,3.3457,0.1195,0.8663,49.8561,6.22,0.0004,0.0553,,2.5348,0.0,2.7979,0.0307,12.5582,5.315,0.0212,0.0716,0.0437,0.202,11.577,53.3196,2918.48,0.0,0.0087,15.54,0.2098,9.2792,0.1452,0.9152,3.2469,359.686,0.001,0.068,11.2169,150.3231,33.5981,0.055,0.7891,0.0514,0.167,-0.0771,2813.0,12.77,0.0,30.565,0.0014,15.51,0.0035,0.3925,185.6873,143.0,8.05,,4.0895,43.1645,3.7602,0.1427,124.8709,,37.828,11.1822,0.0059,5.1558,5.5784,6.793,0.0,15.4662,-0.0283,136.2608,23.68,9.004,0.9566,9.1959,3.2618,20.2149,14.9885,2.5718,54.491,50.144,12.986,0.1215,19.4651,59.3795,41.5029,0.0014,0.1949,4.133,986.7484,1.9,0.0199,4.98,0.0014,8.8373,9.8552,0.0016,0.9827
3.7307,8.2462,8.9496,0.4009,0.0039,8.3397,4.3721,-0.0001,143.6591,180.0,,121.7043,11.9985,0.0025,-0.016,-0.0671,264.45,0.0146,3.0949,0.302,56.17,7.1805,0.0268,0.1096,0.103,4.8258,3.4732,4.819,137.5047,0.3587,1.0,-0.0032,6061.4138,0.884,870.1786,4.4842,0.2393,0.0324,4.973,0.006,12654.0,0.0,0.0013,16.83,7.11,21.85,49.9376,0.1203,-0.01,626.4555,,-6693.75,178.0384,1.32,0.0226,23.1579,0.0703,0.239,78.422,0.0404,0.1186,2.0267,0.0203,0.0353,0.0743,16.92,15.0421,2.816,269.0,0.019,0.3314,15.2096,4.8739,2.1581,1.4263,8.1449,-0.0001,0.0348,1.887,15.18,87.1381,,0.3354,0.0193,0.2948,-0.0328,0.0993,0.1339,6.3209,5.942,2.5291,594.899,5.2412,0.9327,,4.847,0.19,0.0072,,0.005,116.057,0.8054,1.4469,,97.9378,42.1162,3.1636,0.9495,0.9876,0.0046,0.0212,1.4075,13.7382,4.43,1.0427,0.1415,1.3918,0.0119,0.5091,0.436,0.9217,44.1753,44.7169,0.0388,0.9682,3.7266,0.0035,4.576,513.0527,0.0278,0.3534,0.0412,50.4259,32.386,0.0208,426.69,1.6102,72.574,429.0,349.0809,318.7856,4.5454,2.9193,149.3851,-6305.5,0.138,15.75,348.7509,0.8054,2693.2,4.6105,0.6887,69.6275,1.8366,5.3173,67.6111,,0.0032,2.3091,198.4817,0.285,0.0012,0.4479,0.9513,73.5463,1167.9207,7.1926,-0.0473,0.1417,,6.215,2.688,0.0335,0.978,4.56,0.0071,1.2142,0.2813,0.032,0.087,3.4171,1.198,144.1,8.6292,0.0643,0.3866,0.9563,-0.0013,10.3879,-0.0294,0.1126,0.4621,15.11,0.1067,3.9934,0.0,64.2442,2.1806,22.7285,0.26,0.7725,0.0105,,0.0209,0.0909,0.0648,4.258,0.0022,1.9975,-0.1637,25.0005,377.0,,0.6875,407.5651,1.2014,222.3642,1.7641,3.404,0.0079,1.078,0.1108,0.051,1.5137,0.0148,0.223,0.1644,3.2651,612.7173,1558.75,21.7872,2.1695,0.7473,0.0317,0.8752,86.7877,0.2364,13.927,0.0026,21.8728,61.3999,0.9641,0.0697,0.0016,0.0048,0.0483,125.3848,,0.0109,0.0038,2.7,6.3205,9.69,8.5551,0.0211,28.6037,5.3505,60.4003,3.4638,0.044,0.0208,4.6556,0.0302,134.9539,0.0143,0.0225,0.536,1.7745,0.1952,32.527,0.0039,0.0043,,0.0713,5.1972,1.217,0.0362,0.6345,,20.1056,0.2523,204.2045,133.7155,0.9886,209.0909,2.7405,61.699,-0.053,3.5332,1.6102,2.4,0.0012,149.7418,0.5985,0.0216,13.0513,66.6973,0.7634,4.5821,7.22,0.1417,,70.0,2219.1333,113.4765,695.6406,410.9211,10.5389,0.0,13.6884,,1743.2584,0.0168,0.0658,0.3412,1474.9004,0.9786,0.0141,0.5011,6.9116,9.9845,4.6805,10.0707,,70.1757,0.0028,0.0007,1.6832,7.116,3.1115,0.0026,1.1093,2.3259,37.5,527.0019,0.3412,0.0664,16.72,104.2319,77.6898,0.0109,2.412,1.8899,1.5145,83.1669,13.1808,3049.5,10.6213,14.0679,-0.0033,0.003,3.4665,0.0584,85.3825,410.311,406.894,19.4909,834.2252,0.151,718.7985,0.9698,118.0668,0.2013,0.999,5.1703,0.1251,0.6774,49.6284,4.43,-0.0001,0.0414,9805.1499,2.0669,0.002,6.251,0.0965,12.5455,9.1825,,0.1041,,0.6365,4.656,38.9207,3060.07,17.2574,0.0078,15.75,0.1169,24.2225,0.1283,0.9002,4.1895,968.9354,0.0012,0.0856,9.4567,206.3697,35.8303,0.023,-0.3097,0.0455,0.159,-0.0157,2830.0,16.64,781.875,27.92,0.0008,15.74,0.0051,0.3228,193.6656,255.2,13.75,0.0072,3.8843,39.4787,2.7288,0.0935,114.2245,0.0203,50.9366,4.8172,0.0142,9.894,5.72,8.1895,0.0,18.5935,-0.0959,474.0812,16.72,9.7324,0.957,8.5404,3.2416,189.042,5.9789,2.7668,32.0755,50.3716,5.039,,16.4829,43.521,21.7804,0.0014,0.5541,3.494,996.2163,0.9,0.0107,9.16,0.0033,7.0216,10.3997,0.0016,
3.8877,6.2198,9.4225,0.5297,0.0033,1.5096,6.5322,-0.0003,134.1827,98.0,2.7408,134.4934,8.2834,0.0031,-0.0195,0.0723,268.266,0.0217,2.3925,0.2947,57.9937,10.6396,-0.0012,0.1096,0.128,4.9656,2.5863,4.84,169.275,5.7154,1.0,-0.0113,2454.1701,0.8091,444.5596,3.9635,0.1203,0.0543,5.1217,0.0167,5093.0,606.6225,0.0002,17.33,11.67,10.25,84.1202,0.1216,-0.0058,617.4827,,-5171.5,202.6152,0.58,0.0098,19.3468,0.0395,0.131,74.524,0.1028,0.1548,2.3187,0.0179,0.0795,0.1535,20.59,15.9268,3.101,75.0,0.0482,0.2422,7.6388,5.859,3.052,1.2503,7.0122,0.0001,0.0988,1.898,15.66,86.7481,,0.2784,0.0503,0.1043,0.0773,0.0972,0.1405,6.9089,5.6114,1.8046,380.8229,2.8257,0.9378,,5.8696,0.51,0.0162,706.824,0.0049,13.396,1.7419,1.44,,106.3311,0.0,3.1699,0.9452,0.9084,0.0036,0.0265,2.064,7.8294,6.24,0.5214,0.1205,1.4027,0.0162,1.4036,0.2135,0.9435,4.4856,34.5822,0.0394,0.9903,1.3896,0.0033,4.575,535.9227,0.0441,0.3192,0.0423,119.5652,27.73,0.0092,8.65,2.205,35.213,662.0,350.7918,404.3011,4.6615,3.0612,24.2996,-6224.75,0.264,15.88,349.0027,1.1392,2531.63,4.4784,0.6518,193.5499,1.911,8.807,68.8444,,0.0062,2.4262,288.6047,0.182,0.0016,0.0728,0.828,16.2624,998.4939,6.7049,0.8042,0.1213,142.6405,3.434,2.521,0.0334,0.9619,4.636,0.0094,1.076,0.4411,0.0244,0.085,1.5522,0.808,90.5,9.4339,0.041,0.0437,0.9526,-0.0015,30.0722,0.0322,0.1611,,22.3,1.7732,3.9219,0.0,64.2111,2.9543,33.5549,0.328,1.0329,0.0188,,0.0281,0.1019,0.0616,3.2281,-0.0006,3.1411,0.0437,7.967,454.0,469.2086,0.6001,416.5016,0.7619,340.1033,1.3493,61.2451,0.0036,1.38,-0.0403,0.093,2.2649,0.0385,0.203,0.1695,1.2071,611.8491,1544.5,65.7506,4.9022,0.7888,0.0633,0.9251,68.4374,0.2147,6.465,0.0026,18.6343,49.3,0.9589,0.1146,-0.0544,-0.0014,0.1588,122.4414,,0.0094,0.0045,2.7,6.1541,7.69,10.1655,0.0142,157.072,3.5748,7.508,2.2739,0.0608,0.0242,3.9735,0.0257,3.1242,0.0212,0.0254,0.6809,4.6105,0.1939,12.114,0.0052,0.0007,4.914,0.0687,5.2786,0.9956,0.0322,0.5833,,30.8785,0.3157,202.0071,132.5082,0.9853,612.766,1.7514,70.7916,-0.0554,3.5981,2.205,2.3333,0.0016,148.9345,0.5958,,4.0836,66.2249,1.8257,7.0375,7.87,0.1213,,70.0,2180.9666,33.3317,697.874,0.0,9.332,-0.0005,14.6028,0.0098,1826.1601,0.0261,0.1072,0.2973,1418.6997,0.9747,0.0178,0.5014,2.0874,9.7545,,6.3256,,38.9581,0.0056,0.0009,0.7783,7.116,2.5284,0.0033,0.1435,2.3132,34.2857,0.0,0.2973,0.0483,10.53,18.1932,55.1285,0.0246,3.6114,2.6287,4.0926,1.614,11.0639,3024.0,13.1282,21.8915,-0.0047,0.0055,2.5327,0.0438,85.2626,446.8672,402.81,18.5964,715.9586,0.3699,717.2208,0.975,118.4666,0.1231,0.9942,1.6198,0.0726,0.5892,49.5438,6.24,-0.0002,0.0512,8907.64,2.4601,0.0,2.966,0.0292,12.4616,2.7193,0.0036,0.0771,-0.0014,0.3893,5.974,50.8599,3033.82,4.8559,0.0078,15.91,0.2228,10.4776,0.1418,1.399,5.0323,409.5618,0.0009,0.0988,9.0329,106.0979,24.3907,0.0433,-0.4123,0.0547,0.1809,0.029,2822.0,77.83,371.831,30.774,0.0009,15.82,0.0073,0.5085,192.6751,45.8,4.05,,4.2907,38.1862,3.0841,0.0539,113.9118,0.0583,38.1397,7.9586,0.0043,7.2321,7.0363,4.3775,0.0,20.9456,-0.0085,706.824,18.87,8.4092,1.51,8.7063,2.7142,98.4821,7.2935,2.2605,51.4128,50.4562,4.145,,23.6431,38.9011,9.7164,0.0019,0.2224,4.317,1003.5673,0.8,0.0188,6.1,0.0047,7.7619,10.3915,0.0013,
3.8862,5.9956,11.2384,1.906,0.0021,4.2831,5.6363,0.0,144.1927,150.0,,127.2083,4.5533,0.0016,-0.0143,-0.0463,262.55,0.0103,2.2079,0.2166,58.8432,11.9713,-0.001,0.1096,0.101,5.4898,1.0678,4.82,92.5898,0.4106,1.0,-0.0069,1619.7167,0.7182,0.0,2.643,0.1596,0.0525,7.2645,0.0835,3717.0,785.4281,0.0003,19.3,7.23,5.83,31.5789,0.121,-0.0105,626.3909,,-5052.25,203.5704,1.89,0.0109,25.8412,0.0478,0.488,81.348,0.1032,0.387,2.0475,0.0131,0.0,0.1407,19.5,9.6837,3.313,3916.0,0.0514,0.1328,4.0432,5.4426,2.1318,1.1291,7.2117,0.0,0.0536,1.9623,15.4,86.9963,,0.5215,0.0239,0.0617,0.0,0.0836,0.3472,4.2886,6.0429,1.7473,292.3319,14.0751,0.9348,,5.5662,0.27,0.013,,0.0033,25.603,1.2719,1.5849,,102.4089,550.4,2.3435,0.9518,0.9827,0.0068,0.0569,2.7461,14.3073,7.46,0.9744,0.0627,1.4065,0.0245,-0.1773,0.4182,0.9627,6.1049,34.3472,0.0444,0.9908,2.7292,0.0,4.588,535.5664,0.0663,0.2977,0.1291,267.6617,27.899,-0.0076,7.02,2.358,49.712,656.0,350.3282,0.0,4.6737,3.0621,18.032,-5801.25,0.179,15.63,351.5618,0.7345,2529.08,5.351,0.7697,93.6233,1.9829,5.4827,73.1222,,0.0,2.4345,270.4071,0.215,0.0,0.0713,0.7434,42.492,1315.8241,6.0532,0.1419,0.1279,,2.796,2.915,0.0162,0.9699,3.4671,0.0068,1.3697,0.1994,0.0103,0.105,2.2755,0.465,90.5,7.8094,0.0472,0.0549,0.9549,-0.002,127.6778,-0.01,0.0908,0.4834,14.14,0.1451,3.2822,774.6835,64.1402,2.1101,36.9723,0.208,0.7708,0.0138,,0.0201,0.0658,0.0671,3.0994,0.0004,4.716,0.0,14.57,425.0,,0.6082,416.3397,1.5705,0.0,1.9651,4.2284,0.0036,1.059,0.0348,0.18,1.0562,0.0269,0.192,0.1749,0.8697,612.0836,7029.0,57.9564,2.8953,0.5217,0.082,0.6222,62.0454,0.2284,9.474,0.0026,15.5954,40.0,0.9723,0.1243,0.0,0.0212,0.0833,110.756,,0.0036,0.0035,2.4,6.3896,5.04,6.4062,0.0153,235.2941,3.5784,8.5456,4.3725,0.1,0.0302,4.0077,0.0131,2.5787,0.0354,0.0232,0.7377,4.1796,0.221,8.664,0.0184,0.0007,,0.0539,5.2038,0.9355,0.0666,0.6303,,32.5334,0.1633,203.1528,131.87,0.9877,0.0,2.033,150.54,0.0,4.3062,2.358,1.6778,0.0061,148.8291,0.5887,0.1365,2.894,65.8399,1.638,3.8671,4.79,0.1279,,70.0,2245.3667,2769.0302,696.1396,946.8852,9.7102,0.0,35.7939,,1829.7017,0.0425,0.0731,0.3029,852.7998,0.9675,0.0153,0.5031,3.7291,10.2125,28.2443,7.3386,,52.1331,0.0041,0.0005,2.3234,7.116,1.552,0.0028,0.1694,2.4214,107.2848,0.0,0.3028,0.1623,18.2,53.0979,141.9865,0.0146,2.2574,4.1305,2.1838,1.3108,25.0895,2779.0,7.863,23.6056,0.0,0.004,4.6903,0.0425,83.8498,279.9081,396.276,20.1773,767.6853,0.0,721.9808,1.2845,119.2162,0.1637,1.0,2.7517,0.0884,0.6033,49.789,7.46,0.0,0.0697,8806.5701,1.4381,0.0,1.7163,0.0218,12.3639,6.41,,0.0437,,0.4689,8.407,29.3465,3028.21,55.7121,0.0078,15.62,0.1501,6.5907,0.1388,1.5424,3.1534,114.7546,0.0007,0.0722,8.6315,95.3212,33.7743,0.0389,0.0,0.0428,0.1269,-0.0027,2851.0,80.28,616.0279,22.796,0.001,15.62,0.0035,0.2292,193.4426,129.7,9.54,0.0402,3.1574,38.3168,2.9735,0.0689,111.6927,0.2822,22.2166,7.8428,0.0076,4.9214,4.4504,6.6442,0.0,24.3542,-0.0187,51.5472,18.2,8.5889,1.0956,6.6697,1.7349,73.5712,7.326,1.7814,141.8564,50.211,6.241,,12.0609,36.4519,15.725,0.0011,0.7886,4.171,996.2322,1.8,-0.0381,11.48,0.0006,7.7207,10.5755,0.002,
2.6195,6.1359,14.8581,2.7357,0.0043,4.6788,6.7113,-0.0001,145.3255,80.0,4.6519,149.0465,4.616,0.0052,-0.0129,0.0314,247.374,0.0056,2.335,0.2775,57.356,8.0335,0.0253,0.1096,0.223,4.6556,3.3982,4.862,110.1382,0.9549,1.0,-0.0148,2878.549,0.5891,118.0464,2.0367,0.3015,0.0954,7.2175,0.0121,6998.0,363.1158,0.0003,16.68,8.6,7.06,122.7273,0.1211,-0.0044,637.2245,,-4167.5,210.5823,1.8,0.0141,23.5582,0.0989,0.631,78.572,0.0493,0.2631,2.9171,0.0151,0.0927,0.2333,19.32,10.4795,3.245,2757.0,0.0228,0.1692,4.8581,6.4294,2.4706,1.4439,7.5325,0.0001,0.0503,2.006,10.51,87.0122,,0.2728,0.0228,0.1878,0.1305,0.0614,0.1001,8.1441,4.9116,2.9265,506.028,18.8916,0.929,,5.3719,0.34,0.0121,,0.0054,68.666,1.2899,1.4991,,98.1311,437.2506,2.5879,0.9532,0.8829,0.0037,0.0465,1.9703,13.5327,4.9,0.6681,0.0943,1.3819,0.0142,4.1509,0.2718,0.9559,20.2206,41.2405,0.0767,0.9904,2.2828,0.0036,4.635,534.3564,0.0367,0.3598,0.0814,316.035,32.937,-0.0064,7.55,1.5342,56.697,542.0,359.6473,587.3874,4.7637,2.8137,30.2383,-5566.75,0.256,15.85,358.2791,0.4586,2587.3,9.0229,0.6755,75.6593,2.3688,6.5028,67.0556,,0.0036,2.3668,262.1086,0.357,0.0026,0.0906,0.96,53.8482,1632.2734,4.9637,0.2365,0.1297,155.566,2.856,2.512,0.0284,0.9709,3.3401,0.0038,1.6678,0.3613,0.0325,0.181,3.3865,0.461,130.7,8.9269,0.0386,0.1282,0.9664,-0.0026,21.0874,0.0086,0.1489,,19.9,0.2844,1.7896,0.0,64.2906,1.1449,30.9166,0.269,0.9701,0.0163,,0.0111,0.084,0.0696,3.2017,-0.0009,2.653,0.0632,30.8985,456.0,468.1258,0.7207,424.9771,0.9088,218.4582,2.2378,9.2349,0.0046,1.064,-0.0135,0.143,0.5748,0.0271,0.147,0.1818,1.4066,623.6918,-334.25,50.118,3.3177,0.7071,0.0993,0.8343,73.5203,0.215,14.392,0.0026,24.3718,76.2002,0.9778,0.0899,-0.068,0.0061,0.0901,93.6444,,0.0106,0.0062,1.2,6.3813,7.67,7.0908,0.0212,734.1959,5.0516,18.5733,1.3057,0.0645,0.0214,4.6466,0.0285,2.7336,0.0227,0.0127,0.7275,3.7751,0.1935,14.077,0.0264,0.0009,9.3506,0.0539,4.9058,1.3425,0.0259,0.5676,,23.3548,0.5267,201.9838,132.2518,0.9814,435.2941,3.4697,157.8947,-0.1254,5.3239,1.5342,2.6222,0.0086,149.01,0.6007,,4.4604,66.4854,2.5743,6.4044,9.48,0.1297,,70.0,2218.5778,1236.8526,708.8428,648.1013,10.34,0.0003,10.3089,,1886.5896,0.0533,0.1061,0.3572,909.0996,0.9668,0.0277,0.4998,5.0952,9.987,,10.0989,,102.0234,0.0059,0.0016,2.2909,7.116,2.7713,0.004,0.44,2.3099,30.5085,373.1882,0.3572,0.2172,20.17,74.9373,227.0832,0.0166,3.1229,2.7919,2.7311,1.4129,31.3378,2736.75,17.1637,19.8045,0.0027,0.0048,1.5421,0.0693,84.7529,291.4041,401.222,15.8491,625.3835,0.1477,732.401,1.2993,118.1142,0.2022,0.9967,4.0317,0.0749,0.7082,49.5627,4.9,-0.0002,0.0495,8675.0299,3.0559,0.0,2.4808,0.0489,12.4492,5.0601,,0.0878,,0.6444,5.502,33.8219,3105.49,824.8317,0.0078,15.84,0.2167,13.9883,0.1371,0.8396,3.5106,0.0,0.0009,0.0416,10.1685,150.184,22.8837,0.0286,-0.4913,0.0945,0.2132,-0.023,2861.0,64.74,578.3784,31.732,0.0012,15.79,0.002,0.4152,191.6438,145.3,7.54,,4.3326,35.8316,3.234,0.1213,116.4027,0.0408,31.0014,5.9968,0.0107,7.8161,5.6469,3.7612,0.0,30.8595,-0.0113,233.2441,20.17,9.0622,0.9758,9.4701,3.5508,167.9184,8.1915,3.4346,67.0662,50.4373,8.196,,17.6113,28.1731,17.3925,0.0016,0.703,4.184,1000.7826,0.8,0.0021,3.23,-0.0028,4.9969,10.2891,0.0014,
,4.5757,7.6118,0.6994,0.0033,2.616,5.9031,-0.0002,144.44,142.0,4.2306,199.5847,5.0468,0.0055,-0.0146,-0.029,,0.0138,1.4226,0.2673,58.3253,7.0427,-0.0069,0.1096,0.116,5.9691,2.9287,4.84,70.9803,0.4304,1.0,-0.0065,2058.4774,,39.18,2.6789,0.1308,0.033,5.0768,0.0116,4950.0,791.514,0.0004,21.41,12.09,6.36,29.932,0.1256,-0.011,632.7318,,-4102.0,102.3633,,0.0098,13.7855,0.0413,0.145,,0.0606,0.3835,3.7196,0.0141,-0.0467,0.0727,18.15,7.1179,2.824,66.0,0.0257,0.1463,4.4032,7.6797,3.3086,1.2275,6.9514,0.0001,0.0339,1.8855,,86.7995,,0.2728,0.0184,0.153,-0.0901,0.0571,0.2197,7.4056,6.916,1.6091,288.1161,3.1219,0.9244,,5.0874,0.17,0.0169,,0.0033,39.944,1.2411,1.5713,,104.8333,57.5225,1.5175,0.9493,0.8307,0.0048,0.0368,1.401,11.5991,4.5,,0.0821,1.3959,0.0178,11.4855,,0.9454,10.9499,18.9955,0.0408,0.9911,2.3028,0.0033,4.595,535.5609,0.0596,0.305,0.1216,72.3404,33.352,-0.0125,8.4,1.2888,79.637,633.0,356.7627,552.8336,4.5399,2.5814,20.3506,-6329.75,0.182,15.91,358.6782,0.6801,2446.92,5.0385,0.6802,104.5916,2.097,9.1919,67.2667,,0.0046,2.4163,279.7611,0.683,0.0031,0.1101,0.8126,26.4692,1448.3869,5.2742,-0.7096,0.1714,153.3251,5.044,2.467,0.0239,0.9552,4.6447,0.0048,0.9343,0.273,0.0277,0.095,2.6532,0.513,67.1,10.3749,0.0523,0.0817,0.9688,-0.0031,24.0674,-0.0517,0.1135,0.4613,24.18,0.1273,3.2706,814.664,64.056,1.4773,52.8507,0.266,0.7741,0.0189,,0.0143,0.0835,,2.4459,-0.0009,4.2732,0.0698,13.3046,237.0,467.8076,0.8969,414.8541,,240.0,1.0978,4.4795,0.0036,1.135,0.0255,0.101,1.4371,0.0374,0.136,,3.7545,621.1327,1511.5,51.9785,1.8989,0.6332,0.0393,0.7316,,0.2088,11.007,0.0026,19.5999,56.8999,0.9631,0.1207,0.0615,0.0316,0.0473,94.6543,,0.0109,0.0074,2.2,6.0076,4.93,4.9851,0.0122,154.1176,2.7422,14.6131,,0.0342,0.0103,4.6543,0.0153,2.8915,0.0114,0.0184,0.6128,3.6132,0.1543,37.635,0.0068,0.0011,6.1068,0.0513,4.4259,1.4107,0.0392,0.5321,,32.9549,0.5706,196.6883,131.5291,0.9707,512.0,6.6632,84.0655,-0.174,3.2172,1.2888,2.6778,0.0022,139.44,0.6059,0.0254,12.8334,66.2008,0.8254,6.9827,9.11,0.1714,,70.0,2163.5889,28.4898,716.5842,457.0281,9.6075,-0.0001,23.0054,,1794.6672,0.0172,0.0653,0.4457,634.3994,0.9747,0.025,0.499,5.8887,10.1649,5.5123,5.5483,,57.1086,0.0049,0.0019,,7.116,1.3812,0.005,0.3064,2.2697,33.61,0.0,0.4456,0.0383,23.15,76.1409,196.2791,0.0095,3.8215,1.5088,1.36,1.5684,22.5423,2993.75,11.8247,21.1441,-0.0034,0.0031,,0.0389,86.5513,191.5934,,8.5145,778.3338,0.2871,730.3696,0.981,119.1674,0.1077,0.9971,4.1165,0.1014,0.8857,49.6803,4.5,-0.0002,0.0244,8912.71,2.3971,0.0,2.1216,0.0457,12.4998,5.4073,,0.0461,,0.3333,4.543,21.7112,2996.95,4.3665,0.0078,15.94,0.1527,10.8472,0.1344,1.7014,2.5345,130.0652,0.0011,0.0569,10.1282,86.4638,36.5376,0.0368,-0.5088,0.0477,0.1889,0.0141,2862.0,13.69,693.3333,37.537,0.0014,15.9,0.0045,0.3145,187.0808,78.4,7.54,0.008,5.1395,42.266,3.7271,0.2302,123.0145,0.0371,19.8922,7.6817,0.0101,4.7027,5.8592,6.521,0.0,,-0.1053,31.0788,23.15,8.8043,0.9835,10.9381,2.6284,120.6728,3.7442,2.6299,53.4706,50.3197,4.022,,9.1195,30.0601,26.362,0.001,,4.062,1002.4074,0.9,-0.0354,,0.0034,,10.2503,0.0015,
5.3644,5.8213,10.3199,1.9514,0.0041,1.6702,6.612,0.0,135.7036,102.0,,118.3515,6.643,0.003,-0.022,-0.0319,264.272,0.0139,2.1435,0.2052,60.2727,8.3567,-0.0285,0.1112,0.201,6.1772,1.6258,4.823,164.0502,0.5324,1.0,-0.0034,4775.1413,0.5671,214.0514,4.7706,0.0737,0.0549,7.2527,0.0099,9694.0,0.0,0.0005,21.6,5.53,8.41,60.6593,0.1229,-0.0114,626.0445,,-6005.0,406.9532,1.1,0.0098,21.0498,0.0199,0.381,71.31,0.0262,0.3443,5.4358,0.0118,0.1126,0.1304,22.9,15.1507,3.045,4551.0,0.0112,0.2425,6.1973,3.9379,1.7806,1.1454,7.858,0.0,0.0391,1.989,21.77,86.3125,,0.495,0.0186,0.0859,0.1213,0.1414,0.0699,6.2475,6.1589,1.8197,323.062,11.2437,0.9323,,6.5409,0.35,0.0161,,0.0069,27.86,1.0323,1.5267,,112.5811,113.1749,2.2561,0.9546,1.0043,0.0036,0.0421,1.6693,6.7595,4.39,0.2293,0.0583,1.3863,0.0158,2.0509,0.0863,0.9419,9.4047,11.182,0.0238,0.9892,3.4824,0.0029,4.605,532.1073,0.0455,0.324,0.0979,98.9831,27.331,-0.0067,7.83,1.3615,27.621,420.0,350.1027,0.0,4.5941,2.424,40.5582,-5445.25,0.289,15.84,349.6718,0.8243,2540.17,2.4635,0.7202,71.9551,1.8126,3.9433,67.9778,,0.0025,2.3691,202.853,0.773,0.0014,0.1324,0.7604,17.9687,1194.5986,7.0159,-0.615,0.1087,,2.54,2.594,0.0163,0.9478,3.3886,0.0071,1.1092,0.208,0.0153,0.049,5.4819,0.666,34.2,9.0683,0.0363,0.0751,0.9625,-0.0014,17.6433,-0.0369,0.0814,,15.67,0.1568,4.119,0.0,64.2946,2.1524,24.4581,0.249,0.753,0.0241,,0.0207,0.0845,0.0382,3.0084,0.0008,3.2835,-0.0605,7.1756,862.0,,0.5159,407.1025,1.0884,79.5929,1.5286,5.6239,0.003,1.338,0.0023,0.126,1.4331,0.0365,0.346,0.0877,1.7798,620.1955,-2192.3333,32.787,2.1301,0.5272,0.0679,0.6163,21.0637,0.2378,22.317,0.0024,22.9282,72.8999,0.9681,0.187,0.0615,0.0097,0.0901,137.1191,,0.0048,0.0044,2.8,6.293,1.99,6.2015,0.0146,0.0,1.3464,14.448,1.8844,0.0226,0.0307,3.8515,0.026,2.6162,0.0077,0.0217,0.6772,2.5764,0.1706,17.977,0.0188,0.0013,,0.0446,4.0218,1.0114,0.0177,0.6457,,25.5774,0.3061,202.9662,140.2382,0.9818,443.0769,7.5281,231.6119,0.0756,3.4433,1.3615,2.5,0.0059,148.2345,0.6049,,7.0615,66.3872,1.507,5.0937,7.64,0.1087,,70.0,2223.0444,2277.0714,709.613,0.0,9.4661,0.0001,7.3755,,1954.417,0.0331,0.1139,0.2537,1436.0,0.9646,0.018,0.5004,2.9152,10.0256,,5.7683,,57.4148,0.0071,0.0011,1.5426,9.2002,0.6693,0.0072,0.2619,2.2674,60.0,204.9209,0.2537,0.1208,8.0,38.3864,68.6915,0.0107,2.503,0.9972,2.7902,1.4715,28.6564,2514.0,15.4171,16.7064,0.0012,0.0031,2.0902,0.0431,85.5439,411.4565,405.822,17.9491,849.5395,0.0392,730.6628,1.3037,118.1824,0.1227,1.001,5.7907,0.0653,0.4992,49.1786,4.39,-0.0001,0.074,9478.1301,2.4958,0.0,2.9718,0.0327,12.5439,8.3516,,0.0809,,0.363,5.384,47.1119,2873.83,207.587,0.0102,15.85,0.2445,8.4944,0.1325,1.2016,3.0554,404.1211,0.0013,0.0675,8.797,101.9967,24.852,0.0596,-0.1659,0.0881,0.1931,-0.0491,2835.0,81.73,297.1559,24.581,0.0025,15.88,0.0044,0.241,193.5001,48.0,12.38,,3.3642,33.3658,2.3122,0.2134,122.2891,0.0301,27.0436,12.2488,0.008,1.7676,5.42,4.7205,0.0,15.4662,0.0231,101.2092,14.34,8.6556,1.0276,7.6645,3.3356,161.4321,15.8303,3.2793,65.2474,50.8214,4.798,,19.3105,52.8727,7.2703,0.002,0.4518,4.185,1010.0437,1.5,-0.02,4.98,-0.0012,9.1999,10.2682,0.0011,
3.6251,7.8079,11.8085,1.718,0.005,2.3294,7.1218,-0.0001,143.6836,98.0,,88.2784,5.8504,0.0012,-0.0265,-0.0913,247.108,0.006,2.8514,0.1784,59.391,8.259,-0.0308,0.1148,0.06,6.1976,0.9738,4.832,105.9976,1.0541,1.0,-0.0175,4603.8267,0.7878,0.0,4.7483,0.105,0.0292,7.4132,0.0561,9581.0,403.8613,0.0001,22.43,12.73,5.19,26.455,0.1215,-0.0094,638.6036,0.0013,-994.0,428.4771,1.33,0.0081,25.8992,0.0304,0.398,73.254,0.0152,0.1114,2.7317,0.0185,0.0104,0.0759,22.92,12.6233,3.102,21910.0,0.0069,0.192,3.6121,4.9265,3.7877,1.0422,7.0048,0.0,0.0547,2.0023,14.53,86.7128,3.0044,0.6245,0.0241,0.1769,0.0231,0.148,0.4023,6.3491,6.8518,2.0378,220.385,11.4474,0.9224,6.8897,6.3075,0.22,0.0163,51.5105,0.0025,75.775,1.9459,1.4286,1.8751,104.6267,20.5683,3.1063,0.9482,0.9465,0.0049,0.0901,3.1289,18.2491,6.94,0.2235,0.0597,1.4273,0.0332,0.6009,0.0949,0.948,21.1158,18.6051,0.0472,0.9909,2.0583,0.0038,4.582,532.0064,0.1013,0.2844,0.0337,91.8114,20.565,-0.0143,10.89,2.2248,13.003,41.0,363.3791,718.4258,4.5327,2.4608,31.7125,-5264.0,0.355,15.71,361.9127,0.9838,2473.48,5.4439,0.8318,101.7808,1.9363,9.6776,66.2444,0.0004,0.0054,2.424,18.1567,0.38,0.0003,0.0466,0.6916,24.6337,993.1907,5.4057,-2.175,0.1298,,3.59,2.836,0.0168,0.9718,3.4768,0.0035,1.4809,0.261,0.0092,0.109,2.6074,0.599,52.4,8.5828,0.0477,0.0554,0.9754,-0.0003,88.9274,-0.0403,0.103,,13.55,0.304,4.6796,0.0,64.0283,1.0058,35.7749,0.105,0.8019,0.0251,0.8903,0.0098,0.0381,0.0571,4.0455,-0.0006,7.0989,0.0428,9.5115,1027.0,,0.661,406.4911,0.8273,150.7926,1.8756,11.9521,0.002,0.9318,-0.0436,0.255,0.6152,0.037,0.352,0.1561,1.6021,620.3545,4151.5,77.01,3.2275,0.4188,0.0448,0.4817,27.0176,0.2212,10.599,0.0024,25.5075,69.8,0.9788,0.1145,0.0805,0.0157,0.0618,102.4301,0.9092,0.0027,0.0069,3.1,6.2551,6.07,8.741,0.0153,102.6934,2.1185,9.6762,2.0436,0.0665,0.0259,2.8884,0.0205,3.9403,0.022,0.02,0.5156,5.3944,0.2026,16.042,0.0166,0.0005,,0.0706,4.1434,1.4147,0.0957,0.606,229.3225,41.6575,0.1188,201.8187,131.5409,0.9897,852.1739,3.5437,65.7354,0.1369,4.6867,2.2248,2.0333,0.0053,146.3,0.6041,,5.6751,66.362,0.8612,4.221,7.12,0.1298,0.296,70.0,2178.4667,9309.3686,711.9904,435.1552,8.8194,0.0006,41.3971,0.0081,1894.8394,0.0216,0.1466,0.3265,1102.6997,0.9691,0.0308,0.5013,3.9773,10.2386,,4.8142,102.1187,74.2342,0.0067,0.0004,1.8156,6.7907,2.1266,0.0037,0.1874,2.2821,108.1967,193.8705,0.3265,0.118,16.11,12.7755,238.9436,0.0162,2.1218,2.9135,1.7443,2.047,14.5594,2482.5,4.4436,1.6516,-0.0035,0.0044,2.0763,0.0494,86.9432,329.8479,400.814,19.3991,754.7067,0.0696,737.8895,1.3502,118.1238,0.0966,0.9981,3.3883,0.0896,0.6451,49.3914,6.94,-0.0002,0.06,8735.4199,2.16,0.0,1.3831,0.0504,12.6122,4.5318,0.002,0.0636,0.0157,0.3011,10.789,31.1559,3039.4,527.7611,0.0078,15.8,0.3005,12.504,0.1354,0.7649,4.3311,307.3392,0.0012,0.0622,6.1607,61.665,26.9966,0.0323,-0.5045,0.0284,0.1902,0.0363,2885.0,80.84,337.7945,17.39,0.0011,15.77,0.002,0.301,192.9993,70.8,6.63,,2.3567,39.6894,2.5969,0.1271,112.1418,0.1801,22.1896,8.0148,0.0076,5.8016,2.3165,4.6221,0.0,19.8104,0.0739,51.5105,16.11,8.8105,1.1037,4.518,4.1147,963.8833,19.5099,3.2041,134.0537,50.6086,6.131,0.1303,14.0449,33.9154,4.5379,0.0008,0.5058,3.135,1001.3102,2.2,0.0207,5.05,0.0035,6.7381,10.7232,0.0018,0.9807
4.2067,7.2484,14.118,1.2874,0.0036,2.596,4.6827,,138.0345,96.0,,84.0188,8.581,0.0046,-0.0227,-0.0594,263.406,0.0092,2.2251,0.1427,58.6073,9.7589,-0.0312,0.1096,0.088,5.6061,2.2749,4.801,78.3135,0.3521,1.0,0.0022,280.8337,0.7596,414.1101,2.3175,0.0886,0.0304,5.0917,0.0252,566.0,0.0,0.0003,20.17,16.98,7.62,51.0638,0.122,-0.0106,636.9218,,-3996.25,286.2463,0.61,0.0129,24.4248,0.0319,0.156,76.144,0.0325,0.2677,1.7448,0.0131,,0.0731,15.32,7.6543,3.106,145.0,0.0136,0.2816,5.5204,3.8837,5.132,1.1629,6.2299,,0.0535,1.8725,17.09,86.2213,,0.3279,0.0252,0.1692,,0.051,0.5391,10.8005,6.0769,1.6654,389.054,3.3473,0.9242,,4.2178,0.24,0.0158,,0.0054,74.048,1.4852,1.4443,,107.8778,81.0979,2.2939,0.9502,1.0333,0.0039,0.0278,1.9681,15.2109,6.43,0.5047,0.0267,1.3966,0.032,1.5527,0.2499,0.9354,21.6254,35.425,0.0298,0.9911,2.1962,,4.562,530.8818,0.1153,0.297,0.0826,0.0,19.302,0.0005,9.19,2.0538,10.285,587.0,363.2227,905.1643,4.4867,1.6786,32.754,-5618.75,0.233,15.9,359.7845,0.8958,2472.68,3.7917,0.8057,116.3387,2.1238,12.5162,59.9667,,,2.4334,267.1908,0.504,,0.1153,0.7643,26.2983,1329.8933,3.8291,0.7569,0.1335,,3.576,2.679,0.0086,1.3061,4.6604,0.0045,1.5339,0.2601,0.0213,0.071,1.3502,0.843,105.5,8.5092,0.0319,0.0606,0.9716,0.0003,48.1835,0.0009,0.1044,0.4574,14.53,0.1029,4.836,0.0,63.8228,1.3856,34.8561,0.1,0.5398,0.0241,,0.0135,0.0272,0.0677,3.7818,0.0009,8.2538,,9.46,671.0,,0.6554,411.0656,0.6701,807.5472,1.3037,3.4193,0.0042,1.002,-0.0996,0.096,0.9424,0.0344,0.118,0.18,2.4974,621.7109,1480.25,61.8148,1.9755,0.3607,0.1219,0.4221,75.3156,0.2349,5.55,0.0026,19.3647,52.4001,0.9762,0.095,,0.0123,0.0604,70.6064,,0.0067,0.0037,2.9,6.1154,4.36,7.4839,0.0145,122.3281,4.2666,8.539,2.369,0.0449,0.0281,2.7013,0.0224,2.8996,0.0143,0.0125,0.5642,3.851,0.1958,25.038,0.0126,0.0011,,0.0435,2.8642,1.2241,0.1773,0.6595,,24.5652,0.4668,201.9615,135.6645,0.9825,416.0,4.8182,97.8939,,5.3886,2.0538,2.8667,0.0043,144.7091,0.6037,0.0218,9.0871,65.7258,0.7788,3.9783,12.66,0.1335,,70.0,2227.2444,60.9993,714.5408,0.0,10.2978,,41.2733,,1843.9226,0.0598,0.0868,0.3247,723.7002,0.9752,0.012,0.5005,4.9249,9.824,4.7744,9.1309,,43.2425,0.005,0.0013,0.8011,7.116,1.5354,0.0023,0.1814,2.3391,38.3721,85.6284,0.3247,0.0498,12.78,8.8406,226.0732,0.0099,2.2813,1.9188,1.9222,1.7311,28.2433,2998.75,9.0256,19.5748,,0.0028,2.6553,0.0405,85.4507,281.2994,406.256,18.4473,821.9768,,738.9656,0.975,118.528,0.1774,0.9992,1.8595,0.0627,0.6435,49.5446,6.43,,0.0581,9454.8601,3.8507,0.0,2.5104,0.0616,12.4859,4.471,,0.0699,,0.5584,6.0,28.8584,3073.93,9.7956,0.0078,15.83,0.1966,13.8226,0.1318,0.948,3.7056,537.4339,0.0011,0.0402,5.4973,112.6014,19.2792,0.0357,,0.0396,0.2209,-0.0066,2915.0,78.68,276.516,18.106,0.0007,15.82,0.0028,0.3017,191.6638,79.8,6.47,0.0062,2.4502,38.1683,2.0556,0.1422,117.2173,0.0944,29.2545,6.5775,0.0102,4.0416,2.2288,4.3126,0.0,23.696,-0.0401,104.7519,12.78,9.3851,0.9362,5.1172,2.9509,14.1633,11.9422,2.3527,43.4608,50.4554,4.22,,9.5275,23.2211,3.3393,0.0018,0.2964,3.483,1002.579,1.1,0.013,6.24,0.0027,8.0643,10.4604,0.0016,
4.7668,7.2878,14.9001,0.5582,0.0043,3.215,4.8942,0.0,142.0882,141.0,3.5942,44.5265,6.0864,0.0009,-0.0471,0.0138,261.624,0.0202,2.2701,0.3303,57.6772,12.4225,-0.0066,0.1096,0.169,4.113,2.7071,4.865,120.4468,0.3131,1.0,-0.0111,697.9926,0.6638,104.6966,2.6454,0.1524,0.0546,7.3712,0.0094,1494.0,577.653,0.0003,14.6,7.48,5.91,30.4762,0.1214,-0.0066,629.97,,-3797.5,310.3464,1.54,0.0146,35.3973,0.0448,0.662,80.42,0.067,1.0232,1.3085,0.0189,0.1041,0.1314,12.24,13.7508,3.085,655.0,0.0337,0.1959,4.1594,3.7423,2.2522,1.3492,7.0341,0.0,0.1245,1.9985,19.49,86.5867,,0.5385,0.065,0.2059,-0.0444,0.0834,0.1745,7.1093,4.6529,3.7848,728.433,19.0206,0.9318,,3.4003,0.45,0.0366,,0.002,45.562,0.8192,1.5553,,100.5544,577.5862,2.3472,0.9443,0.8926,0.0037,0.0465,2.4048,27.9609,9.16,0.7317,0.0509,1.3928,0.0113,-8.7491,0.2949,0.9486,12.9148,18.604,0.0478,0.991,2.3007,0.0026,4.594,510.9145,0.0326,0.3292,0.3087,0.0,20.979,0.0245,439.05,2.607,23.612,344.0,359.9673,0.0,4.6463,2.179,23.1079,-5677.75,0.273,15.83,354.9727,0.5487,2739.19,5.4041,0.7489,59.5211,1.7483,5.8477,66.6889,,0.0051,2.4311,155.59,0.197,-0.001,0.1228,0.8816,32.1344,1017.9399,4.4588,-0.4731,0.0995,138.6505,3.578,2.692,0.0121,0.9634,3.4804,0.0072,1.7597,0.2843,0.0257,0.108,1.6583,0.601,66.4,7.0047,0.0288,0.3739,0.9609,0.001,12.633,0.0006,0.1131,,11.91,0.0986,2.8491,0.0,64.0838,2.2583,31.8619,4.838,0.6605,0.0263,,0.0217,0.6813,0.0313,3.7979,0.0001,2.3427,-0.0112,14.5221,745.0,463.3586,0.5411,405.7057,1.6791,0.0,4.2145,3.0213,0.0037,1.05,0.0087,0.142,2.0999,0.0844,0.195,0.0703,2.1767,602.0091,259.0,36.8157,2.6798,0.9299,0.0678,1.0956,43.575,0.2237,6.728,0.0026,26.9809,78.8,0.9597,0.1256,0.0205,0.0298,0.138,81.2722,,0.009,0.0043,1.9,6.4168,9.71,7.4684,0.0283,783.815,2.4241,69.196,2.9011,0.0465,0.0124,3.0444,0.0205,137.833,0.0163,0.0168,0.6294,2.5896,0.1968,21.901,0.0055,0.0012,5.2951,0.0643,3.7779,1.2942,0.0375,0.572,,25.6771,0.0881,202.2491,127.9145,0.991,0.0,1.8058,191.3357,-0.0883,5.9714,2.607,2.6667,0.0017,147.8709,0.6011,,6.6344,65.3441,1.5009,4.1195,7.05,0.0995,,70.0,2199.3334,305.2595,689.0936,225.8872,10.3618,0.0,18.1087,,1822.7262,0.0367,0.1068,0.2684,1181.7998,0.9786,0.0165,0.5032,5.1275,9.8745,,4.7169,,104.8907,0.0066,0.0003,1.9149,7.116,3.0017,0.0017,1.2098,2.3415,60.0,771.2121,0.2684,0.2279,12.45,39.67,197.1704,0.0135,1.8906,1.9846,3.6066,85.9341,82.42,2791.75,13.1543,12.322,-0.0018,0.004,3.4484,0.092,84.8723,406.8589,408.87,28.7491,767.3358,-0.0284,724.4909,1.2847,117.326,0.1028,0.996,2.1763,0.059,0.5326,49.6043,9.16,0.0,0.0265,8594.4,2.2699,0.0,1.9358,0.0548,12.4771,5.0449,,0.0706,,0.3027,9.089,42.0305,3082.45,252.8958,0.0078,15.9,0.2327,15.9097,0.1299,1.2414,3.6927,704.6787,0.0013,0.0553,5.9617,205.4183,23.7349,0.0471,0.0764,0.073,0.245,0.0024,2891.0,78.27,125.3985,17.21,0.0005,15.83,0.0065,0.3283,191.8873,99.1,7.46,,2.3755,40.0761,2.0681,0.0626,99.1655,0.0249,71.5595,8.0757,0.0093,9.6565,104.1248,6.3509,0.0,10.5839,-0.0116,48.9072,12.45,8.755,1.0498,4.9523,3.5408,39.3417,13.1214,3.5829,57.9592,50.3957,13.03,,15.6967,25.7636,7.4479,0.0007,0.5847,3.777,1006.1613,1.6,-0.01,7.59,0.0018,8.9166,10.9091,0.0014,
3.6251,9.2457,9.8537,2.2999,0.0042,4.7045,6.9694,0.0,132.04,125.0,,129.4638,8.6866,0.026,-0.067,-0.0541,278.072,0.0168,3.2887,0.2081,58.5896,13.3154,0.0101,0.1149,0.083,6.4871,4.6666,4.79,80.0664,0.516,1.0,0.002,2689.5792,0.8812,197.0149,4.4772,0.1264,0.0229,7.326,0.0103,5819.0,0.0,0.0002,23.61,16.43,9.13,67.6923,0.1199,-0.0081,640.9055,0.0019,-6240.5,281.8138,1.33,0.019,30.9695,0.0412,0.45,73.254,0.0455,0.2153,2.4277,0.018,-0.0189,0.051,19.52,7.2539,3.112,1853.0,0.0215,0.3011,6.9146,5.5483,4.4524,1.1666,7.2892,0.0001,0.0684,1.9988,14.53,86.2696,0.9519,0.4372,0.0293,0.128,-0.0401,0.1642,0.4864,5.6364,7.1048,1.6444,504.072,14.0182,0.9168,2.2417,5.3496,0.27,0.027,,0.0055,18.886,1.2977,1.5547,0.666,93.6611,154.1067,3.4067,0.9512,0.988,0.004,0.0331,3.3057,13.4246,9.72,0.2235,0.0606,1.4064,0.0113,-4.9336,0.0949,0.9193,5.6188,42.808,0.0954,0.99,2.4414,0.0031,4.556,532.0782,0.0303,0.29,0.0698,205.6933,20.19,-0.0048,8.39,2.6789,40.355,232.0,364.8836,873.2026,4.5074,1.2836,24.7674,-5731.5,0.337,15.57,363.9518,0.7141,2815.31,11.3571,0.6722,83.5375,2.0447,11.4112,67.4333,0.0006,0.0035,2.3999,99.7543,0.654,0.0003,0.05,0.7712,48.527,1436.8313,5.7547,0.0,0.1142,,2.81,2.625,0.017,0.9415,3.2101,0.0073,1.0848,0.2021,0.0429,0.227,2.0693,0.863,102.9,9.167,0.0171,0.0758,0.962,-0.0003,17.9346,-0.0272,0.0822,,15.47,0.1476,2.8176,0.0,63.8465,2.3409,38.9835,0.105,0.3872,0.0167,1.4977,0.0225,0.03,0.0414,4.9555,0.0008,2.153,-0.0595,13.8891,675.0,,0.5999,427.8671,0.8273,146.9388,3.5134,5.3027,0.0059,1.097,-0.002,0.108,1.7352,0.056,0.328,0.0988,1.6502,627.4809,-312.75,57.7114,3.6449,0.5201,0.0157,0.6056,27.0176,0.2358,8.854,0.0025,18.619,51.0,0.9691,0.21,-0.0104,0.0157,0.0734,103.5005,1.5209,0.0109,0.0032,1.9,6.2292,7.46,9.6854,0.0117,794.9367,3.655,10.8891,2.3483,0.0554,0.0126,2.8,0.0242,2.7713,0.0194,0.0096,0.6828,4.2067,0.1766,16.389,0.0222,0.0005,,0.0586,2.1908,0.972,0.1043,0.6308,235.4864,40.7852,2.6639,196.3053,143.9818,0.9743,500.0,6.1648,48.9834,-0.0423,3.6625,2.6789,2.8111,0.0081,144.4809,0.6002,,5.2258,66.1072,0.5834,4.7474,6.71,0.1142,0.5261,70.0,2217.0,853.5191,721.0764,683.6364,9.7313,0.0001,51.6664,,1798.5367,0.0071,0.1367,0.2966,706.0996,0.9663,0.0105,0.5014,8.0788,9.9348,,6.2154,101.5483,83.3323,0.0045,0.0084,1.8156,8.2086,2.349,0.0032,0.2226,2.2799,53.3597,599.2583,0.2966,0.1326,17.38,48.3076,76.2535,0.0183,2.4138,2.4317,2.1963,1.5768,12.9658,2600.75,6.4642,8.9205,-0.0019,0.004,2.4692,0.0395,85.8796,194.7101,400.814,24.9336,854.0502,-0.0451,752.0459,1.284,118.6846,0.1303,0.9974,2.2781,0.0374,0.5867,49.445,9.72,0.0,0.0265,9734.09,2.2489,0.0,2.9312,0.0387,12.2937,5.0456,,0.0905,,0.3872,12.631,24.8987,3356.35,592.486,0.0094,15.68,0.2839,13.1686,0.1318,1.6604,4.9339,0.0,0.001,0.0329,6.396,163.0849,27.7994,0.0707,0.0014,0.038,0.2312,0.0466,2888.0,80.67,55.8626,20.097,0.0011,15.64,0.0054,0.2343,186.574,157.9,7.29,,2.6723,37.1686,2.7698,0.1963,119.0482,0.0317,35.0822,13.5071,0.0159,7.9649,2.3295,5.6998,0.0,11.2069,0.0295,120.6365,17.38,8.7441,0.9101,5.3097,3.5024,93.2457,11.777,2.3004,46.7083,50.555,11.096,0.19,9.3749,38.4756,12.4298,0.0016,0.5058,4.173,993.1386,1.5,0.0015,6.53,0.0019,6.7381,10.6086,0.0014,0.9834
2.9007,6.8789,10.5418,2.3898,0.0039,3.0698,5.1511,-0.0001,136.4782,144.0,,176.0488,7.1168,0.0007,-0.0006,0.0055,264.272,0.0066,2.5276,0.2421,58.4372,9.9572,0.009,0.1139,0.172,5.5389,2.6611,4.834,220.4727,1.0415,1.0,0.0046,849.0695,0.5671,400.4608,2.8655,0.1038,0.0491,7.2937,0.0248,1799.0,0.0,0.0002,19.57,4.84,4.9,15.5897,0.1201,-0.0122,623.2436,,-4730.5,81.5777,0.96,0.0069,22.97,0.0342,0.512,78.954,0.0337,0.116,4.7556,0.0155,-0.0289,0.1125,15.22,24.7217,3.895,701.0,0.0153,0.2264,3.5903,6.6473,1.7291,1.2213,7.4342,0.0,0.0685,1.9515,11.61,87.2353,,0.5533,0.0341,0.1575,-0.0954,0.0912,0.3869,5.1901,6.0081,0.9992,252.891,14.9649,0.932,,4.3132,0.22,0.0405,,0.0019,20.108,1.5194,1.4463,,100.18,49.7784,2.7843,0.9497,0.8224,0.0064,0.0317,1.8139,9.1736,4.74,0.1135,0.044,1.4034,0.022,-1.1836,0.0431,0.9486,6.4022,20.9125,0.043,0.9913,1.806,0.003,4.591,531.3346,0.0524,0.3087,0.0363,0.0,28.911,0.0073,8.49,1.3323,61.256,343.0,352.8682,0.0,4.6917,3.357,35.1425,-5406.75,0.217,15.75,353.3173,1.0088,2480.05,4.8168,0.6423,213.9842,2.2421,3.6147,75.9444,,0.0021,2.4469,174.0479,0.223,-0.0008,0.0724,0.8078,27.9504,1054.524,5.4976,0.0473,0.1181,,2.791,3.991,0.0126,0.9984,3.4213,0.0039,1.4506,0.2199,0.0252,0.094,4.5551,0.71,57.6,8.6226,0.0316,0.1177,0.9652,0.0007,35.5953,0.0053,0.0908,0.463,14.11,0.3044,4.2136,0.0,64.7149,1.1907,22.3758,0.279,0.8757,0.02,,0.0115,0.0911,0.0382,3.5707,0.0006,3.7316,-0.0428,7.0703,180.0,,0.5937,412.7251,0.5151,278.4553,1.3031,11.0074,0.0025,1.702,-0.0108,0.085,0.6766,0.0947,0.209,0.0877,1.6512,615.2027,-159.75,67.642,2.5045,0.5868,0.0769,0.7032,22.0431,0.198,18.8,0.0024,18.7695,56.7,0.9794,0.1018,-0.0188,0.0338,0.0582,98.5042,,0.0095,0.0034,3.2,6.3004,6.43,7.8864,0.0102,712.037,2.3225,16.4543,1.8844,0.0779,0.0245,4.1147,0.0184,2.7936,0.0264,0.0138,1.175,5.0286,0.2403,16.631,0.023,0.0007,,0.0559,5.7447,1.095,0.0813,0.5322,,23.0647,0.0705,202.1117,133.8973,0.9915,0.0,2.1321,986.4253,-0.0141,4.1624,1.3323,2.6111,0.007,149.1718,0.5994,0.0146,5.6983,66.145,1.3151,5.6099,5.85,0.1181,,70.0,2200.9889,299.8515,702.6358,752.9412,9.4618,0.0,38.7536,,1791.7535,0.04,0.0904,0.2945,2167.0,0.9605,0.0114,0.5015,4.5095,9.9764,3.1598,3.1729,,40.1318,0.0045,0.0002,1.2159,8.221,2.1694,0.0064,0.3689,2.2757,68.9362,488.2108,0.2945,0.155,16.15,28.6264,57.2185,0.0126,2.264,3.4221,1.754,1.5979,8.386,2540.0,13.17,13.5039,-0.0016,0.0029,2.0902,0.0244,83.4448,777.9733,400.254,21.1836,739.7936,0.0393,725.6058,1.306,118.052,0.0699,0.9942,6.5132,0.0686,0.5844,49.6077,4.74,0.0003,0.0545,8765.58,1.8763,0.0,1.926,0.0421,12.5429,4.1362,,0.0709,,0.1999,5.298,76.0322,2948.09,438.8106,0.0094,15.86,0.1838,14.3864,0.1346,1.383,3.902,0.0,0.0009,0.0552,9.4504,81.5191,36.6213,0.0369,0.1174,0.0802,0.1773,0.0246,2857.0,78.29,0.0,24.267,0.0019,15.77,0.0021,0.2521,192.65,90.5,6.17,0.0049,3.3444,39.4846,3.2591,0.0598,112.7136,0.0856,23.9815,7.0389,0.0091,6.4184,5.9467,6.5916,0.0,15.4662,0.0677,20.3091,20.05,8.5571,1.4687,7.912,3.2469,38.0298,3.3292,2.5761,47.9323,50.3923,3.996,,29.8019,38.5673,17.4266,0.0007,0.4696,6.889,1007.2099,1.8,0.0023,4.98,0.0014,4.7369,10.4593,0.0023,
3.8565,7.6293,10.7222,0.3785,0.0031,3.1031,5.0275,-0.0001,140.4864,107.0,,127.0192,2.5279,0.0018,-0.0074,0.0084,248.552,0.0061,2.7204,0.1774,58.3392,11.1558,0.0059,0.1113,0.233,5.227,2.2682,4.866,119.6144,0.4527,1.0,-0.0039,111.9297,0.8326,316.001,5.5475,0.2761,0.069,3.6052,0.0184,223.0,0.0,0.0002,18.32,15.12,5.69,38.512,0.1229,-0.0114,632.5773,0.0027,-3596.75,181.2721,1.32,0.012,32.5683,0.0741,0.167,72.828,0.0884,0.6996,2.3758,0.0137,0.1514,0.1694,15.66,14.9838,3.398,383.0,0.0385,0.0744,4.0502,5.5612,4.6802,1.1067,7.9018,0.0001,0.0548,0.6785,15.71,86.8309,2.7858,0.3162,0.0235,0.162,-0.0153,0.1048,0.4864,22.2335,5.6089,2.3394,324.222,7.5817,0.9312,6.5202,4.5227,0.26,0.0167,,0.0044,46.858,0.9137,1.4613,1.9346,107.3989,312.6437,2.7981,0.9463,0.9021,0.0042,0.0388,4.6101,14.36,16.32,0.4514,0.058,1.4189,0.018,-5.1645,0.1786,0.9485,16.6309,33.5391,0.1119,0.99,2.0415,0.0025,4.605,531.7464,0.0503,0.2674,0.2231,113.9735,26.352,-0.0027,9.1299,4.1012,65.056,76.0,346.2527,0.0,4.5909,1.3679,22.5964,-6333.25,0.137,15.73,350.4855,0.9324,2477.13,38.0251,0.8741,104.6066,2.2909,10.3677,73.3778,0.0008,0.003,2.4146,37.027,0.868,0.0013,0.0695,0.7299,29.3315,1435.9611,8.0419,0.3784,0.0749,,2.243,2.985,0.0167,0.9415,2.2027,0.0026,1.2833,0.2085,0.0215,0.258,1.7669,0.254,97.5,11.363,0.0551,0.0849,0.978,-0.0013,34.3322,-0.032,0.0796,,21.21,0.1296,3.9522,742.029,64.5517,0.7671,64.8532,0.285,0.3906,0.0158,6.2263,0.0075,0.0956,0.0912,4.0131,-0.0004,3.5429,0.0298,32.7182,338.0,,0.4102,412.4685,1.4649,0.0,3.7618,4.6119,0.0038,0.9365,-0.0072,0.123,0.6222,0.0365,0.2,0.2256,2.374,618.2173,462.25,31.8556,2.3773,0.447,0.165,0.5329,30.8106,0.2149,7.288,0.0025,19.6525,62.1001,0.9804,0.0875,-0.0237,0.0178,0.072,157.2906,6.1841,0.0065,0.0031,2.9,6.1972,4.57,7.6878,0.019,0.0,3.936,12.6938,2.929,0.1218,0.0156,3.7379,0.0156,3.1198,0.0426,0.0173,0.4108,2.5172,0.1718,23.743,0.0037,0.0007,,0.0558,2.3447,1.3035,0.1043,0.5823,234.0516,57.3074,0.177,199.9289,145.8382,0.9895,0.0,8.5,340.2985,-0.0001,3.971,4.1012,1.8667,0.001,147.0582,0.5992,,6.553,65.9525,1.969,6.0855,26.83,0.0749,1.6147,70.0,2192.1889,176.8962,704.9951,0.0,9.8161,0.0,51.6664,,1955.8828,0.0827,0.0507,0.2034,1327.8994,0.98,0.0096,0.4969,7.7055,10.0479,,6.4117,99.3219,115.6078,0.0045,0.0004,1.8125,8.4836,1.4375,0.0032,0.2908,2.2732,48.2143,988.2854,0.2034,0.0496,18.24,62.1911,207.3696,0.0118,3.353,5.3587,2.0596,1.717,29.3073,2278.5,35.8462,3.3355,-0.0005,0.0037,3.028,0.0565,83.8792,414.0476,407.364,25.1645,735.8611,0.1616,737.5634,0.65,117.5064,0.1408,1.0,2.6185,0.1088,0.4034,49.5821,16.32,-0.0001,0.0285,8862.2601,7.5138,0.0,1.9052,0.0472,12.6241,4.42,,0.065,,0.3973,18.664,39.3822,2951.84,82.8556,0.0094,15.71,0.1166,12.4264,0.1347,2.387,3.8453,851.0638,0.0009,0.0597,9.3844,94.2194,27.6084,0.0293,-0.3247,0.1038,0.1436,0.0036,2820.0,79.8,0.0,32.175,0.0009,15.72,0.0021,0.2401,190.1128,91.6,6.5,,4.3623,37.0354,2.9504,0.2333,120.6736,0.059,22.5787,5.9877,0.0168,4.2552,6.2079,4.8684,0.0,27.0951,0.0283,67.7994,18.24,8.6024,0.844,9.6653,2.5228,6.2,5.3369,2.8328,85.6811,50.4179,12.897,0.2731,16.255,53.7865,19.379,0.0016,0.487,2.398,1000.1451,0.9,-0.0076,7.28,0.0005,7.494,10.2117,0.0015,0.9827
5.057,9.2499,7.9272,1.8861,0.0028,7.602,5.7919,0.0001,139.7627,99.0,4.311,166.4611,5.8626,0.0087,-0.0086,-0.0297,264.272,0.0172,3.1859,0.3028,59.2772,9.3252,-0.0358,0.1164,0.072,3.428,2.71,4.871,131.8265,0.5956,1.0,-0.0095,8014.2231,0.5671,596.3958,3.0145,0.3363,0.0548,5.175,0.0124,16410.0,642.1053,0.0004,12.1,14.49,7.11,24.0964,0.1242,-0.0104,631.4327,,-567.75,254.2663,0.93,0.0058,20.3987,0.0951,0.209,77.466,0.0241,0.2342,3.1889,0.015,-0.0276,0.1175,19.7,14.4599,2.783,333.0,0.0122,0.1674,5.0872,6.3896,3.8899,1.119,8.1699,0.0,0.0624,1.8847,20.68,86.8786,,0.3808,0.0262,0.3315,0.0124,0.074,0.1042,12.9477,4.3032,1.2776,505.3,4.473,0.9301,,5.6364,0.22,0.0615,,0.0025,29.945,0.939,1.5335,,98.9011,44.424,3.2549,0.9428,1.1195,0.0061,0.0212,2.3957,6.0315,7.07,1.4057,0.1147,1.4181,0.0128,1.1855,0.6088,0.9367,9.7556,67.283,0.0303,0.9907,2.0701,0.0041,4.592,530.9173,0.0379,0.2917,0.0828,527.7883,36.363,0.0158,7.36,2.2596,74.75,385.0,349.5127,0.0,4.6796,3.2988,59.8978,-6445.0,0.32,15.7,352.9782,0.9034,2395.39,3.7671,0.5833,187.9875,1.7153,10.1929,64.5889,,0.0025,2.4292,160.4273,1.126,0.0035,0.1004,0.7503,75.1562,1459.4739,11.2907,-3.732,0.1582,160.5119,2.483,2.381,0.0308,0.9602,4.6724,0.0028,0.9665,0.1809,0.0254,0.071,3.2064,0.598,209.9,9.9991,0.027,0.0731,0.9804,-0.0035,21.6397,0.0264,0.0715,0.4576,22.5,0.1616,3.561,718.4258,64.0447,0.93,37.5773,0.303,1.0492,0.0126,,0.0091,0.1062,0.0382,4.8249,0.0009,2.6698,-0.0651,23.7291,541.0,467.8408,0.7959,400.9785,1.3745,167.4044,2.2509,6.9476,0.0019,2.022,-0.0057,0.065,1.7886,0.1396,0.156,0.0877,1.2825,628.3527,1295.75,37.6169,3.6631,0.7804,0.1187,0.9072,102.272,0.2614,12.857,0.0031,15.1502,38.8,0.9618,0.2147,-0.0533,0.0162,0.0626,199.9777,,0.0087,0.0059,2.3,6.3361,4.4,9.2567,0.0104,0.0,8.7627,10.9598,1.8844,0.0564,0.0155,5.0839,0.0248,2.3911,0.0207,0.0214,0.9057,3.0733,0.1996,12.848,0.0182,0.001,7.1001,0.061,5.5651,1.1685,0.0297,0.717,,41.4387,0.899,200.2872,142.1573,0.9674,697.1429,11.078,114.7183,-0.087,3.2298,2.2596,3.0,0.0049,152.0318,0.6058,0.0303,4.194,67.0499,1.2773,7.0884,15.97,0.1582,,70.0,2209.0889,146.0899,715.2528,590.242,8.573,-0.0002,10.8507,,1771.1661,0.0536,0.1224,0.3938,1258.3003,0.9654,0.0251,0.5017,4.5112,10.2003,6.6231,7.076,,77.2746,0.0036,0.0024,1.2005,10.5618,1.5057,0.0043,0.188,2.2527,43.3333,320.1675,0.3938,0.0696,10.04,39.7633,49.9935,0.0184,3.5633,2.5059,1.7554,1.3863,10.8363,2984.75,7.2636,12.8989,0.0007,0.0045,2.0902,0.031,86.0222,435.5334,408.938,18.8145,764.2195,-0.0645,735.6515,0.9913,118.1136,0.1666,0.9951,3.927,0.0623,0.7794,49.4761,7.07,0.0001,0.0341,8701.97,5.1898,0.0,2.3501,0.0988,12.5331,4.5385,,0.1006,,0.4483,8.453,48.8399,3079.44,25.6994,0.0123,15.81,0.2709,28.3726,0.1348,2.1612,4.6217,480.4776,0.0008,0.093,10.8438,164.1905,28.9688,0.0688,0.2577,0.0299,0.19,0.0373,2852.0,76.88,728.655,31.303,0.0012,15.74,0.0057,0.2082,191.7142,234.1,6.9,0.0081,4.2551,40.7432,3.1018,0.2942,123.3427,0.0432,34.6221,14.0009,0.0084,4.4489,6.475,4.4417,0.0,15.4662,0.0542,35.6702,19.49,9.2016,1.4173,9.2286,2.2544,0.0,8.3941,1.7564,34.2105,50.5239,7.206,,17.2498,61.8424,22.0659,0.0008,0.3435,5.854,1001.798,1.3,0.0209,4.98,-0.0007,9.2278,10.1643,0.0019,
,8.064,17.4192,0.2063,0.0052,3.6564,5.3749,0.0001,147.46,87.0,2.6823,46.5956,3.1847,0.0045,-0.0106,-0.0473,264.272,0.0103,2.9575,0.2215,58.4638,5.479,-0.0132,0.1079,0.192,4.7909,1.086,4.809,93.304,1.1089,1.0,0.0086,2136.4514,0.5671,341.5667,1.5484,0.1401,0.0388,7.2977,0.0103,5060.0,748.6131,0.0003,16.74,7.61,6.68,49.8778,0.124,-0.0102,625.7282,,-2641.0,325.6752,,0.0071,24.9344,0.0432,0.265,,0.0257,0.3661,1.4855,0.0157,0.075,0.0988,16.56,10.7134,3.277,11626.0,0.0112,0.0905,4.53,3.1796,2.484,0.9992,7.5669,0.0,0.0711,2.0048,,86.7827,,0.2872,0.0345,0.1056,0.0868,0.0472,0.1228,6.8212,5.5666,3.8484,438.177,7.6371,0.933,,4.717,0.29,0.0204,33.109,0.0051,50.911,1.4533,1.3735,,106.0733,114.3493,3.2007,0.9511,0.625,0.0049,0.0387,1.5112,20.1091,4.4,,0.0782,1.4154,0.0187,1.2882,,0.9473,15.4546,29.9811,0.0248,0.9907,3.2429,0.0021,4.574,540.1218,0.0631,0.2756,0.1231,166.2457,22.4,-0.0023,6.87,1.2314,83.521,1101.0,351.0709,316.3987,4.7246,1.6248,22.2791,-5197.5,0.117,15.75,349.4136,0.5701,2566.79,2.8931,0.8692,114.0592,1.7997,5.9828,72.4333,,0.0028,2.3956,525.9888,0.238,-0.0011,0.0683,0.6599,38.4095,1373.0077,7.6039,0.0473,0.0921,138.719,2.849,2.992,0.0247,0.9613,3.4699,0.0066,2.4282,0.3532,0.0103,0.058,1.4752,0.325,91.8,7.4656,0.0429,0.0839,0.9557,0.0011,15.2134,-0.0218,0.1422,0.4646,9.46,0.3227,2.485,0.0,64.4017,2.0521,23.5146,0.363,0.429,0.0123,,0.0196,0.0751,0.0382,4.2315,0.0,4.4617,0.0019,12.7291,763.0,466.9001,0.4586,428.5431,,368.8716,2.3296,12.3159,0.0027,1.059,0.0168,0.12,1.0606,0.0362,0.113,0.0877,1.0662,605.6191,-6332.6667,50.2572,2.3031,0.5693,0.0874,0.6805,,0.1542,6.322,0.0026,14.8748,39.3,0.9719,0.0993,-0.0171,0.0215,0.0839,133.7212,,0.0035,0.0031,1.8,6.3468,6.96,9.1729,0.03,518.6944,3.5765,16.9748,1.8844,0.1077,0.0282,3.2382,0.0212,2.4142,0.038,0.018,0.6766,3.8029,0.2021,10.84,0.002,0.0007,3.5506,0.0641,2.7792,1.3934,0.0366,0.4025,,18.0032,0.4681,199.5734,127.1973,0.97,0.0,2.2392,132.7696,0.0259,7.1243,1.2314,1.7667,0.0006,147.72,0.5983,0.0329,3.2514,66.0405,1.1541,2.8839,7.4,0.0922,,70.0,2197.5222,5951.6343,691.7496,0.0,9.004,0.0001,12.7743,0.0071,1758.5897,0.0438,0.0482,0.2275,951.7002,0.9795,0.0133,0.5008,10.4633,10.2049,7.0842,7.4199,,144.8622,0.0041,0.0016,,8.757,2.3243,0.0019,0.3055,2.3907,56.6038,592.1439,0.2275,0.094,9.37,73.226,228.515,0.0115,1.5118,4.5044,2.3243,1.2719,32.2042,2879.75,14.7806,38.2325,0.0038,0.0029,2.0902,0.0922,83.6583,329.4431,,18.7118,772.0702,-0.1666,716.684,1.299,119.4242,0.1507,1.003,1.983,0.08,0.4515,49.6118,4.4,0.0001,0.0628,8883.24,2.4322,0.0,2.208,0.0302,12.4769,8.2318,0.0027,0.0729,0.0215,0.4709,4.489,30.9555,2975.57,183.5877,0.0094,15.7,0.098,7.579,0.1279,1.1369,4.5963,182.9934,0.0012,0.0688,6.9298,150.9729,25.1901,0.0328,0.2564,0.0828,0.1574,0.0193,2860.0,79.71,754.717,22.566,0.0006,15.75,0.0035,0.407,190.5694,108.8,12.16,0.0082,3.1487,40.8991,1.5472,0.0812,108.4855,0.0307,31.9137,7.2297,0.0171,6.5615,7.6832,3.814,0.0,15.4662,0.0225,33.109,9.37,8.5596,1.1004,6.3283,4.1949,191.5941,14.6801,1.7884,76.2174,50.3882,7.937,,12.0849,37.89,25.7031,0.0018,,4.024,1016.6978,1.0,-0.0398,4.98,-0.0039,,10.629,0.0017,
4.853,2.3443,9.9193,0.8233,0.0029,4.1278,5.0133,0.0,146.8264,136.0,2.6399,140.7727,1.9585,0.0018,-0.0238,0.029,264.272,0.0148,0.7513,0.2832,55.8504,6.4832,-0.0217,0.1096,0.127,7.5877,0.613,4.822,41.2164,0.2132,1.0,0.0133,503.6527,0.5671,50.6084,1.8213,0.1411,0.0307,5.271,0.0145,1177.0,347.3043,0.0012,27.08,11.17,4.52,46.2963,0.1245,-0.0108,637.1573,,-3360.0,76.1856,2.85,0.0287,14.7061,0.0345,0.152,80.418,0.0597,0.1972,0.5558,0.0154,-0.0316,0.0723,15.43,4.484,3.276,76.0,0.0265,0.0648,3.0785,7.1487,2.8548,0.9366,7.6467,0.0,0.0368,1.905,19.79,86.5759,,0.2759,0.0191,0.1502,-0.0215,0.0441,0.1474,6.2661,8.0024,1.5775,143.6,3.2492,0.9247,,4.3488,0.2,0.0127,,0.005,41.986,1.2914,1.4964,,110.5422,90.4545,0.795,0.9512,0.8371,0.0034,0.0335,1.6584,13.0423,5.18,3.0544,0.0585,1.4098,0.0186,10.2355,1.2811,0.9318,13.3295,43.6917,0.0335,0.9664,2.5012,0.0019,4.586,535.3327,0.0596,0.2231,0.0784,525.1185,32.31,0.0204,9.37,1.5031,59.736,636.0,354.8109,0.0,4.5068,3.242,21.1169,-6456.75,0.939,15.69,356.8936,0.7944,2377.89,4.0945,0.5438,109.2538,2.0886,8.2423,71.3111,,0.0026,2.4373,269.1089,0.91,-0.0024,0.3384,0.6215,38.1848,1433.6732,6.4638,-0.2838,0.1146,159.7443,2.508,2.918,0.0184,0.963,4.6781,0.0064,1.2304,0.2064,0.0057,0.078,4.4993,0.199,127.3,11.0695,0.0496,0.0934,0.9486,0.0024,29.787,-0.0053,0.0885,0.4637,24.13,0.0722,3.3655,445.1444,63.9238,1.988,53.0491,0.277,0.8375,0.0129,,0.0189,0.0852,0.0382,1.2498,0.0011,4.231,-0.0791,14.675,186.0,465.7885,0.5922,407.2145,1.9093,0.0,1.2041,2.166,0.0091,1.182,0.0614,0.118,1.5403,0.0277,0.096,0.0877,3.9543,625.5327,1270.0,51.4132,2.2877,0.7804,0.0352,0.9193,159.9773,0.1955,18.322,0.0026,18.7418,52.5,0.959,0.0792,-0.0563,0.0208,0.0511,117.4829,,0.002,0.0029,2.4,6.51,4.15,2.5575,0.0121,57.3057,5.3535,14.6788,1.8844,0.0461,0.0281,4.489,0.0163,3.4013,0.0149,0.019,0.7448,3.9314,0.1664,39.127,0.008,0.0033,5.6968,0.0463,5.8047,1.4023,0.0399,0.5351,,35.788,0.1767,197.4142,135.52,0.9903,320.0,8.968,209.4746,0.0041,3.8147,1.5031,2.5889,0.0027,142.8836,0.6035,0.0345,13.7819,66.3572,0.8275,6.9049,7.88,0.1146,,70.0,2173.4556,34.7659,719.7597,328.1298,9.8446,-0.0001,15.3056,,1817.5571,0.0145,0.4092,0.2949,386.2998,0.9712,0.0106,0.4962,7.4233,10.1611,7.4392,4.5109,,58.0425,0.0037,0.0007,3.544,7.116,1.6246,0.0007,0.3066,2.3244,34.7639,269.6629,0.2949,0.0543,18.36,54.6763,198.8263,0.0114,3.7871,1.9822,1.593,1.7503,19.1426,2909.75,12.8413,21.8575,-0.0002,0.0034,2.0902,0.0384,84.8892,136.8812,407.79,9.7645,751.7695,0.0507,734.4658,0.989,118.7802,0.1142,0.9972,5.4308,0.0925,0.5874,49.7948,5.18,0.0,0.0608,8615.15,2.1357,0.0,1.3022,0.0428,12.5553,6.1589,,0.0672,,0.2937,5.263,14.2612,3042.78,5.9843,0.0078,15.69,0.7905,10.714,0.126,1.0304,1.2955,0.0,0.0007,0.067,9.7132,50.6681,33.6568,0.029,-0.0174,0.0519,0.1738,-0.003,2859.0,78.11,389.4737,36.459,0.0003,15.65,0.005,0.2384,187.5696,125.6,8.8,0.0088,4.964,38.4572,3.7872,0.2458,125.7555,0.0496,10.0162,5.2926,0.0131,3.7542,6.1462,6.2083,0.0,15.4662,-0.066,138.2861,23.69,8.7418,0.9617,10.8718,2.3289,35.0298,2.8807,2.4155,67.9028,50.2052,3.763,,5.4826,38.3384,15.0434,0.0017,1.1323,4.375,989.4793,0.9,0.0049,4.98,0.0003,9.0194,10.1472,0.0013,
4.2451,8.8051,11.5631,2.0865,0.0043,2.4887,5.6554,-0.0002,139.6882,131.0,,211.3148,6.0838,0.0026,-0.0674,-0.0394,265.996,0.0105,3.2312,0.261,58.0339,7.5901,0.0068,0.1096,0.151,6.3993,2.05,4.911,142.7325,0.4232,1.0,-0.0072,248.4525,0.8106,188.2393,2.026,0.3344,0.0274,7.3545,0.0393,537.0,523.6111,0.0002,22.97,12.76,7.7,69.7051,0.1233,-0.0093,641.8482,,-3819.0,86.7967,1.57,0.0102,23.229,0.1069,0.311,82.076,0.0756,0.2243,2.0858,0.0116,-0.0376,0.072,16.89,15.1401,3.062,13723.0,0.0331,0.1879,5.5123,7.5904,3.4807,1.184,7.6154,0.0001,0.0465,2.0238,17.24,86.9622,,0.3536,0.0217,0.1701,-0.0851,0.0664,0.4397,8.3462,6.4518,3.1529,180.863,9.1572,0.928,,4.6694,0.26,0.0202,,0.0065,38.844,1.3744,1.5996,,105.1111,82.5553,3.2973,0.9487,0.8166,0.0034,0.0581,3.4577,12.3891,7.61,1.0192,0.045,1.4185,0.0098,4.0427,0.505,0.9404,14.2163,31.8371,0.0754,0.9907,2.9031,0.005,4.659,534.3355,0.0307,0.3216,0.0786,194.3925,31.265,-0.0095,9.03,2.1851,106.08,2059.0,361.7155,0.0,4.5337,1.9651,19.5843,-5320.5,0.184,15.96,358.9464,0.6481,2515.97,9.092,0.7436,54.9354,2.2662,9.0854,66.9333,,0.0068,2.4035,853.8912,0.884,0.0025,0.0696,0.7847,22.5536,1242.235,5.4186,-0.0946,0.0901,,3.243,2.471,0.0128,0.9799,3.3962,0.0068,1.3543,0.2436,0.0193,0.184,1.8895,0.602,86.3,10.5465,0.0285,0.0777,0.9559,-0.0025,65.082,-0.0214,0.1076,0.4628,23.88,0.119,3.2869,826.0652,64.2798,2.1483,47.6899,0.224,0.6908,0.0264,,0.0205,0.0775,0.0373,4.639,-0.0004,2.1663,0.026,32.0428,197.0,,0.4387,404.3479,1.5941,211.6041,1.4344,3.9648,0.0031,1.399,-0.1174,0.149,1.0777,0.0416,0.149,0.099,3.1027,629.4591,304.0,47.2323,3.9426,0.6475,0.0952,0.7643,63.9363,0.2068,7.64,0.0026,19.1529,53.3,0.9754,0.0911,-0.0306,0.0142,0.0787,93.6949,,0.0065,0.0055,2.2,6.2891,3.78,9.1675,0.0241,81.0558,3.4301,11.4947,1.7105,0.0343,0.0328,4.3258,0.0179,3.3888,0.0112,0.0114,0.7857,3.5969,0.2034,31.216,0.0202,0.0007,,0.0377,3.3861,1.2882,0.0728,0.5249,,48.8959,0.2581,200.4821,140.4445,0.9882,971.4286,8.6948,164.3175,-0.07,4.5258,2.1851,2.2,0.0069,146.0255,0.6019,0.031,10.5767,66.2774,0.8028,7.1874,10.39,0.0901,,70.0,2216.4778,5735.0669,722.7613,377.7049,10.6751,0.0001,44.8745,,1729.1412,0.0512,0.0825,0.2169,1411.4004,0.9686,0.0206,0.5029,4.9428,9.8952,6.6988,6.7317,,49.1957,0.0072,0.0008,1.9129,7.116,1.2819,0.0029,0.2605,2.3063,45.4545,659.945,0.2169,0.0915,26.18,193.0997,198.343,0.0198,3.7205,1.4871,2.0742,1.69,26.7732,2775.25,11.4698,74.1915,-0.0016,0.0042,1.8045,0.0758,84.7226,399.0067,406.118,15.9573,718.4279,0.2737,745.9903,1.3165,118.5886,0.1453,0.9971,2.5363,0.069,0.429,49.4391,7.61,-0.0003,0.0647,9322.2499,3.0849,0.0,1.9762,0.0462,12.5351,5.4374,,0.0617,,0.4234,11.358,42.7497,3009.65,0.0,0.0078,15.96,0.1552,13.2064,0.139,0.8379,4.5727,347.7281,0.0011,0.036,9.5925,66.5739,31.9114,0.0257,-0.6012,0.0726,0.1873,-0.022,2848.0,77.84,102.4119,38.995,0.0008,15.92,0.0034,0.2801,189.807,74.9,7.94,0.0081,5.2273,39.14,4.1591,0.2496,124.4873,0.1323,14.5595,5.6951,0.0103,3.5962,4.9408,6.0079,0.0,12.2083,-0.0916,71.778,26.18,8.9635,1.0437,11.4274,3.4864,14.0613,3.7027,2.4047,79.5374,50.5609,3.734,,19.8673,30.2974,31.4582,0.0021,0.7845,4.92,1006.0844,1.0,-0.0177,4.55,0.0017,8.2458,10.167,0.0012,
3.8376,8.5765,6.084,2.4099,0.0031,4.6464,6.3528,0.0002,137.4455,111.0,3.4551,165.2309,6.5402,0.0073,-0.0129,-0.045,,0.0144,3.1253,0.316,56.2629,8.5675,-0.0114,0.1096,0.139,4.5119,2.0842,4.819,93.0222,0.6595,1.0,-0.0022,2948.8247,,679.0123,3.7932,0.3509,0.0628,5.088,0.0066,5984.0,0.0,0.0007,15.6,9.5,5.32,253.7931,0.1256,0.0018,629.6991,,-2542.75,138.8221,1.19,0.0098,29.1501,0.1194,0.222,71.628,0.062,0.66,3.2905,0.0155,-0.0474,0.1662,16.88,10.1759,2.745,160.0,0.0311,0.1838,3.8706,6.6426,2.4461,1.2087,6.4962,0.0001,0.0955,1.8818,15.6,86.7383,,0.364,0.0414,0.0739,-0.1767,0.0894,0.1031,7.6789,5.8458,3.4439,212.88,4.8305,0.9323,,4.858,0.26,0.0182,,0.0046,38.419,1.8254,1.3539,,111.89,63.5083,3.2648,0.9434,0.8123,0.006,0.0199,2.8384,13.4236,5.5,1.1732,0.1133,1.4093,0.0282,-0.81,0.4469,0.9291,10.2962,23.941,0.0409,0.9641,5.0746,0.0025,4.547,537.5418,0.0824,0.3166,0.2034,237.4233,34.341,0.0088,7.93,1.4796,122.729,811.0,347.4682,0.0,4.5462,2.9246,20.4275,-6310.25,0.249,15.74,345.7555,0.9884,2459.39,5.1548,0.6852,84.1425,1.7735,6.5614,69.4222,,0.007,2.402,354.8205,0.288,0.0053,0.2425,0.8007,44.5093,1175.1481,10.7932,-0.6623,0.134,145.4569,3.521,2.377,0.034,0.9518,4.5958,0.0085,0.8402,0.302,0.0194,0.097,2.2965,0.652,77.9,10.2449,0.0407,0.0597,0.9498,-0.0055,12.5755,-0.0163,0.1222,0.4603,19.41,0.1886,4.6095,150.7378,64.4484,2.7057,26.4296,0.272,0.7636,0.0434,,0.0257,0.0936,,4.4396,0.0071,5.8467,-0.5283,41.1449,291.0,470.8185,0.6827,421.7719,1.4334,972.0102,1.4072,6.1497,0.0036,1.182,0.0186,0.059,1.4873,0.0387,0.193,,3.4511,616.2755,1554.0,80.1295,2.4948,0.8544,0.1225,1.0135,81.8449,0.2025,9.686,0.0026,20.209,62.2998,0.971,0.0572,-0.0211,0.0316,0.0787,183.175,,0.0072,0.0021,3.2,6.3476,5.35,9.236,0.0268,659.4886,3.1675,9.7715,,0.0307,0.0192,4.8724,0.0294,2.7238,0.0109,0.0181,0.5822,5.2053,0.1497,34.286,0.0233,0.0023,7.873,0.0608,5.1981,1.2785,0.0253,0.5235,,35.0599,0.7621,203.9062,144.7855,0.9635,84.507,2.826,103.8355,0.0036,2.2354,1.4796,2.7667,0.0077,146.5445,0.5954,0.0138,12.9251,66.2423,1.9223,6.1302,9.52,0.134,,70.0,2183.1,71.7449,704.8011,735.5932,10.7242,0.0016,10.8294,,1697.1294,0.0572,0.0919,0.3374,992.2002,0.9675,0.0083,0.4989,6.8894,9.9691,2.9891,7.1202,,47.0501,0.0111,0.0023,1.6614,7.116,2.077,0.0045,0.1733,2.3296,36.1446,995.497,0.3374,0.0589,22.18,145.8584,188.0746,0.0124,3.0824,1.3183,2.0742,1.4752,36.9109,3028.25,14.0369,26.7811,0.0029,0.0034,,0.0827,84.2999,308.4709,406.506,20.81,828.4183,-0.2807,733.9512,0.9902,119.0822,0.1593,0.9998,2.8928,0.0872,0.6671,49.4205,5.5,-0.0002,0.0467,9750.47,2.7302,0.0,1.7046,0.022,12.5351,12.6446,,0.1139,,0.452,10.22,29.1709,3053.95,10.296,0.0078,15.71,0.2091,5.7776,0.1368,1.7881,4.5295,395.4861,0.001,0.0651,10.0344,72.0035,27.496,0.0197,-0.47,0.0572,0.1934,-0.0098,2837.0,78.04,677.2816,31.222,0.0012,15.71,0.0053,0.3482,193.1819,141.9,18.53,0.0043,4.254,36.742,3.599,0.0854,123.9755,0.0188,18.1152,4.2248,0.0123,4.7815,5.983,4.895,0.0,,-0.0976,31.0788,22.18,8.6439,0.8527,9.2016,2.468,235.3358,4.6115,2.8537,30.4997,50.5795,4.031,,11.2289,56.3301,37.9433,0.0014,0.4953,4.062,993.4924,1.0,-0.0288,,-0.0028,7.4927,10.1909,0.0022,
3.6251,7.5345,7.062,2.7947,0.0033,5.7262,7.7094,0.0,137.2964,97.0,2.3076,145.89,8.446,0.0025,-0.0246,-0.0174,264.272,0.0063,2.6262,0.1657,57.5861,13.5128,-0.003,0.1086,0.14,7.1315,0.9451,4.86,69.687,0.6052,1.0,0.0022,494.179,0.5671,236.1898,2.457,0.1368,0.0566,7.2447,0.0339,1127.0,0.0,0.0003,25.99,16.22,6.71,44.3497,0.1228,-0.0117,631.2982,,-3733.25,180.7964,1.33,0.0149,21.1934,0.0388,0.887,73.254,0.0781,0.1633,3.8271,0.0235,-0.1384,0.136,25.11,8.4729,3.423,19245.0,0.0321,0.269,4.8872,4.2424,4.4698,1.0221,6.7039,0.0,0.0569,1.9875,14.53,86.233,,0.4743,0.029,0.1663,-0.0252,0.0764,0.0868,7.0599,7.0504,3.5396,241.589,26.8282,0.923,,6.8527,1.24,0.0173,193.4633,0.0052,31.379,1.1426,1.4148,,116.8167,356.2144,2.764,0.9514,1.1911,0.0029,0.0441,3.3908,10.22,8.87,0.2235,0.0837,1.3966,0.0241,3.7555,0.0949,0.9377,12.235,32.4878,0.027,0.9904,3.0927,0.0017,4.624,530.2591,0.0766,0.2884,0.0576,309.5785,18.645,-0.012,8.28,2.3759,67.75,599.0,366.4245,0.0,4.5459,1.5499,45.8883,-5206.0,0.221,15.75,364.4418,0.7053,2517.44,2.717,0.8137,91.6673,0.9847,12.7139,69.0333,,0.0023,2.5474,264.5302,0.883,-0.0001,0.0775,0.6776,54.3982,982.5452,4.6285,1.655,0.1221,155.9053,3.084,3.064,0.0241,0.9274,3.3062,0.0028,0.8988,0.1808,0.0089,0.054,0.7832,0.86,93.6,9.3883,0.041,0.0378,0.9756,0.0001,65.7942,0.013,0.0765,,16.88,0.1786,2.8972,0.0,64.0409,0.7995,54.6029,0.173,0.4775,0.0104,,0.0078,0.0374,0.0382,3.9643,-0.0008,5.4819,0.0586,14.3915,405.0,465.1729,0.6145,423.6629,0.8273,0.0,4.2215,6.1243,0.0041,0.946,0.002,0.142,0.6449,0.0404,0.178,0.0877,1.9214,621.0782,9309.0,49.6636,2.7947,0.428,0.1352,0.5066,27.0176,0.2736,3.318,0.0027,21.2136,58.0,0.9791,0.1516,0.0518,0.0077,0.1753,87.0491,,0.0027,0.0046,2.0,6.4435,4.81,7.9603,0.0283,0.0,3.7181,12.5176,1.8844,0.1336,0.0216,2.624,0.027,2.5755,0.0461,0.0131,0.5197,3.3294,0.1872,19.377,0.0269,0.0008,4.1042,0.0764,2.6914,0.9937,0.0246,0.7628,,58.8866,0.2575,199.9404,127.5773,0.9745,368.254,8.2273,282.7586,0.0864,2.6311,2.3759,1.9667,0.0086,145.3036,0.6129,,5.2708,66.2931,1.4774,4.7561,7.86,0.1221,,70.0,2206.4,10918.1909,710.5604,453.3472,9.882,0.0001,9.3586,0.0149,1880.7076,0.0672,0.0839,0.3032,831.2002,0.9626,0.0165,0.4964,5.4351,10.1823,,6.3165,,94.9469,0.0037,0.001,1.8156,10.7721,1.5568,0.0056,0.1233,2.2797,81.3559,0.0,0.3033,0.2556,14.91,73.9086,68.3813,0.0139,2.6739,5.8582,9.8811,1.5615,13.7738,2634.25,10.9782,22.7389,-0.001,0.0033,2.0902,0.0902,84.4782,245.2051,400.814,16.2445,882.192,0.0267,731.7537,1.2752,119.1878,0.1233,0.9974,1.1261,0.0863,0.5987,49.3598,8.87,-0.0001,0.0492,9810.0799,2.4993,0.0,2.047,0.0577,12.5492,7.5153,0.0041,0.0973,0.0077,0.407,12.4801,20.7227,3029.94,206.7354,0.0117,15.86,0.1854,16.7349,0.146,1.1853,3.9813,204.4386,0.0009,0.0546,5.3304,68.3062,26.7264,0.0546,-0.1084,0.0639,0.1671,0.0057,2877.0,79.12,351.5275,15.433,0.0018,15.82,0.0023,0.2097,190.0585,173.5,10.92,,2.109,37.2572,2.4007,0.2378,111.3327,0.1232,24.5881,10.7153,0.0106,4.1176,3.8057,4.3771,0.0,15.4662,0.0219,193.4633,14.91,9.2064,0.9509,3.863,2.6882,30.1882,7.7795,2.6287,84.9734,50.6402,12.83,,7.8993,31.4883,21.247,0.0016,0.5058,2.84,1008.4892,1.6,-0.0476,4.98,0.001,6.7381,10.7325,0.001,
4.6844,4.8971,8.9504,1.3585,0.0033,6.6633,7.5297,-0.0001,134.9736,99.0,4.659,191.3347,8.5382,0.001,-0.085,-0.0307,,0.0161,1.6247,0.3256,58.1861,6.8777,0.0195,0.1096,0.121,3.3691,3.7909,4.845,62.9005,1.0133,1.0,0.003,529.6694,,45.143,1.6404,0.3664,0.0452,7.2545,0.0063,1124.0,0.0,0.0003,11.99,7.3,14.22,106.136,0.1233,-0.0075,625.5945,,-4046.5,498.2372,1.99,0.0094,20.7358,0.1088,0.535,76.374,0.144,0.5293,1.2796,0.0158,0.0176,0.127,23.27,14.277,3.276,2273.0,0.0602,0.2965,10.5354,6.962,2.0646,1.2363,7.6839,0.0003,0.0502,2.02,18.87,87.0337,,0.4275,0.0241,0.1866,-0.0858,0.0544,0.3311,11.5059,4.1589,1.4623,786.75,15.4918,0.9315,,6.5466,0.59,0.0382,,0.008,26.248,1.5334,1.4969,,104.13,630.8872,1.8264,0.9528,1.0037,0.0028,0.0389,3.6495,6.8205,10.79,0.2068,0.0737,1.3952,0.0153,23.9018,0.0947,0.9402,8.0517,48.3745,0.0353,0.9903,3.8363,0.0051,4.616,534.9527,0.0416,0.3037,0.1884,335.4488,38.227,-0.0171,6.87,3.3115,5.359,144.0,355.4536,0.0,4.5504,2.6172,47.975,-5466.5,0.278,15.91,355.8836,0.8614,2539.78,3.7129,0.8123,23.529,2.2757,5.4007,69.3778,,0.0031,2.4152,59.8247,0.437,-0.0011,0.0701,0.8191,64.462,980.2436,8.4676,0.0,0.1501,150.2111,3.708,2.736,0.0204,1.0068,3.4534,0.0069,1.0632,0.3016,0.0356,0.075,2.6197,0.846,148.5,9.1647,0.0071,0.103,0.9617,0.0012,12.2926,0.0276,0.1113,0.4734,21.6,0.2727,4.0359,0.0,63.9006,2.226,67.0262,0.269,0.9193,0.024,,0.0214,0.0949,,2.5937,0.0002,2.9846,-0.0167,21.3861,1161.0,470.0153,0.7848,412.6033,0.7679,88.4971,1.0645,10.3272,0.0026,0.8987,-0.0804,0.128,1.6721,0.0925,0.119,,1.1329,620.2264,-1342.75,60.782,2.5889,0.7997,0.0971,0.9251,26.9344,0.2359,10.809,0.0026,18.1248,49.5,0.9641,0.0432,-0.0983,0.0123,0.1685,151.3417,,0.014,0.0048,2.8,6.2682,10.12,5.3311,0.0132,120.7711,5.847,13.3006,,0.0932,0.0338,5.3917,0.0318,2.4053,0.0347,0.0168,0.5233,4.6704,0.1538,11.49,0.0132,0.0007,5.8333,0.0622,4.4979,0.9997,0.0895,0.6414,,56.4914,0.0963,198.6198,135.1673,0.9869,0.0,4.2671,267.9707,0.0173,3.3912,3.3115,2.3556,0.0048,145.2736,0.6007,0.1864,3.5452,66.2532,1.4387,6.1632,13.7,0.1501,,70.0,2187.4444,1091.6963,709.0017,365.1282,9.8124,-0.0001,32.8864,,1787.3023,0.0498,0.104,0.3904,1260.2998,0.9711,0.0149,0.4978,4.087,9.9084,39.3715,6.6433,,41.6271,0.0065,0.0003,2.6056,7.116,3.762,0.0017,0.3027,2.366,55.1887,378.0699,0.3904,0.1467,13.05,22.7761,54.7118,0.0129,3.4527,3.9396,4.7554,1.2842,48.1286,2672.5,9.6376,5.3882,-0.002,0.0036,,0.0353,86.4478,417.9963,402.828,16.0982,705.7114,0.0111,729.7375,1.2555,117.974,0.1391,0.9978,3.6298,0.0165,0.7769,49.746,10.79,0.0,0.0822,8827.4899,3.7406,0.0,3.8329,0.0652,12.4069,8.4806,,0.0934,,0.4164,11.7139,25.1314,2855.96,169.2795,0.0078,15.91,0.2356,18.6646,0.1329,1.0997,2.6841,0.0,0.0008,0.0623,12.0632,238.98,29.2648,0.0163,0.0359,0.0512,0.19,0.0567,2845.0,78.11,19.4175,27.367,0.0006,15.88,0.0054,0.3465,188.8074,190.3,12.32,0.0268,3.7503,37.8886,3.6293,0.1588,119.0691,0.0189,80.2607,2.8861,0.007,9.7186,5.9115,4.5249,0.0,,-0.0228,76.4584,22.51,8.8287,1.7134,8.7644,2.6768,27.7771,21.2385,2.2629,67.3684,50.254,2.863,,8.9131,45.9104,2.0569,0.0026,0.8424,3.024,1014.2044,1.3,-0.001,,0.002,8.3886,10.2412,0.0009,
3.6045,4.2563,11.1223,2.4897,0.0064,7.4789,5.8371,0.0001,149.4245,105.0,,117.8457,3.3823,0.0027,-0.0117,0.0093,264.272,0.0038,1.281,0.2849,57.8296,10.6901,0.01,0.1146,0.217,5.6892,4.6453,4.804,94.4495,0.3886,1.0,0.0,3610.1569,0.5671,118.736,1.6751,0.0908,0.0543,7.1638,0.0065,7932.0,0.0,0.0011,20.45,4.86,4.39,34.5158,0.123,-0.013,636.7491,0.0031,-2091.25,370.7078,0.39,0.0048,23.112,0.0302,0.368,73.322,0.0386,0.5996,2.7301,0.0116,-0.0125,0.1244,16.83,10.8161,3.11,6579.0,0.0192,0.0946,2.9379,5.9372,1.317,1.2091,7.5264,-0.0001,0.1259,1.993,14.46,86.259,2.3661,0.4631,0.0538,0.1273,0.025,0.0491,0.3928,5.8374,6.6584,2.7752,489.505,10.7683,0.9298,5.4637,4.6607,0.22,0.0229,,0.0045,53.476,0.7288,1.5817,1.4939,95.1089,0.0,1.3368,0.9582,0.9617,0.004,0.0573,2.1194,15.7918,3.86,0.2997,0.0855,1.4086,0.0234,3.2509,0.1151,0.9383,16.7732,23.6058,0.0422,0.9632,3.0807,0.003,4.603,531.8455,0.0687,0.3326,0.2221,158.8697,35.296,0.0118,8.64,1.0675,77.114,245.0,361.1082,0.0,4.6393,2.1898,22.8954,-5508.75,0.447,15.9,359.4545,0.594,2465.11,4.4155,0.8391,132.6015,2.2544,3.8505,69.0556,0.0011,0.0027,2.4174,136.0769,0.218,-0.0019,0.3345,0.8015,61.6199,2120.576,3.8587,-1.135,0.1447,,2.936,2.886,0.0254,0.977,3.4174,0.0024,1.3824,0.2122,0.0436,0.088,1.7837,0.345,78.5,9.3674,0.0312,0.0888,0.9686,0.002,12.8757,-0.0318,0.078,0.4623,18.1,0.1171,2.7514,925.2396,64.2376,0.7672,23.046,0.293,0.6779,0.0128,0.5788,0.0074,0.0932,0.0382,2.2807,0.0002,4.8743,-0.014,9.3231,863.0,,0.7897,417.2738,0.6086,0.0,2.0833,3.9306,0.0017,0.9649,-0.0094,0.172,0.3917,0.0506,0.12,0.0877,2.2197,620.9573,1526.0,27.8946,2.4064,0.7637,0.0405,0.9048,49.2367,0.225,7.443,0.0027,30.8411,96.2998,0.9798,0.0929,-0.0325,0.0153,0.0581,67.8055,0.584,0.0145,0.0043,1.9,6.4833,6.54,4.4788,0.0212,433.1551,3.1844,13.283,1.8844,0.0372,0.033,5.0098,0.0222,3.0979,0.0126,0.0148,0.6097,2.0995,0.2034,22.37,0.0239,0.0032,,0.0449,3.7867,1.4101,0.0646,0.6178,230.9114,32.2342,0.2806,196.5141,126.2164,0.9698,0.0,2.0349,804.2781,0.0681,3.9854,1.0675,2.3778,0.0072,152.0355,0.5933,0.0231,7.2235,66.2913,1.4339,5.5336,6.39,0.1446,0.1974,70.0,2210.2778,3232.9995,704.5377,375.8218,9.8875,-0.0001,40.2051,,1757.2131,0.0168,0.1696,0.3916,885.2002,0.9595,0.0181,0.5026,2.7503,10.2,4.9942,8.9679,100.9082,74.0405,0.0029,0.0009,0.5319,8.6386,2.1099,0.0035,0.2994,2.2588,50.4673,857.6803,0.3916,0.1186,18.61,58.1547,233.5671,0.0121,2.8426,1.6486,1.7547,1.6245,56.0401,2608.75,17.0732,9.3915,0.0004,0.0032,2.0902,0.0671,84.4061,251.7539,401.17,16.7491,720.9188,-0.0874,727.6497,1.271,118.542,0.1934,0.9977,2.3218,0.0675,0.7768,49.5905,3.86,0.0001,0.0752,8184.0899,1.8171,0.0,1.5357,0.0401,12.5376,5.7289,,0.0731,,0.5814,7.45,26.6897,2914.86,431.1271,0.0099,15.95,0.3771,9.0287,0.1282,1.07,2.2791,0.0,0.0019,0.0443,10.5665,151.1141,29.2712,0.0272,0.2273,0.1053,0.1938,0.0052,2867.0,79.86,579.3991,29.462,0.001,15.92,0.0013,0.246,186.6265,218.0,8.71,0.006,4.0489,35.8325,2.997,0.0721,109.4673,0.0262,23.0836,5.8732,0.0065,6.8763,6.3156,4.8256,0.0,15.4662,0.0012,31.0176,18.61,8.6772,0.974,8.9172,5.2027,379.2947,15.666,4.3569,88.7615,50.4095,7.915,0.3126,13.1013,19.5152,24.5712,0.0015,0.1551,3.751,1007.7856,1.2,0.0026,4.98,-0.0004,6.6538,10.713,0.0013,0.9759
4.5359,10.5224,7.1092,2.1853,0.0042,8.7033,5.7408,-0.0003,135.9164,78.0,,136.5147,5.8079,0.0029,-0.0136,-0.0702,274.238,0.0152,3.3687,0.314,58.7171,5.4211,0.0077,0.1139,0.126,4.8007,3.5066,4.833,199.3289,0.566,1.0,0.0004,2539.71,0.6558,0.0,4.5695,0.0652,0.0657,7.2875,0.01,6085.0,0.0,0.0005,16.76,8.39,5.17,221.6216,0.1219,-0.0019,621.9045,0.0019,-3610.75,480.6201,0.61,0.0327,23.3595,0.0165,0.518,74.42,0.1052,0.2818,3.1047,0.0109,-0.2865,0.1595,21.68,23.1432,3.823,11335.0,0.0474,0.1621,3.8038,5.0209,2.5752,1.5553,7.0563,0.0001,0.3365,2.0202,18.46,86.7637,1.6104,0.4664,0.1572,0.0814,-0.4018,0.1469,0.5311,5.8046,5.2483,4.5051,653.718,14.9466,0.9334,3.7169,6.2279,0.18,0.0294,69.2994,0.0041,12.478,1.3767,1.4078,0.9716,86.17,380.4702,3.5143,0.9531,0.8325,0.0048,0.028,2.4157,9.5081,5.22,2.0722,0.1009,1.401,0.011,-0.2136,0.8905,0.9283,3.2598,86.1416,0.0616,0.9887,1.5402,0.0036,4.607,532.0064,0.032,0.3758,0.1006,798.8024,26.749,0.0052,10.89,1.6324,14.505,210.0,348.11,0.0,4.5315,1.5899,11.0988,-5077.5,0.44,15.71,349.1136,0.8308,2562.2,6.8803,0.7651,97.5195,1.9363,6.0851,75.9556,0.0006,0.0041,2.4612,98.5,0.319,0.0007,0.138,1.0318,84.7497,2434.5273,8.2276,-2.08,0.137,,5.653,3.099,0.0286,0.954,3.4657,0.0081,0.8984,0.2775,0.0326,0.139,3.4011,0.59,244.9,8.1132,0.0554,0.0554,0.9566,-0.0008,18.9914,0.0083,0.1146,,18.84,0.1648,3.4231,0.0,63.9313,2.5809,25.8242,0.251,0.5647,0.0626,1.1543,0.0247,0.0851,0.087,5.4325,0.0014,2.2861,-0.1051,6.7354,1076.0,,0.7232,418.3875,1.521,553.2265,1.6881,5.6179,0.0097,0.8798,-0.0227,0.086,1.5674,0.0667,0.333,0.2197,1.5656,612.3964,-1492.25,61.6047,2.9515,0.8648,0.0546,1.0199,136.2403,0.1976,14.23,0.0047,19.563,53.1001,0.9706,0.0782,-0.0566,0.0472,0.0514,135.6848,1.1984,0.0105,0.0054,2.6,6.3057,4.9,11.0385,0.035,241.0596,9.5582,9.6762,5.0759,0.0894,0.0379,3.8014,0.0194,3.9403,0.0317,0.0229,0.7124,4.347,0.1698,15.769,0.021,0.0014,,0.0432,2.7077,0.9548,0.0968,0.5322,230.8008,37.6806,0.2908,203.7685,137.8782,0.9854,339.823,3.053,112.3132,-0.0135,2.6161,1.6324,1.6667,0.006,145.6182,0.5944,,5.8442,66.3426,1.7762,5.6635,6.83,0.137,0.3609,70.0,2221.9778,5059.7821,703.6637,0.0,10.0742,0.0011,55.6678,0.0327,1649.1486,0.0232,0.1753,0.3596,2176.4004,0.9605,0.0189,0.5016,4.9327,10.1586,,3.4689,103.8174,93.7819,0.0174,0.0011,0.8197,21.0443,1.9026,0.0044,0.1874,2.2749,84.0,0.0,0.3596,0.1649,12.98,14.8739,112.4264,0.0148,3.0294,3.9301,1.4381,2.047,22.3721,2613.25,9.794,8.036,-0.0019,0.0035,5.3824,0.1109,84.7951,679.0259,406.974,20.2136,790.996,0.2864,727.0233,1.2865,118.9448,0.0698,0.9963,3.7645,0.1193,0.7152,49.7228,5.22,-0.0006,0.0789,9404.0599,1.9575,0.0021,1.4225,0.0276,12.5169,4.141,0.0097,0.0821,0.0472,0.2187,8.802,68.0663,3033.32,759.5912,0.024,15.79,0.3699,8.5246,0.1413,1.2596,5.4172,0.0,0.0012,0.072,8.7541,205.6704,22.7622,0.0269,-1.3267,0.0611,0.1332,-0.0608,2838.0,12.94,877.2059,23.92,0.0016,15.73,0.005,0.3198,193.6943,264.0,6.03,,3.2901,36.7988,2.1195,0.078,117.6645,0.0323,26.8519,5.5548,0.0088,5.6864,5.539,3.5955,0.0,33.5037,0.0277,69.2994,12.98,8.9818,0.9674,7.1971,3.4446,168.5245,21.1915,2.3898,64.5538,50.2772,5.084,0.1948,25.1997,49.0717,4.7699,0.0014,0.2591,3.865,1007.2276,1.4,-0.0003,13.92,0.002,7.7515,10.4488,0.0016,0.9803
