choohosung/2022-USG-Ai-Data-Problem-Solving-Competition/반도체/train_input.csv
A0,A1,A2,A3,A4,A5,A6,A7,A8,A9,A10,A11,A12,A13,A14,A15,A16,A17,A18,A19,A20,A21,A22,A23,A24,A25,A26,A27,A28,A29,A30,B0,B1,B2,B3,B4,B5,B6,B7,B8,B9,B10,B11,B12,B13,B14,B15,B16,B17,B18,B19,B20,B21,B22,B23,B24,B25,B26,B27,B28,B29,B30,C0,C1,C2,C3,C4,C5,C6,C7,C8,C9,C10,C11,C12,C13,C14,C15,C16,C17,C18,C19,C20,C21,C22,C23,C24,C25,C26,C27,C28,C29,C30,D0,D1,D2,D3,D4,D5,D6,D7,D8,D9,D10,D11,D12,D13,D14,D15,D16,D17,D18,D19,D20,D21,D22,D23,D24,D25,D26,D27,D28,D29,D30,E0,E1,E2,E3,E4,E5,E6,E7,E8,E9,E10,E11,E12,E13,E14,E15,E16,E17,E18,E19,E20,E21,E22,E23,E24,E25,E26,E27,E28,E29,E30,F0,F1,F2,F3,F4,F5,F6,F7,F8,F9,F10,F11,F12,F13,F14,F15,F16,F17,F18,F19,F20,F21,F22,F23,F24,F25,F26,F27,F28,F29,F30,G0,G1,G2,G3,G4,G5,G6,G7,G8,G9,G10,G11,G12,G13,G14,G15,G16,G17,G18,G19,G20,G21,G22,G23,G24,G25,G26,G27,G28,G29,G30,H0,H1,H2,H3,H4,H5,H6,H7,H8,H9,H10,H11,H12,H13,H14,H15,H16,H17,H18,H19,H20,H21,H22,H23,H24,H25,H26,H27,H28,H29,H30,I0,I1,I2,I3,I4,I5,I6,I7,I8,I9,I10,I11,I12,I13,I14,I15,I16,I17,I18,I19,I20,I21,I22,I23,I24,I25,I26,I27,I28,I29,I30,J0,J1,J2,J3,J4,J5,J6,J7,J8,J9,J10,J11,J12,J13,J14,J15,J16,J17,J18,J19,J20,J21,J22,J23,J24,J25,J26,J27,J28,J29,J30,K0,K1,K2,K3,K4,K5,K6,K7,K8,K9,K10,K11,K12,K13,K14,K15,K16,K17,K18,K19,K20,K21,K22,K23,K24,K25,K26,K27,K28,K29,K30,L0,L1,L2,L3,L4,L5,L6,L7,L8,L9,L10,L11,L12,L13,L14,L15,L16,L17,L18,L19,L20,L21,L22,L23,L24,L25,L26,L27,L28,L29,L30,M0,M1,M2,M3,M4,M5,M6,M7,M8,M9,M10,M11,M12,M13,M14,M15,M16,M17,M18,M19,M20,M21,M22,M23,M24,M25,M26,M27,M28,M29,M30,N0,N1,N2,N3,N4,N5,N6,N7,N8,N9,N10,N11,N12,N13,N14,N15,N16,N17,N18,N19,N20,N21,N22,N23,N24,N25,N26,N27,N28,N29,N30,O0,O1,O2,O3,O4,O5,O6,O7,O8,O9,O10,O11,O12,O13,O14,O15,O16,O17,O18,O19,O20,O21,O22,O23,O24
,11.1011,7.2222,1.4385,0.0031,2.0839,5.8711,0.0,136.5055,104.0,,117.8083,6.2705,0.0007,-0.0123,-0.033,283.86,0.014,3.4149,0.318,60.1012,12.6161,-0.0052,0.1161,0.17,5.538,1.8879,4.317,185.5455,0.6058,1.0,0.0002,467.6191,0.7424,153.8019,2.8555,0.1468,0.0392,7.2142,,962.0,0.0,0.0006,19.35,5.64,5.71,40.2286,0.1216,-0.0109,627.3182,0.0013,-3711.5,361.4926,,0.0098,30.6162,0.0449,0.593,,0.0511,0.1503,2.9199,0.0149,-0.1701,0.0866,21.15,,3.069,16651.0,0.0229,0.1651,4.183,5.3878,1.717,1.1524,7.0793,0.0001,0.0382,2.0225,,86.4061,1.1226,0.5761,0.0196,0.092,-0.0769,0.0879,0.1537,6.0582,5.7353,2.8198,581.463,18.4155,0.8771,2.644,6.0318,0.31,0.0192,41.4871,0.0044,50.011,0.8423,1.4441,0.8037,97.17,154.2642,3.5731,0.9348,0.7938,0.0041,0.0338,1.7552,14.6255,5.59,,0.0692,1.3839,0.0112,-3.6345,,0.9459,18.0609,31.2741,0.06,0.9886,1.931,0.0028,4.036,531.9873,0.0291,0.2954,0.0538,228.1037,26.315,-0.0129,10.25,1.5687,46.636,410.0,350.6418,0.0,4.2231,3.2982,24.7884,-5573.75,0.491,15.86,349.4055,1.7232,2525.74,7.1693,0.6957,110.5898,2.068,4.0237,72.4222,0.0005,0.0022,2.3499,201.6837,0.24,-0.0018,0.1818,0.7614,20.0975,1314.6277,4.2451,0.0,0.1284,,2.799,2.593,0.0214,0.9439,3.2201,0.0073,0.8779,0.1292,0.0179,0.145,1.4567,0.623,78.9,8.6318,0.0383,0.0906,0.9604,0.0018,,-0.0183,0.0537,,18.13,0.1776,6.6278,832.8767,64.1054,2.3904,23.6518,0.17,0.9966,0.0151,1.1157,0.023,0.0571,0.1143,5.8942,-0.0008,2.1014,0.0595,17.3473,820.0,,0.6722,418.624,,136.0641,2.652,5.9981,0.0032,1.593,0.0219,0.098,1.442,0.0418,0.206,0.2664,3.4837,612.6927,-7779.75,39.542,3.6359,0.7797,0.0843,0.9274,,0.1924,6.098,0.0021,22.1347,60.8999,0.9724,0.1439,0.1201,0.0236,0.093,76.7384,1.0988,0.0057,0.0048,4.8,6.2965,7.09,11.6591,0.021,384.9315,3.1238,11.7201,4.1429,0.0496,0.0156,3.753,0.0237,3.4925,0.0171,0.0254,0.6599,2.7993,,34.924,0.0139,0.0018,,0.048,5.4878,1.2715,0.0403,0.5089,235.5249,18.879,0.0699,198.4396,140.1709,0.9911,512.5,2.2986,113.116,0.0402,2.6638,1.5687,2.3222,0.0049,146.7509,0.603,,10.4498,66.0683,0.9664,5.7463,7.06,0.1284,0.4565,70.0,2206.9667,7759.0745,701.1712,720.5811,10.1003,0.0,16.2835,0.0098,1807.6803,0.0422,0.1961,0.3349,,0.9674,0.0152,0.5018,6.0216,9.9355,,4.4849,98.481,82.5295,0.0039,0.0002,,6.491,2.5759,0.0039,0.2424,2.2718,81.8182,0.0,0.3349,0.1881,17.23,42.1702,201.7516,0.0182,2.8901,2.1821,2.4927,1.9267,9.6915,2926.5,13.8183,14.0099,0.0001,0.0041,4.3617,0.0663,84.078,,,23.6345,702.1261,-0.0876,731.7874,1.2303,120.319,0.0997,0.9951,1.9995,0.0707,0.6675,49.8244,5.59,0.0001,0.0373,,2.2057,0.0,1.8074,0.0322,12.4363,4.6133,0.0032,0.0783,0.0236,0.2824,5.78,62.5544,2979.93,214.03,0.0075,15.9,0.4081,7.2373,0.1336,1.5512,5.8754,583.2402,0.0009,0.093,8.6425,178.0595,27.9508,0.0613,0.2055,0.0771,0.1686,0.0281,2826.0,79.09,573.6308,22.2209,0.0014,15.82,0.0047,0.1495,188.3393,62.1,6.77,,3.0365,36.8835,2.8122,0.0734,116.5364,,44.2302,9.9648,0.0122,7.2965,4.0255,4.8794,0.0,35.8874,0.0331,41.4871,17.23,8.9605,0.846,7.1589,2.55,25.9194,14.7118,2.7594,58.1411,50.1756,10.412,0.1344,26.4262,27.4277,15.7114,0.0015,,4.136,1002.5096,1.9,-0.0134,11.76,-0.0001,,10.4413,0.0014,0.983
5.3597,10.941,7.2222,0.3444,0.0035,6.6106,4.8013,0.0,145.4136,112.0,,130.5433,4.8923,0.0029,0.0136,-0.0488,264.272,0.0057,3.3629,0.244,56.7229,11.8035,-0.0078,0.1084,0.149,4.6609,1.6314,4.797,88.5975,0.6029,1.0,0.0011,424.1999,0.5671,436.7972,1.0712,0.0879,0.0572,7.2815,0.0099,952.0,0.0,0.0122,16.36,10.47,5.11,45.4012,0.1198,-0.0128,637.1691,0.0015,-3067.25,483.398,1.46,0.0118,23.7805,0.0292,0.361,73.832,0.0447,0.0955,1.8425,0.0142,0.0202,0.146,16.47,7.7298,3.069,799.0,0.0209,0.1345,3.5141,5.8185,3.2008,1.1139,8.033,0.0001,0.0743,1.9788,21.32,87.2937,1.0228,0.5,0.0359,0.1533,0.014,0.0371,0.1173,7.1316,5.278,1.3532,645.3679,10.2347,0.9319,2.414,4.6753,0.3,0.0394,,0.0058,91.463,1.1513,1.3717,0.794,95.7878,185.8628,3.5187,0.9519,0.8095,0.0043,0.0374,2.0594,13.62,7.91,0.8404,0.0917,1.4313,0.023,1.8109,0.3483,0.9455,29.124,67.3282,0.0425,0.9624,2.7887,0.0027,4.567,531.6964,0.0589,0.2859,0.0336,123.702,29.185,0.0059,8.21,2.0542,11.907,434.0,352.2755,442.1053,4.5373,4.8732,52.452,-5043.5,0.452,15.86,351.0018,1.0485,2538.52,5.1042,0.6957,70.9354,2.0737,7.5065,75.5778,0.0005,0.0017,2.4073,200.8704,0.3,0.0023,4.1051,0.7379,71.6868,1303.5386,5.2686,0.0,0.1202,,2.694,2.593,0.0272,0.9598,3.5272,0.003,0.8779,0.2279,0.0154,0.101,1.0004,0.491,217.7,8.4571,0.0475,0.1028,0.974,-0.0023,17.1718,0.0775,0.0898,0.4617,17.3,0.1742,3.7048,442.7397,64.8052,0.984,43.4876,0.404,1.4371,0.0105,1.727,0.0096,0.089,0.0382,5.8322,-0.0007,4.1139,0.0549,8.2679,1175.0,,0.5493,414.0166,1.3326,378.117,3.1616,5.8916,0.0039,1.593,0.0112,0.124,0.5854,0.0959,0.078,0.0877,3.4837,623.5491,290.25,37.0633,2.8294,0.6097,0.0805,0.7193,63.0636,0.1903,4.142,0.0019,22.0636,63.3999,0.9807,0.1737,0.0225,-0.0006,0.0724,92.9493,1.7094,0.0055,0.0027,2.8,6.3303,8.73,11.493,0.013,717.1492,8.5759,14.3961,1.8844,0.0496,0.025,4.1044,0.0273,2.7655,0.0171,0.0227,0.6599,2.9773,0.1999,34.924,0.0034,0.0395,,0.0475,8.5913,1.2969,0.0288,0.5246,236.0212,27.5268,0.2905,197.8315,139.48,0.9867,583.0508,2.9021,111.6231,0.0085,2.6638,2.0542,1.9,0.0011,151.2564,0.6078,0.0351,10.4498,66.2459,1.6021,5.3206,8.65,0.1202,0.6457,70.0,2231.0555,333.9555,711.0688,0.0,10.233,-0.0001,12.2248,,1764.1984,0.0405,0.1851,0.2712,715.2002,0.9801,0.0101,0.4996,3.6706,10.0363,7.5941,7.1452,98.9797,88.5249,0.0026,0.0009,1.9775,7.0618,2.8248,0.0026,0.2985,2.2718,73.6842,0.0,0.2712,0.1281,17.78,16.7857,174.3746,0.0141,2.7151,2.1821,2.3968,1.5441,9.7942,2611.25,11.2432,16.6204,0.0024,0.0037,2.0902,0.0326,84.7662,202.6954,397.784,18.1891,725.414,-0.0195,734.8494,1.3253,119.187,0.146,0.9951,1.2161,0.0951,0.5357,49.3747,7.91,0.0001,0.0545,9252.4802,2.7531,0.0,1.6918,0.0489,12.5165,5.9964,,0.1036,,0.4523,6.546,25.6692,3013.32,275.2799,0.0077,15.9,0.3792,11.8186,0.1411,0.9751,5.8095,489.2562,0.001,0.0787,9.275,221.6175,30.9697,0.0592,0.1183,0.0621,0.1204,0.0197,2860.0,81.56,697.9817,28.499,0.0008,15.82,0.002,0.2611,187.5985,199.2,9.07,0.0082,3.8782,36.8835,2.8514,0.088,121.2909,0.0343,49.5089,12.6627,0.0075,9.1139,8.904,5.1519,0.0,15.4662,0.0241,0.0,17.78,9.1141,1.0625,8.6076,2.921,31.0376,23.2973,2.8417,102.952,50.6253,10.449,0.1515,12.2134,29.6823,3.822,0.0017,0.5479,4.136,1002.5096,1.4,-0.0212,4.98,-0.0024,9.703,10.3374,0.0013,0.9832
4.9152,7.2158,6.401,0.4072,0.0074,3.7048,7.9629,0.0001,143.2536,95.0,,129.5741,6.6771,0.0016,-0.036,0.0105,255.722,0.0069,2.6119,0.2642,58.5441,14.6744,0.0037,0.1128,0.219,6.6586,1.7388,4.865,74.6033,0.6002,1.0,0.0006,386.0315,0.6848,0.0,5.5812,0.0921,0.1203,7.2565,,769.0,0.0,0.0003,24.1,14.83,7.54,40.0,0.1268,-0.0103,644.2109,0.0008,-3599.6667,773.0877,0.58,0.007,28.4314,0.0312,0.509,73.152,0.0502,1.3101,2.6263,0.0178,0.1503,0.2929,22.84,,3.259,2668.0,0.0221,0.2276,5.2634,5.3769,4.5945,1.066,8.5428,0.0,0.1268,1.993,19.67,86.6498,2.1747,0.4343,0.0659,0.2588,0.0885,0.1728,0.453,6.1187,7.2191,2.9789,644.683,15.0706,0.92,5.1054,6.2952,0.3,0.0284,26.5137,0.0041,44.448,0.6233,1.301,1.366,104.5867,0.0,2.7703,0.9518,0.9103,0.0028,0.0597,4.1705,13.7836,9.99,0.185,0.103,1.4067,0.0205,-0.6345,0.0722,0.9534,13.7343,41.7721,0.0465,0.9895,2.3908,0.0022,4.631,537.1318,0.0477,0.2785,0.4877,394.041,20.935,-0.006,8.44,3.2824,94.309,625.0,362.8145,0.0,4.5298,3.0848,20.6642,-5475.0,0.339,15.77,361.9364,1.9149,2416.09,5.6698,0.6595,139.8383,2.2109,10.7353,74.5778,0.0003,0.0026,2.36,285.9981,0.688,0.0019,0.1184,0.7039,37.1997,1268.5852,6.0512,-0.0946,0.1525,,3.051,2.671,0.0321,1.0438,3.3774,0.0024,0.6799,0.2744,0.0166,0.113,0.8404,0.678,122.3,8.7961,0.0157,0.1483,0.9766,-0.0019,,-0.0134,0.1078,,12.84,0.1825,8.0453,686.4686,64.0575,0.7061,48.414,0.125,1.0002,0.0182,2.7255,0.0069,0.0333,0.0414,3.8518,-0.0002,3.3931,0.013,9.2356,1840.0,,0.8456,429.8016,0.4852,367.8028,2.5151,6.2553,0.002,1.461,0.0152,0.215,0.7068,0.0529,0.405,0.0859,1.4278,630.4273,115.0,22.1513,3.6852,0.6269,0.1168,0.7447,38.1262,0.2407,3.612,0.0026,20.4838,57.7,0.9788,0.0865,-0.0366,0.0263,0.058,112.0614,2.707,0.0062,0.0037,6.0,6.0283,5.55,7.762,0.0241,770.9571,5.0619,18.1222,1.9396,0.0916,0.0328,2.9181,0.0231,2.8748,0.0321,0.0136,0.8019,1.8923,,14.5,0.004,0.0012,,0.0701,5.2692,1.3864,0.0838,0.5831,234.7654,48.7736,0.1618,196.9294,138.1427,0.9854,0.0,6.5036,725.537,-0.0481,2.5593,3.2824,2.7889,0.0012,150.9827,0.6069,,4.6088,66.0288,3.177,3.9116,7.19,0.1525,0.7336,70.0,2192.7889,1212.3006,717.4244,875.9124,9.5945,0.0004,43.4013,0.007,1851.8727,0.0614,0.1402,0.4214,,0.9803,0.013,0.5029,7.1663,10.1542,,7.0758,99.3183,47.6068,0.005,0.0006,0.7929,8.1799,1.835,0.0035,0.4007,2.2453,46.6135,0.0,0.4214,0.1748,17.86,67.4415,215.0964,0.0185,1.9931,4.0807,2.4036,1.5713,65.7172,2571.25,16.98,24.3072,0.0009,0.0039,2.0788,0.0703,84.1818,,400.188,20.6345,734.6906,-0.1628,745.8558,1.2897,119.3766,0.1482,0.9965,1.1231,0.036,0.84,49.8356,9.99,0.0,0.076,,2.0589,0.0,2.0139,0.0688,12.4814,4.1859,0.002,0.0646,0.0263,0.4265,13.867,24.6279,3012.34,0.0,0.0092,15.8,0.284,18.6708,0.1333,1.9935,3.9415,586.6061,0.0019,0.0525,6.3555,187.2974,25.5114,0.0303,0.0853,0.095,0.2014,-0.0345,2871.0,77.7,99.9306,17.775,0.001,15.74,0.0022,0.3167,187.3349,111.6,6.32,,2.3832,39.983,2.833,0.1902,117.5082,,50.8191,6.6488,0.013,5.3066,2.7595,4.3207,0.0,12.5454,-0.0016,26.5137,17.86,9.2189,0.9976,4.4711,5.8358,21.3631,33.6073,2.6314,106.7292,50.1644,6.986,0.0844,10.1544,37.0117,23.4056,0.0015,0.222,4.775,1015.5533,1.3,-0.011,4.96,-0.001,8.764,10.5788,0.0009,0.9824
3.3752,8.6922,8.5967,0.4418,0.0033,3.4201,5.0504,-0.0001,145.93,84.0,8.0408,110.7099,5.0491,0.0013,-0.006,-0.056,258.752,0.0186,2.711,0.2532,61.3557,9.3781,-0.0016,0.1096,0.12,6.7698,2.0971,4.871,162.3473,0.2288,1.0,-0.0008,606.6951,0.6643,53.8813,1.8731,0.4512,0.0253,7.3143,0.0097,1328.0,0.0,0.0004,23.86,11.9,8.02,93.8462,0.1224,-0.0065,637.26,,-3830.25,90.4986,0.59,0.0098,34.6316,0.1502,0.194,74.028,0.0459,0.8241,1.944,0.0092,0.0647,0.0673,15.84,19.2416,3.287,801.0,0.0208,0.1526,5.4958,6.3882,3.1794,1.0446,6.9913,0.0001,0.0964,2.0133,13.33,87.0578,,0.3308,0.0422,0.1227,0.0316,0.0605,0.0907,4.0033,6.6822,1.8803,392.708,5.7711,0.9331,,4.5124,0.49,0.0146,,0.0061,48.691,0.9733,1.4377,,98.2667,85.0788,2.7546,0.9446,0.8607,0.0048,0.043,2.7767,20.8473,8.14,0.3777,0.0416,1.4042,0.0101,15.1073,0.1501,0.9459,15.6665,45.3373,0.0298,0.9903,2.9288,0.0025,4.602,534.6009,0.0332,0.2766,0.2628,135.3003,30.447,-0.0126,5.65,2.1434,90.445,241.0,351.0318,756.6787,4.676,2.3642,22.0629,-5581.0,0.372,15.79,352.4473,0.6364,2493.32,3.2286,0.8374,61.7889,2.2614,8.4819,70.4,,0.0019,2.441,111.6796,0.369,0.0024,0.1,0.6922,35.714,1622.3514,6.6792,0.2365,0.1476,151.113,3.313,2.797,0.0126,0.9675,3.3616,0.0069,1.2482,0.2929,0.0198,0.065,2.3457,0.504,134.1,9.1332,0.0541,0.0775,0.9618,-0.0024,14.8901,-0.0237,0.1054,0.4741,19.93,0.0797,2.4148,320.8333,63.8874,2.1241,32.7003,0.275,0.7433,0.0131,,0.0204,0.0952,0.0799,4.5775,0.0006,2.3673,-0.0419,41.3195,197.0,465.2997,0.7315,412.8914,0.5703,735.8779,3.5792,2.3466,0.0031,0.9933,-0.0144,0.141,1.9393,0.0321,0.137,0.1879,1.9182,616.4127,373.0,47.5156,3.8942,0.6635,0.0177,0.7808,66.2186,0.2083,9.685,0.0026,23.2195,66.2998,0.9613,0.13,-0.0199,0.0419,0.1575,124.1028,,0.0068,0.0023,1.7,6.2883,6.93,8.8744,0.0149,122.9167,5.3784,11.6751,0.9469,0.1079,0.0344,4.3519,0.0131,2.0208,0.04,0.0112,0.6278,3.322,0.1913,19.256,0.0043,0.001,6.5097,0.0312,3.8533,1.2808,0.0268,0.5499,,29.5714,0.1361,199.641,140.2982,0.9879,853.3333,3.5755,148.0357,0.0466,3.2025,2.1434,2.5222,0.0015,148.56,0.601,0.1219,5.5788,66.2622,0.8037,5.311,4.62,0.1476,,70.0,2218.7889,331.8042,699.6193,304.4599,9.7516,-0.0002,9.3697,,1858.0592,0.0078,0.1384,0.364,1650.7002,0.9777,0.0077,0.4975,4.2477,9.982,25.712,8.0806,,133.0655,0.0036,0.0005,0.797,7.116,1.9355,0.0027,0.264,2.3954,39.6476,0.0,0.364,0.0696,23.08,146.3774,220.6915,0.0194,3.1275,4.5063,3.9024,1.0569,68.4284,2597.5,9.3331,9.2782,-0.0018,0.0049,0.954,0.0459,84.9798,475.0943,394.936,24.8927,739.9606,0.0431,734.2508,1.2858,118.0962,0.1691,0.9979,3.282,0.1126,0.7245,49.7587,8.14,0.0,0.0829,8578.8001,1.407,0.0,2.6678,0.0431,12.5563,6.7649,,0.0429,,0.5081,10.241,46.2118,2964.85,214.7453,0.0078,15.78,0.315,9.5772,0.1389,1.2043,4.4452,108.2991,0.0011,0.0384,9.3525,120.4922,22.8573,0.0441,0.0261,0.0599,0.213,-0.0131,2825.0,79.06,0.0,38.394,0.0009,15.75,0.0062,0.3364,189.8894,101.4,10.05,0.0201,5.229,37.2527,3.7442,0.1324,115.4055,0.0285,24.2061,9.0424,0.0094,7.0522,5.8811,3.8604,0.0,28.2854,-0.0539,23.3511,23.08,8.3754,1.0919,11.0069,2.6968,34.6714,3.5298,2.9881,66.1972,50.2413,12.479,,21.94,37.3969,32.2519,0.0019,0.2299,3.51,1003.8518,1.0,-0.0396,2.45,0.0017,6.4317,10.3203,0.0015,
,9.089,6.3792,2.7232,0.0029,5.4834,5.9448,0.0001,137.0736,131.0,2.6434,198.0461,8.1586,0.0017,-0.0291,-0.0713,,0.0198,2.9935,0.254,59.0927,10.4274,0.0751,0.1096,0.129,5.1641,1.8774,4.814,75.7608,0.8315,1.0,-0.0014,2095.3188,,66.9512,3.347,0.2653,0.0553,5.109,0.0085,4420.0,0.0,0.0002,17.94,9.87,9.1,33.8425,0.1204,-0.0106,618.6327,,-2435.5,146.0762,,0.0106,14.1135,0.0861,0.188,,0.0934,0.2501,2.0267,0.0174,0.0515,0.1233,19.88,7.8036,3.502,106.0,0.04,0.2825,6.6388,4.3177,3.058,1.2026,8.4215,0.0,0.0482,1.8925,,86.8261,,0.2242,0.0214,0.1433,0.1187,0.0768,0.228,4.935,5.5291,1.6238,284.437,4.052,0.936,,5.7015,0.93,0.0358,46.9253,0.0036,22.705,1.268,1.4086,,99.31,177.7355,3.2086,0.9523,0.946,0.0161,0.0176,1.538,4.4283,5.42,,0.149,1.3839,0.017,8.0955,,0.9534,7.4643,22.9517,0.0367,0.9909,2.7761,0.0022,4.584,531.9845,0.0506,0.3151,0.0882,358.7444,31.699,-0.0087,10.89,1.6847,109.543,632.0,348.6818,0.0,4.6798,3.6717,46.4202,-6383.75,0.247,15.75,347.3954,0.6519,2559.27,4.4386,0.698,106.6977,1.8554,7.4279,67.4667,,0.0033,2.4128,276.5362,0.26,-0.0006,0.0627,0.799,53.3178,1659.1424,5.2631,0.5204,0.1579,150.6882,2.501,3.32,0.0468,0.9772,4.6397,0.0111,1.0342,0.2063,0.0179,0.084,1.526,0.813,58.5,8.6057,0.0262,0.0704,0.9458,0.0007,14.2381,0.0223,0.0801,0.4628,19.0,0.2272,2.8162,0.0,64.1016,3.6139,45.5288,0.316,1.2161,0.0162,,0.0342,0.0998,,4.7959,-0.0021,3.6534,0.1535,25.5496,327.0,464.9291,0.7685,414.821,,314.0065,2.4663,8.12,0.0034,1.002,-0.0118,0.051,2.0544,0.08,0.171,,1.2129,615.6173,1501.0,40.3042,5.2369,0.6791,0.0299,0.7928,,0.2329,6.33,0.0026,23.7238,80.2002,0.966,0.0681,-0.0459,0.0226,0.1923,92.8213,,0.0054,0.0037,1.9,6.4746,2.76,9.9205,0.0133,254.4681,2.2858,12.4884,,0.0818,0.0304,4.5079,0.0799,3.9933,0.0278,0.0186,0.5738,3.3942,0.1938,12.156,0.0261,0.0006,3.6979,0.0592,6.2135,1.0373,0.0478,0.6064,,40.238,0.1733,199.7549,132.8773,0.9849,780.6061,2.5156,104.4515,0.0314,2.5145,1.6847,2.4444,0.0071,147.2491,0.604,0.0916,3.7634,66.437,1.2882,5.6908,5.97,0.1579,,70.0,2238.5444,50.8003,703.1905,726.8539,10.2399,0.0001,23.3263,0.0106,1763.6142,0.0134,0.0956,0.3812,679.0,0.958,0.0148,0.4972,6.3496,9.9649,19.7945,7.4512,,86.7429,0.0049,0.0005,,7.116,0.9053,0.0026,0.2317,2.3865,24.5455,198.4682,0.3812,0.0571,8.77,102.6667,48.9119,0.026,3.0713,3.4265,7.4462,2.0471,27.7575,3064.25,13.2003,20.6249,0.0005,0.0056,,0.0392,85.6608,212.2821,,11.9045,740.0678,-0.0938,717.304,0.9772,118.0156,0.1741,0.9979,1.9792,0.0604,0.7564,49.6001,5.42,0.0001,0.0745,8701.1101,1.8428,0.0,3.1734,0.0503,12.4896,6.9474,0.0034,0.2812,0.0226,0.4824,5.679,23.1902,2954.36,7.062,0.0078,15.78,0.2093,13.8111,0.1283,0.901,4.9663,0.0,0.0007,0.0631,9.5106,88.9672,33.4829,0.0215,0.1275,0.0535,0.1736,-0.0153,2823.0,64.39,207.9174,30.139,0.0008,15.74,0.0065,0.2376,189.515,162.0,10.23,0.0146,4.2017,39.4169,2.2075,0.0827,120.9727,0.0276,17.1436,4.8345,0.0107,2.7792,6.7525,5.908,0.0,,-0.0525,46.9253,13.59,9.5713,1.0383,9.1487,2.4091,181.4822,5.1224,3.5827,29.3854,50.3999,9.045,,10.237,28.9089,34.1705,0.0012,,3.263,1002.1998,0.6,0.0073,,-0.0005,,10.3356,0.0051,
3.6237,6.2537,13.0763,2.492,0.0063,2.1448,5.426,0.0001,143.5573,116.0,3.7819,141.0687,4.2495,0.0017,-0.0168,-0.0427,265.268,0.0089,2.2678,0.316,56.852,6.0355,0.0012,0.1096,0.09,4.7341,2.4786,4.764,202.1233,0.3034,1.0,-0.0052,3036.835,0.8128,355.2632,4.0669,0.0592,0.0628,7.1552,0.011,6445.0,0.0,0.0091,16.65,11.48,10.17,58.891,0.1229,-0.0131,632.0846,,-5756.75,317.8568,0.93,0.0115,26.5409,0.0195,0.257,73.202,0.0217,0.5762,2.7617,0.0167,-0.216,0.1662,18.21,27.9708,3.275,12158.0,0.01,0.1356,7.0843,5.9407,3.2942,1.2087,7.9345,0.0001,0.0423,1.9812,14.89,86.7383,,0.2848,0.0212,0.1815,0.184,0.1234,0.1732,10.5908,5.1683,2.9368,235.323,7.6078,0.9247,,5.1661,0.62,0.0195,,0.0077,56.432,1.1554,1.5262,,100.8022,25.0795,2.3344,0.9482,0.8123,0.005,0.053,1.3975,15.3046,4.05,0.6897,0.0372,1.4064,0.0168,1.14,0.28,0.9504,15.3306,25.8673,0.0421,0.9623,2.6348,0.0022,4.518,532.3982,0.0579,0.3166,0.2044,152.0,33.611,0.0065,8.5699,1.3531,69.653,337.0,352.49,241.4343,4.6104,3.3075,28.4808,-5532.25,0.249,15.85,351.7018,0.4549,2535.82,4.6435,0.8117,114.9975,2.3705,8.4389,67.2778,,0.0028,2.3745,151.8706,0.418,-0.0058,3.1187,0.8007,22.0357,1657.3518,6.6003,-0.2365,0.134,148.4991,3.521,2.746,0.0109,0.9859,3.3781,0.0058,1.4396,0.302,0.0236,0.092,3.7939,0.43,76.0,8.4295,0.0482,0.1097,0.9561,0.0057,18.7321,-0.0275,0.1222,0.461,18.31,0.0947,2.0809,354.9727,64.4484,1.7577,21.474,0.232,1.0769,0.0303,,0.0168,0.0782,0.0785,3.3332,-0.0007,4.1176,0.0521,5.5333,721.0,468.2809,0.6827,401.4048,1.0181,412.6829,1.1939,2.8895,0.0037,1.035,-0.0936,0.182,0.9138,0.0418,0.291,0.2062,1.7204,616.78,-6160.25,37.9455,1.9355,0.8544,0.0655,1.0135,67.738,0.2025,15.229,0.0026,18.3171,60.8,0.9736,0.1045,0.1419,0.0005,0.1013,109.6056,,0.0081,0.0058,1.4,6.3522,6.03,6.5108,0.0222,69.9786,2.9971,14.6612,1.5041,0.0806,0.0262,4.7725,0.0165,2.9698,0.0277,0.0226,0.5609,3.0108,0.1898,17.313,0.024,0.03,3.8147,0.0595,5.8177,1.443,0.0405,0.5235,,14.5663,0.1732,198.117,136.0373,0.9897,714.2857,3.9587,142.623,0.0103,5.0751,1.3531,1.9111,0.0086,147.9009,0.6025,0.0205,5.452,66.2423,1.9223,4.9366,12.41,0.134,,70.0,2178.6889,5559.1434,704.2601,0.0,10.5012,-0.0002,17.5662,,1660.6167,0.0371,0.0919,0.3374,2108.7998,0.9643,0.0203,0.4969,3.8724,10.1189,4.4458,8.516,,59.6475,0.007,0.0007,1.2705,7.116,1.9767,0.0037,0.3475,2.3672,41.8605,0.0,0.3374,0.0966,21.59,60.5692,198.1408,0.0096,2.8968,3.4056,4.9204,1.6097,34.706,2743.0,7.1599,12.2858,-0.0126,0.0024,1.6532,0.0697,84.2999,599.3375,410.904,18.86,608.9453,-0.1101,730.801,1.257,119.0822,0.1797,0.9999,4.3225,0.0943,0.6671,49.4205,4.05,0.0002,0.0609,7539.29,3.6102,0.0,3.3301,0.05,12.6006,5.524,,0.0509,,0.541,3.866,56.5078,2946.7,197.3621,0.0078,15.87,0.2091,12.5779,0.134,1.6603,3.2863,203.1357,0.0014,0.0771,10.2992,84.2621,31.1763,0.0359,0.3458,0.0393,0.1793,-0.0102,2873.0,78.04,561.3095,33.453,0.001,15.87,0.0029,0.3482,187.6157,63.2,8.17,0.0059,4.5776,38.8115,3.5004,0.1234,117.1773,0.0356,14.1987,6.8472,0.0077,5.982,5.0321,5.1982,0.0,25.3671,-0.0865,0.0,21.59,8.6439,1.0699,10.0347,5.1243,111.9555,13.0327,2.7907,101.487,50.5795,3.6,,33.1924,42.2978,23.4503,0.0024,0.3869,3.165,1006.3086,0.8,-0.0251,3.99,0.0126,6.2393,10.559,0.0016,
5.6939,8.295,8.5745,0.2394,0.0034,7.1789,6.987,-0.0001,145.2345,61.0,12.9022,185.6174,7.2278,0.0064,-0.0192,-0.035,261.144,0.0176,2.6096,0.3349,59.149,4.4757,0.0335,0.1096,0.17,9.0517,1.2787,4.795,89.7316,0.2277,1.0,0.0042,71.0657,0.6608,21.6316,4.4856,0.5054,0.0405,7.0448,0.0158,141.0,828.3186,0.0003,32.46,12.52,11.64,77.6903,0.1222,-0.0048,644.6827,,-3309.3333,181.9586,1.88,0.0204,19.9389,0.1607,0.671,81.724,0.0469,0.3041,1.546,0.0097,-0.0067,0.0954,23.32,10.131,3.425,2601.0,0.0221,0.2039,8.0146,10.1427,3.5379,1.0577,7.3203,0.0002,0.0595,1.9697,23.16,88.24,,0.7178,0.0244,0.1663,-0.0149,0.1608,0.4962,8.8348,9.9429,1.8695,326.111,20.6688,0.9188,,6.4966,0.52,0.0218,264.7525,0.0037,50.11,1.1442,1.4494,,99.2678,128.2297,2.6571,0.9538,0.9781,0.0053,0.0627,2.6499,12.9837,5.93,1.299,0.0846,1.41,0.0167,27.4136,0.5981,0.951,17.0481,59.0982,0.0493,0.9905,4.7546,0.0034,4.574,536.0336,0.052,0.2886,0.099,52.532,36.95,-0.0013,7.3701,1.6624,100.04,577.0,358.9591,331.4286,4.514,4.551,25.0134,-5376.25,1.095,15.77,358.6082,1.1185,2497.03,6.0921,0.8764,69.8397,2.2646,8.9117,63.7889,,0.0034,2.3399,259.3548,1.211,0.0021,0.1141,0.7054,72.8116,1551.6947,4.7641,0.0,0.1436,168.8704,5.31,2.891,0.0245,0.9707,3.2464,0.0077,0.8555,0.1675,0.0122,0.12,5.1089,0.723,164.2,13.6754,0.049,0.1074,0.9594,-0.0022,32.5247,-0.0898,0.0703,0.4647,23.86,0.0762,5.1733,959.0778,64.0107,2.3824,47.1145,0.239,1.2834,0.0174,,0.0229,0.0786,0.0737,4.3306,-0.0002,3.6902,0.0121,57.7332,410.0,464.7414,0.7195,414.649,1.4885,661.1111,1.2763,2.3027,0.0081,0.9271,0.0757,0.207,1.8153,0.0472,0.316,0.1812,0.8223,633.6118,-2283.75,44.4645,4.046,0.9046,0.0637,1.0551,87.2661,0.231,21.184,0.0026,18.4097,59.5,0.9673,0.087,0.1128,0.0077,0.153,87.8372,,0.004,0.0051,3.3,6.2851,4.21,8.4696,0.0143,84.1758,6.5758,16.1636,2.5235,0.1179,0.0196,5.0855,0.0329,2.592,0.042,0.0132,0.5815,3.2549,0.1598,8.34,0.0023,0.0011,11.8582,0.0351,7.6941,1.2928,0.0792,0.6261,,41.3963,0.6654,201.4312,140.4891,0.9663,0.0,11.9997,125.3219,-0.0497,3.0933,1.6624,2.5444,0.0009,147.1009,0.5861,0.0343,3.1434,66.6946,1.0486,7.559,11.3,0.1436,,70.0,2221.9444,1151.2273,726.5689,0.0,9.8867,0.0001,51.1223,0.0204,1843.7237,0.0294,0.4446,0.3587,872.3994,0.9786,0.0208,0.5005,5.4179,10.0031,7.3813,6.243,,84.5896,0.0052,0.0023,2.3004,7.116,1.4077,0.0021,0.366,2.4244,90.393,252.4431,0.3587,0.2046,24.1,143.2423,200.3328,0.0203,3.701,4.8629,4.1588,1.3749,19.8827,2587.25,13.3333,22.3017,-0.0053,0.0052,2.7987,0.0437,85.7375,228.7502,406.748,12.5864,757.6615,0.0916,746.5078,1.275,119.5608,0.131,0.9967,6.0327,0.1064,0.7153,49.8518,5.93,-0.0001,0.0438,8611.2201,2.9004,0.0,3.2284,0.0455,12.5037,10.0883,0.0081,0.1178,0.0077,0.3924,8.254,26.1474,2928.03,113.8916,0.0078,15.78,0.9159,12.8639,0.1358,1.5296,4.2047,469.4396,0.0009,0.0461,10.5465,94.5242,15.9558,0.0302,-0.2733,0.079,0.1986,-0.009,2878.0,13.77,553.446,38.413,0.0008,15.73,0.0059,0.1898,191.5444,210.2,14.84,0.0061,5.1457,36.0755,5.1467,0.39,127.9027,0.052,21.0164,6.0023,0.0092,4.2411,5.2947,2.8234,0.0,27.4253,-0.0366,264.7525,32.61,9.0998,0.8754,11.3803,2.7832,4.2607,7.6261,2.6778,104.2529,50.1482,3.786,,11.8432,27.2835,32.7984,0.0012,0.7354,3.18,1014.2878,2.3,-0.0251,6.59,0.0053,10.2848,10.0919,0.0018,
5.0784,11.7118,10.9599,0.272,0.0028,5.2954,7.3448,-0.0002,144.0909,154.0,,94.1822,7.0993,0.0014,-0.0302,0.0019,264.272,0.0155,4.0198,0.2319,59.5098,7.3519,-0.0106,0.1113,0.195,6.8097,2.9519,4.876,70.8829,0.2324,1.0,0.002,404.5931,0.5671,0.0,2.2773,0.1663,0.0558,7.2893,0.0072,950.0,0.0,0.0003,24.81,15.35,5.11,44.2748,0.1203,-0.0131,644.1918,0.0016,-3465.25,174.393,0.42,0.0088,27.4583,0.0463,0.491,74.516,0.0551,0.392,0.7731,0.0135,0.0266,0.1364,23.48,7.6843,3.271,18039.0,0.0259,0.2228,3.5464,3.8588,4.739,1.001,7.5482,0.0001,0.0722,1.9888,20.37,87.4062,2.5067,0.3909,0.0389,0.177,-0.0369,0.0793,0.1671,9.9353,7.8652,1.4354,187.198,14.0858,0.9185,5.8169,6.4384,0.25,0.0169,,0.0058,55.097,1.098,1.4857,1.8902,115.6522,784.3416,3.9938,0.9403,0.9514,0.003,0.036,2.5905,15.1727,5.91,0.1605,0.1317,1.435,0.0174,0.4345,0.0669,0.9552,17.2142,50.66,0.0602,0.9915,3.083,0.003,4.585,536.4482,0.0479,0.2736,0.134,87.9415,17.741,0.016,7.05,1.7932,104.289,567.0,364.6855,434.8884,4.5677,3.6157,24.976,-5311.75,0.259,15.79,364.3336,0.922,2445.56,6.4362,0.6888,88.1454,1.4106,11.3355,69.2,0.0004,0.0032,2.3829,231.7218,0.707,0.0024,0.1121,0.6595,53.7446,1080.4985,6.6438,-0.4258,0.1199,,2.932,2.654,0.0372,0.9588,3.4858,0.0064,1.2939,0.2941,0.0282,0.128,4.138,0.722,176.0,9.8989,0.0458,0.0358,0.9646,-0.0024,11.7939,-0.0411,0.109,,14.8,0.0814,4.1908,519.5876,64.1792,2.008,30.2063,0.11,1.0913,0.0134,2.4212,0.0194,0.0328,0.0382,6.171,-0.0003,3.3366,0.0223,16.5269,426.0,,0.6156,414.1151,0.8011,396.1591,1.0734,2.4235,0.0029,1.064,-0.0035,0.123,1.5992,0.0361,0.166,0.0877,0.8618,629.0191,2909.0,41.185,4.6829,0.5745,0.0992,0.6611,20.0395,0.2261,17.136,0.0025,18.8457,59.5,0.9704,0.2183,-0.0505,0.025,0.0734,120.0112,2.4405,0.0099,0.0036,2.9,6.3281,4.44,11.7247,0.0113,0.0,7.1967,8.2645,1.8844,0.0749,0.0269,2.4772,0.0218,2.5361,0.0226,0.019,0.6868,3.1087,0.1736,8.67,0.0027,0.0011,,0.0458,6.0759,1.3969,0.0327,0.6106,232.0585,33.7785,0.1437,199.3795,135.4155,0.9875,1000.0,6.6832,0.0,-0.0415,4.0343,1.7932,1.6556,0.0009,148.8355,0.5924,,3.0215,65.8829,1.4633,4.0254,11.51,0.1199,0.8524,70.0,2239.4111,8734.9827,716.1696,359.9374,9.5902,-0.0003,17.4239,,1806.371,0.0529,0.1113,0.3029,638.0996,0.9796,0.0126,0.4965,7.4824,10.17,,5.6426,100.7984,38.6838,0.0041,0.0004,0.5636,8.4836,1.2326,0.0011,0.1166,2.2674,84.5638,0.0,0.3029,0.1721,14.29,118.3148,220.5999,0.0233,2.2975,3.3054,1.9958,1.3142,32.4564,2521.5,14.977,22.4866,-0.0031,0.0059,2.0902,0.0342,86.899,234.0268,401.112,19.5655,707.5451,0.1586,743.6279,1.302,118.7162,0.1118,0.9985,4.8844,0.0867,0.5963,49.2052,5.91,0.0,0.0648,8303.9899,3.2276,0.0,1.5078,0.052,12.5263,6.0469,,0.0826,,0.3571,9.275,25.3536,3214.14,620.11,0.0094,15.84,0.2182,12.6688,0.1423,1.2079,5.8806,272.2142,0.0007,0.0575,5.0947,57.9312,31.241,0.0702,-0.1066,0.083,0.1327,0.0182,2879.0,78.7,287.3239,17.909,0.0004,15.82,0.0052,0.3365,189.7892,170.2,9.0,,2.4083,36.8097,2.2718,0.2081,115.85,0.0205,17.3252,14.6934,0.016,3.8391,2.4082,7.0573,0.0,15.4662,0.007,35.1564,14.29,9.3181,1.0062,4.6617,2.3278,27.415,8.02,2.6569,92.7136,50.7948,2.844,0.1678,10.0181,39.3534,29.07,0.0019,0.2083,4.029,1006.0044,1.4,0.0303,4.98,0.0031,8.7619,10.5788,0.0011,0.9828
5.1546,6.3678,8.0788,2.2775,0.003,2.8869,7.3032,0.0,144.3118,125.0,4.9693,120.567,6.0368,0.0133,0.019,-0.0748,246.102,0.0062,2.1516,0.2561,58.25,7.3282,-0.0406,0.1148,0.093,6.0194,3.1028,4.832,136.9183,0.3768,1.0,-0.0013,1012.3288,0.8941,276.7315,3.6238,0.0987,0.0623,7.2852,0.0062,2353.0,0.0,0.0003,21.64,12.76,5.42,43.9169,0.1229,-0.0084,639.3045,,-2912.5,241.6159,1.83,0.0099,22.8619,0.0336,0.633,80.372,0.0343,0.6116,2.5728,0.015,-0.0343,0.1459,22.66,13.7097,3.338,3473.0,0.0188,0.1553,3.7558,5.0947,3.9913,1.0323,7.7087,0.0,0.1364,2.004,20.64,87.1953,,0.327,0.0738,0.2762,0.0221,0.1152,0.3847,4.504,6.7129,2.6346,330.2089,18.7636,0.9224,,6.255,0.39,0.0158,,0.0037,57.94,1.1257,1.3979,,91.0211,439.7436,2.2077,0.9482,0.9318,0.0055,0.041,3.6984,14.5645,8.79,0.6043,0.0488,1.413,0.0143,3.1764,0.3024,0.9352,18.4532,42.6469,0.0874,0.9897,1.9033,0.0018,4.582,531.0009,0.0464,0.2776,0.1822,57.485,23.614,-0.0118,13.28,2.7685,17.28,85.0,362.2718,0.0,4.5327,4.0823,23.3287,-5520.25,0.245,15.73,359.5055,0.4848,2491.01,10.0798,0.8343,101.2157,1.8299,9.6142,75.3667,,0.0027,2.3659,45.218,0.59,-0.0002,0.0762,0.6839,31.3249,2080.6085,4.5022,0.0473,0.102,157.9586,4.397,2.865,0.014,0.9174,3.3736,0.0022,1.079,0.1816,0.029,0.202,5.6082,0.618,105.4,8.5056,0.0403,0.0821,0.978,0.0002,10.1458,0.0626,0.0741,0.4624,17.31,0.11,1.9903,0.0,64.5548,0.6872,52.2479,0.105,1.3021,0.0122,,0.0067,0.0381,0.0619,3.3724,0.0004,3.2832,-0.0279,9.078,586.0,466.7814,0.5188,409.9346,0.8171,355.4397,1.5339,3.8517,0.0032,1.295,-0.0323,0.118,0.6347,0.036,0.264,0.1558,2.0934,624.74,-2560.25,46.2747,3.5423,0.6833,0.024,0.8047,73.9549,0.2199,22.99,0.0024,20.4451,56.5,0.9775,0.0997,0.0364,0.0076,0.0827,83.4703,,0.0108,0.0028,1.5,6.5286,6.73,6.4235,0.0196,74.2459,4.2312,15.8974,1.7391,0.0934,0.0414,3.3025,0.0183,4.4922,0.032,0.0182,0.5104,3.5672,0.1633,21.084,0.0218,0.0008,6.2783,0.0583,7.0082,1.4128,0.0833,0.6015,,55.1264,1.3781,198.6026,132.7209,0.9638,0.0,5.5148,125.8517,0.0158,3.2496,2.7685,2.0778,0.0062,149.3373,0.6022,0.0179,6.8693,66.2506,1.7974,4.5401,5.22,0.102,,70.0,2218.7778,1476.6384,715.0356,495.4401,9.7835,0.0001,41.9387,,1853.9711,0.0111,0.1121,0.257,1133.4004,0.9589,0.0087,0.5019,8.0404,10.2373,3.8743,3.6108,,71.8869,0.003,0.0046,2.2769,6.7907,2.1664,0.0037,0.2909,2.4151,52.9412,120.2526,0.257,0.1749,17.56,17.0724,248.3634,0.0178,2.7076,3.8656,3.0943,2.5009,28.7771,2753.0,7.3634,3.0875,0.0004,0.0039,1.5232,0.0623,84.9121,324.0008,400.416,16.8236,689.1425,0.0384,737.8975,1.263,118.2426,0.0682,0.9986,6.4394,0.0775,0.5093,49.5392,8.79,-0.0001,0.0942,8267.14,1.7457,0.0,1.6141,0.0789,12.6037,4.0713,,0.0606,,0.2357,12.603,37.5345,2972.06,135.6508,0.0078,15.84,0.2072,19.5498,0.1438,2.1254,3.2343,0.0,0.0008,0.0584,6.8384,121.3099,31.0685,0.0306,-0.1535,0.0389,0.1566,0.0384,2885.0,10.24,407.8947,19.533,0.0011,15.82,0.002,0.2083,188.8192,85.8,6.08,0.0043,2.6471,40.224,2.8108,0.1568,115.8973,0.0166,15.8708,7.1321,0.0134,7.3939,2.3165,5.625,0.0,17.4256,0.0078,130.0095,17.56,8.1166,1.0868,4.9505,2.4419,80.7897,10.6155,2.5464,75.3726,50.4608,5.268,,19.8679,30.2643,6.3842,0.0012,0.7693,2.923,1007.144,1.1,-0.0008,4.28,-0.0004,10.2186,10.6985,0.0017,
3.6251,11.7887,8.0758,3.1159,0.0019,2.7469,5.8205,-0.0002,141.1509,212.0,,182.4502,5.2716,0.0013,,,264.272,0.0137,3.5954,0.2754,58.8254,10.0892,,0.1169,0.044,4.1583,1.8908,4.832,195.7474,0.4326,1.0,-0.0033,660.9985,0.5671,483.3602,1.7964,0.2105,0.092,7.2923,,1465.0,0.0,0.0004,14.5,13.38,3.93,46.6586,0.1248,-0.0103,631.47,0.0019,-3399.5,487.9477,1.33,0.0055,29.508,0.0562,0.563,73.254,,0.3124,2.9784,0.0157,0.2231,0.242,20.76,,3.135,2552.0,,0.1367,2.7843,6.5911,4.0537,1.0087,7.6263,0.0,,1.9777,14.53,86.3325,2.802,0.4416,,0.0912,-0.0055,0.061,0.3553,19.4637,5.0277,1.3674,1635.3,16.8771,0.9317,6.5293,5.9754,0.23,,46.1076,0.0048,34.801,0.5453,1.3687,1.9507,82.2467,,3.7038,0.9524,0.9522,0.0043,0.0393,3.472,11.3236,11.17,0.2235,,1.4022,0.0182,-2.3109,0.0949,0.9521,9.8151,28.3526,0.0506,0.9898,1.9995,0.0032,4.602,531.96,0.0477,0.2498,0.0942,,29.57,-0.007,12.7,3.1327,59.146,487.0,347.4245,0.0,4.611,1.9649,16.9711,-5735.25,0.32,15.67,348.6973,0.9675,2503.3,5.3596,0.5768,93.9177,1.8347,9.3636,71.9111,0.0007,0.005,2.3964,200.5808,1.066,0.0003,0.1056,0.6666,28.4766,3085.3781,4.2706,0.0,0.1304,,2.478,2.454,,1.0972,3.3359,0.0072,1.0918,0.1088,0.018,0.106,2.2356,0.525,110.0,9.9422,,0.0927,0.9616,-0.0003,,,0.0439,,14.24,0.129,4.1718,0.0,64.0426,2.3419,50.0652,0.33,0.5809,0.024,6.3915,0.0225,0.1104,0.0382,6.092,-0.0008,3.4054,0.0586,24.2332,1074.0,,0.6381,415.3753,0.8273,,2.5752,4.2263,0.0016,1.541,,0.121,1.4074,,0.131,0.0877,1.4237,620.1464,-568.0,21.5879,3.1428,0.7106,,0.8452,27.0176,0.217,9.286,0.0021,11.5578,32.3999,0.9718,0.1352,-0.0848,0.012,0.0635,76.9235,6.3828,0.0071,0.0051,3.0,6.3363,9.59,12.1361,0.0121,,4.3942,15.5905,1.8844,0.0856,,4.2046,,4.465,0.0323,0.0108,0.8012,1.6463,,14.205,0.0301,0.001,,0.0558,3.3403,1.3323,0.0929,0.6098,233.0269,42.6493,0.1351,203.747,142.8945,0.99,546.0317,10.3696,,-0.0501,3.3907,3.1327,2.3333,0.0097,150.8655,,,4.3682,66.0862,2.6702,4.9132,23.47,0.1304,1.7297,70.0,2179.7333,1422.4918,703.2758,461.402,10.2357,-0.0002,32.3812,0.0055,1801.2336,,0.1235,0.3182,,0.9644,0.017,0.5019,,9.959,,7.1129,99.8633,81.0076,0.006,0.0005,1.8156,5.9828,3.0239,0.0039,0.286,2.2886,64.2857,,0.3182,0.1782,20.66,62.9764,205.0604,0.0158,2.2551,3.7409,1.8345,2.3874,21.0501,2696.0,3.455,18.0638,-0.0013,0.0043,2.0902,0.0328,84.0773,,400.814,22.3109,773.0223,0.2034,732.7838,1.2735,120.4368,0.155,0.9975,2.2963,,0.6347,49.8647,11.17,-0.0001,,,6.7403,0.0,1.2419,0.0277,12.5373,4.3482,0.0016,,0.012,0.4507,12.585,60.3625,3025.21,449.2958,0.007,15.73,0.2657,6.8444,0.1309,1.4843,5.9564,,0.0005,0.0325,9.7347,579.7196,35.5935,0.0464,-0.2644,0.0191,0.2029,,2820.0,77.37,,28.587,0.0012,15.69,0.0046,0.126,193.5113,83.1,6.56,,3.9011,41.986,3.3315,0.2792,120.5836,,53.0016,9.8782,,11.6601,7.1569,9.5885,0.0,15.4662,,46.1076,20.66,9.065,0.8686,8.6338,1.5228,43.0946,18.7263,1.4864,59.6386,50.1353,8.173,0.1981,25.3224,25.1037,19.6172,0.0014,0.5058,4.947,997.7594,1.5,,4.98,0.0013,6.7381,10.28,0.0013,0.9834
4.5895,6.6908,9.3914,2.2293,0.0035,4.5706,6.7082,-0.0001,136.19,181.0,3.4392,147.2349,7.3929,0.0012,-0.0187,-0.0121,264.272,0.0089,2.3605,0.1657,59.3973,9.7073,-0.0072,0.1098,0.159,5.8506,0.7308,4.86,83.6535,0.4267,1.0,-0.0058,6296.5736,0.5671,871.2538,3.8518,0.0797,0.0566,7.2953,0.0435,13572.0,0.0,0.0003,21.35,15.64,6.22,65.9409,0.1198,-0.008,633.8318,0.0015,-7634.75,208.0615,0.69,0.0154,23.7265,0.0236,0.948,72.866,0.0717,0.0955,1.9092,0.025,-0.1619,0.136,21.08,10.9294,3.072,16760.0,0.0317,0.249,4.5671,4.4482,4.7324,1.0221,8.8811,0.0001,0.0769,1.9795,18.35,86.233,1.5435,0.5979,0.036,0.106,-0.0244,0.1322,0.1173,7.7845,6.6021,2.9185,645.3679,27.7789,0.923,3.6312,5.7589,1.24,0.0186,,0.0053,29.351,0.8048,1.3859,1.1061,95.7878,0.0,2.4502,0.9514,1.1911,0.0039,0.0539,3.4479,9.9773,10.36,0.3761,0.1069,1.4015,0.0244,1.1891,0.1661,0.9532,9.434,61.1242,0.0668,0.989,2.9194,0.0021,4.624,530.2591,0.0768,0.2884,0.0336,118.9354,20.8589,-0.0007,8.28,2.7885,65.381,434.0,366.0427,0.0,4.5459,2.5052,39.7506,-5414.25,0.221,15.74,364.9191,0.7632,2541.6,7.9313,0.7348,101.5785,0.9847,11.8846,69.8667,0.0005,0.002,2.3917,199.0048,0.425,0.0003,0.11,0.6776,38.8309,1303.5386,5.6247,-0.8042,0.1221,160.7167,3.084,2.594,0.0298,0.9598,3.4127,0.004,1.3882,0.1808,0.007,0.157,2.5106,0.75,177.1,8.3322,0.0362,0.0378,0.9677,-0.0003,78.5816,-0.0329,0.0765,,12.94,0.1229,3.292,0.0,64.0409,1.3728,55.0744,0.173,0.8142,0.0118,1.1827,0.0133,0.0374,0.0382,3.4788,0.0,5.4807,0.0009,8.5721,460.0,463.1378,0.6145,412.933,0.5855,0.0,2.98,4.3421,0.0045,1.366,0.0047,0.184,0.9148,0.0391,0.281,0.0877,1.7659,623.8545,658.75,31.3208,2.1007,0.428,0.1156,0.5066,64.2297,0.2736,10.367,0.002,22.0636,63.3999,0.9738,0.1294,0.0947,0.0295,0.1753,98.7373,1.1627,0.0027,0.0042,2.3,6.4442,8.73,6.8171,0.0248,0.0,6.9681,12.5176,1.8844,0.0404,0.0222,2.923,0.0446,2.5755,0.0137,0.0119,0.6621,2.7816,0.1939,17.708,0.0214,0.0011,4.4337,0.093,4.2178,0.9609,0.0288,0.7628,235.2579,52.1696,0.1241,202.1568,131.5991,0.9909,0.0,3.9799,443.8017,0.0341,4.0745,2.7885,2.1333,0.0069,146.1473,0.5972,,5.8125,66.2931,1.4774,3.391,8.78,0.1221,0.4163,70.0,2231.0555,7842.1337,713.6094,0.0,9.8271,0.0001,12.2248,,1755.4359,0.0499,0.0839,0.3032,983.2998,0.9618,0.0141,0.4963,9.2095,10.1448,,5.2879,98.3111,114.1,0.0034,0.0003,0.9469,6.4878,2.8248,0.0025,0.1233,2.2809,89.0625,0.0,0.3033,0.2861,14.69,64.365,73.8379,0.0104,2.0416,1.7726,9.8811,1.5615,9.7942,2548.75,12.4608,17.028,-0.0002,0.0031,2.0902,0.0698,84.4782,330.9801,399.83,18.8109,781.2122,0.0784,737.3359,1.276,119.1878,0.1128,0.999,3.596,0.0696,0.5987,49.3598,10.36,-0.0001,0.0537,8996.8199,2.4117,0.0,2.3607,0.0329,12.5492,6.2608,,0.1337,,0.3408,12.378,28.8629,2955.82,0.0,0.0071,15.79,0.1854,11.0314,0.1309,0.9751,3.3722,266.9662,0.001,0.0448,6.1164,221.6175,37.9676,0.0405,-0.1987,0.0713,0.1688,0.0005,2877.0,79.12,372.1925,16.806,0.0008,15.78,0.0026,0.2097,192.3297,135.1,9.15,,2.2793,43.3855,2.3547,0.1468,112.7882,0.1524,49.5089,9.3367,0.0152,9.1139,3.8057,8.1131,0.0,15.4662,0.0048,52.2049,14.69,9.2064,0.9295,4.4719,2.921,177.7661,8.4961,2.8417,109.0191,50.6402,11.076,0.1493,10.7082,34.9963,21.7763,0.0017,0.2923,3.882,1002.7791,1.9,-0.0501,4.98,0.0002,9.269,10.6786,0.0014,0.983
3.4486,7.8025,4.2383,0.6229,0.0029,3.7289,5.1885,0.0,133.7618,69.0,3.7517,163.6876,6.9062,0.008,-0.014,-0.0154,266.292,0.0696,2.8141,0.1969,59.2679,7.8339,0.0012,0.1096,0.109,4.8472,0.7598,4.837,97.0298,0.286,1.0,-0.0017,2488.4144,0.6112,54.8332,1.5856,0.2448,0.1114,5.0455,0.0179,5690.0,0.0,0.0002,17.17,9.39,13.77,45.6599,0.1204,-0.0105,630.1918,,-5029.75,282.651,0.81,0.0122,31.7754,0.0662,0.183,78.848,0.1214,0.2501,4.0806,0.0124,-0.2159,0.2394,16.77,13.2147,3.252,43.0,0.0528,0.2199,10.2944,6.4827,2.8049,1.3963,8.2294,-0.0001,0.0736,1.8798,13.98,86.4047,,0.3127,0.0335,0.1211,-0.0979,0.0375,0.1745,8.2476,5.8395,3.8574,284.437,3.9094,0.9293,,4.7284,0.53,0.0122,100.796,0.0048,11.701,1.299,1.5996,,99.31,432.4132,2.8667,0.95,1.1547,0.0034,0.0219,3.4559,10.5628,7.89,0.4573,0.0775,1.399,0.0242,14.3891,0.1923,0.9582,4.2651,41.3023,0.0312,0.9916,2.8465,0.0026,4.596,529.8082,0.0662,0.3476,0.0882,37.6352,38.131,-0.0012,9.27,2.6167,130.706,733.0,354.6636,0.0,4.482,3.8221,26.8758,-6362.25,0.191,15.77,354.2264,1.1773,2475.5,4.0431,0.8048,91.4075,1.5705,6.6236,65.4889,,0.002,2.3652,306.8952,0.308,0.0014,0.0575,0.9187,39.1724,1659.1424,5.2824,0.0473,0.1953,156.8907,2.888,2.749,0.0246,0.9634,4.681,0.0272,0.6222,0.2413,0.0073,0.076,2.0339,0.681,120.8,10.2532,0.0433,0.0765,0.9341,-0.0014,30.4909,-0.0693,0.1032,0.4667,24.83,0.1004,4.7336,0.0,63.9038,9.9477,30.8072,0.272,1.02,0.0169,,0.0929,0.0937,0.0306,4.1016,-0.0002,4.7339,0.0149,23.5319,683.0,463.8411,0.9965,403.5654,0.5302,0.0,1.1494,2.9121,0.0041,1.399,-0.1117,0.062,7.3407,0.0261,0.08,0.0754,1.4685,620.7318,1607.25,39.8424,5.5541,0.4828,0.075,0.5593,86.2444,0.2738,8.208,0.0026,23.7238,80.2002,0.9479,0.1183,0.1053,0.0121,0.1694,99.238,,0.0021,0.0078,3.1,6.2077,2.76,7.872,0.028,67.1592,4.8798,14.29,1.1454,0.0845,0.0131,5.398,0.031,3.1819,0.0276,0.0149,0.5045,3.2788,0.1596,14.706,0.0061,0.0006,7.0508,0.0484,6.4489,1.0699,0.0375,0.7379,,32.4215,0.8204,200.0505,141.7664,0.9714,0.0,2.9563,180.813,0.2204,1.6475,2.6167,3.2556,0.0018,150.35,0.6046,0.0528,5.5265,65.7964,2.5033,7.3963,9.58,0.1953,,70.0,2238.5444,22.3812,706.3866,0.0,9.8203,0.0,18.1087,0.0122,1878.6376,0.0349,0.0789,0.4946,1137.3999,0.9766,0.0285,0.5084,5.0345,9.8606,11.3228,7.9648,,46.3625,0.005,0.0025,1.0273,7.116,0.9053,0.0054,0.2244,2.3725,30.7167,0.0,0.4946,0.0655,17.29,142.9927,43.5373,0.0282,3.9401,3.5629,4.2464,1.7497,27.7575,3076.0,11.1738,23.8296,0.001,0.0061,1.154,0.0912,86.3239,428.9427,405.388,25.6109,544.0254,-0.0279,738.162,0.9755,117.5064,0.1644,0.9946,2.5514,0.0865,0.982,49.6355,7.89,0.0,0.0278,8607.08,2.867,0.0,4.3174,0.0429,12.481,7.0835,0.0041,0.1153,0.0121,0.4944,10.302,36.7654,2998.23,2.6754,0.0078,15.81,0.1625,11.3212,0.1323,0.901,3.935,0.0,0.0007,0.0477,11.3775,88.9672,18.3083,0.0422,0.0873,0.0456,0.2304,0.0065,2870.0,74.48,618.9624,34.373,0.0017,15.73,0.0204,0.2793,190.2301,111.8,10.65,0.0076,4.6566,38.8714,3.2059,0.0933,116.1555,0.0487,17.1436,7.3956,0.0105,2.7792,6.0687,3.2016,0.0,12.3437,-0.0281,100.796,19.9,9.5642,1.0401,10.42,2.4091,113.1269,10.7352,3.5827,26.9045,50.3645,3.632,,17.8355,30.524,36.4429,0.0016,0.3461,2.88,1001.4222,1.0,0.0101,3.05,-0.001,6.6321,10.4184,0.0011,
3.6251,9.3781,8.5065,0.2519,0.0037,3.1717,5.584,0.0,135.0955,79.0,,178.3954,7.1111,0.0116,-0.0735,-0.0161,272.05,0.0152,3.3375,0.249,58.3783,12.9242,0.0064,0.1158,0.093,4.9375,2.0072,4.798,103.0518,0.5115,1.0,-0.0025,166.0873,0.943,287.0869,2.7571,0.1124,0.0471,7.2903,0.009,384.0,0.0,0.0002,17.46,11.47,12.92,48.6772,0.1213,-0.0095,629.1227,0.0017,-3685.5,345.1227,1.33,0.008,27.8665,0.0391,0.643,73.254,0.022,0.1582,1.9484,0.0097,0.0112,0.1236,18.75,19.768,3.289,825.0,0.0106,0.202,9.5636,5.9089,3.3586,0.8763,7.214,0.0,0.0615,1.9525,14.53,86.8207,2.1993,0.2963,0.0283,0.1481,0.1204,0.0948,0.4864,6.3676,5.6722,3.5651,326.624,18.579,0.9303,5.1571,5.3171,0.22,0.0188,65.4842,0.0046,24.408,1.3066,1.4425,1.4433,97.0089,73.8255,3.4527,0.9465,1.1051,0.0057,0.0168,3.297,6.2838,7.66,0.2235,0.0603,1.3805,0.0096,-2.6682,0.0949,0.9459,8.2692,50.7345,0.0415,0.9898,2.1529,0.0019,4.542,530.5455,0.0304,0.2367,0.0623,447.6744,32.039,-0.0291,9.42,2.4318,66.644,414.0,352.6327,0.0,4.5727,1.3996,38.5169,-5284.5,0.245,15.77,353.6236,0.9043,2384.1,4.6607,0.8224,100.5545,1.9626,8.1121,77.0556,0.0005,0.0022,2.3718,183.3601,0.313,-0.0012,0.0694,0.5802,30.2047,1107.1227,8.4216,0.0,0.1651,,3.097,2.962,0.0164,0.9415,3.4609,0.0064,1.2899,0.1211,0.019,0.091,2.3398,0.706,124.6,8.4346,0.0151,0.1255,0.9644,0.0012,16.5428,-0.0086,0.0497,,17.46,0.1459,4.0231,778.6096,64.6358,2.0508,33.7919,0.246,0.4015,0.0152,1.6473,0.0198,0.0803,0.0765,5.0078,0.0003,2.2014,-0.0242,12.5893,741.0,,0.7858,427.2639,0.8273,118.0422,3.4853,5.2586,0.0028,1.177,0.0269,0.052,1.5652,0.0385,0.201,0.1876,1.6311,625.0255,87.25,53.7202,4.1018,0.6413,0.0961,0.7663,27.0176,0.2637,9.997,0.003,22.2313,58.4001,0.9706,0.1139,0.0021,0.0122,0.059,153.2875,1.6294,0.0063,0.0024,3.1,6.4014,7.08,9.8036,0.0266,357.2491,5.2263,20.7331,3.0619,0.136,0.028,4.533,0.0179,3.491,0.0475,0.0244,0.4781,3.8754,0.1769,16.396,0.0025,0.0007,,0.0318,2.3975,1.0025,0.1043,0.7143,234.4906,39.2444,1.1973,196.9962,141.3945,0.9674,0.0,3.0371,364.7059,0.0172,3.4468,2.4318,2.2556,0.0007,152.6755,0.5965,,5.2468,66.2133,1.5185,5.4741,7.56,0.1651,0.4689,70.0,2211.0667,391.4566,706.7928,285.2234,9.7263,0.0003,51.6664,0.008,1820.1745,0.0506,0.0906,0.3889,1679.4004,0.9802,0.0091,0.5035,3.758,9.9281,,7.6714,98.9134,87.58,0.0049,0.0039,1.8156,8.8834,2.2105,0.0025,0.4069,2.3353,39.9015,937.6093,0.3889,0.2201,11.21,66.2765,63.3696,0.0207,2.7753,5.8235,1.751,1.7755,10.0184,2569.75,7.0109,16.1105,-0.0013,0.0045,3.3252,0.0846,83.6845,495.9224,400.814,22.6682,791.233,-0.0483,734.6593,1.3265,118.1104,0.1577,0.9997,2.4319,0.0327,0.7699,49.4881,7.66,0.0,0.0589,8495.53,2.09,0.0,3.4523,0.0513,12.5643,4.3753,0.0028,0.0584,0.0122,0.4911,10.936,32.5307,3014.16,945.5587,0.0103,15.75,0.2074,14.7688,0.1283,1.5788,4.9765,426.6667,0.0011,0.083,9.7725,99.1953,22.7784,0.0385,-0.0713,0.0385,0.1436,-0.0521,2867.0,81.65,44.4898,27.742,0.0008,15.75,0.0049,0.1395,187.2699,95.6,6.68,,3.7762,40.5197,2.9055,0.098,118.7264,0.0293,29.5021,7.8959,0.0085,7.2983,5.3798,3.5617,0.0,19.8958,-0.0298,65.4842,18.16,8.1409,0.8928,8.6904,3.0511,10.4192,14.0221,2.6413,36.2229,50.5119,11.319,0.1744,13.0242,46.831,20.2487,0.0018,0.5058,2.858,1005.2293,0.9,-0.0137,8.33,0.0012,6.7381,10.3058,0.0017,0.9828
4.7722,8.0768,10.1533,2.1891,0.0063,7.8557,5.6844,-0.0003,136.67,125.0,,124.9861,7.2987,0.0131,0.0054,-0.0249,260.53,0.0139,2.5108,0.3026,58.9202,3.0397,0.0659,0.1096,0.137,3.4895,3.333,4.809,160.6057,0.5702,1.0,0.0093,2069.6275,0.7197,29.3883,1.4266,0.4104,0.0498,5.187,0.0133,4729.0,539.4595,0.0003,12.5,10.96,4.45,56.0886,0.1276,-0.0068,623.9982,,-2798.0,207.2768,1.82,0.0169,23.0148,0.1048,0.199,81.518,0.0562,0.4018,2.0688,0.0144,-0.0419,0.1276,19.92,18.089,3.193,24.0,0.0284,0.2131,3.256,4.3914,3.0939,1.3703,7.8111,0.0003,0.0842,1.8873,19.16,87.489,,0.2646,0.0434,0.1343,-0.0927,0.032,0.3463,8.4777,4.2455,2.6906,169.5431,4.2465,0.9332,,5.5304,3.86,0.0323,,0.0038,22.902,0.8995,1.4523,,99.22,159.0941,2.6554,0.9525,0.9103,0.0038,0.0193,3.0014,10.0091,6.77,1.2686,0.0906,1.4177,0.0279,23.0364,0.4953,0.9416,6.4675,71.0416,0.0448,0.9907,2.6587,0.0053,4.581,531.8255,0.0903,0.364,0.1579,398.8338,24.196,-0.0032,7.95,2.1155,73.966,775.0,360.1927,0.0,4.7217,2.3795,33.3101,-6413.5,0.252,15.7,358.2218,1.0553,2576.84,5.7756,0.7636,65.2635,2.0893,8.6207,67.3111,,0.0044,2.4319,335.9379,0.838,-0.0017,0.0815,0.9077,85.9179,1811.8799,7.3532,0.3311,0.1569,,4.819,2.763,0.0284,0.9795,4.6862,0.0077,1.4085,0.2046,0.0314,0.109,3.2793,0.719,222.2,7.2095,0.0544,0.1203,0.9602,0.0017,25.619,0.0171,0.0847,0.4707,14.15,0.1633,4.9026,0.0,64.2949,2.442,39.9089,0.255,0.7726,0.0246,,0.0234,0.0776,0.0502,4.2806,0.0003,6.3725,-0.0242,46.6331,484.0,,0.8142,427.7382,1.1064,217.7117,1.3907,5.8709,0.006,1.272,-0.0823,0.055,1.4308,0.0684,0.074,0.1264,1.273,613.9891,1538.75,29.7531,2.8074,0.7461,0.0824,0.8735,114.6547,0.2177,14.027,0.0026,13.1989,44.8,0.9705,0.0431,0.0522,0.0058,0.5528,138.3851,,0.0122,0.0045,3.3,6.1809,5.71,8.6258,0.0205,100.1519,8.623,20.9802,0.8982,0.0874,0.0144,3.4642,0.0369,2.9281,0.0302,0.0146,0.6641,2.324,0.1608,12.75,0.0212,0.0008,,0.0499,4.0385,0.9439,0.0644,0.5853,,47.578,1.3638,198.3949,127.1355,0.9636,0.0,8.1072,131.996,-0.0865,4.0441,2.1155,2.5667,0.007,145.5955,0.5972,0.0568,4.1066,66.2426,1.1639,4.3682,9.34,0.1569,,70.0,2171.9,10.9354,698.4534,0.0,9.712,-0.0001,35.3519,,1881.9657,0.0401,0.1096,0.404,1576.8003,0.9691,0.0175,0.5025,5.8451,9.8511,12.0668,6.4742,,117.9053,0.0062,0.0049,2.2326,7.116,1.8979,0.0028,0.4383,2.3524,35.0649,137.5202,0.404,0.0597,12.51,113.3343,68.7539,0.0141,2.2676,3.7152,30.7085,1.4949,29.0909,3062.75,13.9192,25.3041,0.0021,0.0034,1.1631,0.0654,85.4138,600.7324,401.496,16.9636,756.0871,0.2344,721.4682,0.9842,118.8972,0.1323,0.9971,4.4285,0.1179,0.8019,49.6197,6.77,-0.0002,0.0329,8716.89,2.7933,0.0,1.4323,0.0378,12.5698,5.1101,,0.1308,,0.4002,10.95,60.1804,2959.65,1.5597,0.0078,15.74,0.2119,14.2273,0.1353,1.3811,4.3478,275.9858,0.0016,0.042,7.108,64.1327,31.1663,0.0146,-0.4276,0.0563,0.203,0.0387,2894.0,14.71,0.0,19.936,0.0008,15.7,0.0044,0.2339,188.6829,232.5,7.44,0.0113,2.7633,39.8303,2.0375,0.2764,110.1718,0.0412,9.3573,2.9676,0.0116,5.7549,5.4007,5.8044,0.0,17.565,-0.0353,289.9234,12.51,10.9634,0.8801,5.5001,4.9359,169.0136,7.5466,2.0627,27.0936,50.3803,3.584,,21.2417,49.5449,24.5195,0.0013,0.7867,3.653,1001.6031,0.9,-0.0474,2.34,-0.0021,9.1432,10.3365,0.0012,
,6.0773,8.2385,2.1537,0.0037,2.584,5.57,0.0,142.0336,90.0,,136.4005,6.0282,0.0014,-0.0223,-0.0567,253.652,0.0091,2.0699,0.2118,58.7113,10.4507,0.0028,0.1096,0.104,5.4777,1.4097,4.842,114.1169,0.3082,1.0,-0.001,1051.5882,0.7931,194.6002,1.6063,0.4457,0.0379,5.2295,0.0189,2172.0,0.0,0.0002,19.22,5.83,9.59,44.1454,0.1222,-0.0093,627.0955,,-4332.5,203.7685,,0.0084,23.6548,0.1295,0.267,,0.0723,0.2134,2.2255,0.0181,0.0,0.0807,19.56,10.3912,3.218,158.0,0.0327,0.2162,6.7519,3.7571,2.1197,1.4068,7.6992,0.0,0.107,1.9043,,87.1954,,0.2522,0.0496,0.1066,0.0,0.0389,0.3629,6.4605,5.8754,3.1469,198.292,5.6869,0.9342,,5.5318,0.26,0.0292,,0.0041,52.02,1.2568,1.5251,,106.2089,392.4016,2.1114,0.9547,0.9174,0.0071,0.019,3.6619,10.8064,6.88,,0.0685,1.4187,0.0143,3.5355,,0.9473,17.7151,64.2672,0.0347,0.9914,5.2439,0.0,4.623,534.5745,0.0457,0.358,0.0637,510.7011,28.327,0.0468,9.7,2.189,86.977,582.0,353.59,0.0,4.685,2.8961,24.4747,-6338.25,0.166,15.62,350.8782,0.9373,2361.5,4.3587,0.7435,66.815,1.9791,4.4344,66.2889,,0.0,2.3746,242.5509,0.355,0.0,0.0464,0.9365,27.2323,1572.4698,3.5013,0.0,0.147,,3.462,3.277,0.0182,0.9672,4.695,0.0023,0.9656,0.2261,0.0134,0.083,2.5676,0.607,178.5,8.9141,0.035,0.0901,0.9753,-0.0022,34.8828,0.0135,0.1003,0.4593,13.64,0.0966,4.8274,650.0,63.9959,0.7546,41.7868,0.451,0.7534,0.033,,0.0074,0.085,0.0479,3.2241,-0.0002,3.2192,0.0,41.2894,468.0,,0.7576,414.6213,,460.2151,1.7948,3.3553,0.003,0.946,-0.067,0.058,0.9385,0.0692,0.084,0.1232,2.0038,616.2891,1469.75,54.146,3.7541,0.4955,0.0731,0.577,,0.222,10.646,0.0026,19.1952,60.9001,0.9704,0.1125,0.0,0.0335,0.072,63.011,,0.0042,0.0041,3.2,6.1689,5.86,6.2945,0.0227,109.1045,7.5588,12.5432,5.0936,0.0684,0.0149,4.0421,0.0214,3.2591,0.0245,0.0162,0.6519,4.1688,0.203,19.783,0.0209,0.0005,,0.0693,4.9329,1.3262,0.068,0.5871,,47.4702,0.1438,197.6786,131.4718,0.9894,0.0,3.3994,60.5472,0.0,3.0317,2.189,2.5111,0.0066,150.4036,0.5965,0.0171,6.6867,66.5687,0.8274,3.756,7.43,0.147,,70.0,2210.9778,65.3012,700.7926,101.55,9.1843,0.0,37.5266,,1799.6569,0.0327,0.0648,0.3767,895.2002,0.9713,0.0143,0.4965,3.4067,10.0694,3.725,9.7856,,50.8386,0.0078,0.0005,,7.116,2.0324,0.003,0.2482,2.4044,23.8938,0.0,0.3767,0.0986,14.74,130.1759,212.5464,0.0186,2.1751,2.8436,2.0841,1.8145,20.9155,3107.25,10.596,18.7304,0.0,0.0042,5.0608,0.0747,85.8807,265.1949,,16.4645,725.9413,0.0,724.4474,0.9815,118.0116,0.1972,0.9962,3.2748,0.066,0.7492,49.7225,6.88,0.0,0.0343,8615.0101,1.8261,0.0,2.9647,0.037,12.4755,10.146,,0.0791,,0.6037,11.229,32.1653,3037.92,10.7501,0.0078,15.67,0.1407,8.0405,0.1348,1.0204,3.1842,751.0979,0.0011,0.0475,9.0239,63.5737,27.5274,0.0421,0.0,0.0425,0.166,0.0232,2845.0,65.11,295.9641,22.397,0.0009,15.61,0.003,0.2593,188.4943,78.5,15.26,0.0051,3.0916,36.799,2.3917,0.1023,115.0073,0.0708,12.6102,7.3766,0.007,5.5174,9.6265,4.0918,0.0,15.5328,-0.0184,25.1494,14.74,9.754,1.0794,6.7457,3.0278,50.1327,7.3837,2.7544,34.9398,50.2775,5.313,,15.7199,20.1124,29.1317,0.0013,,3.946,987.2854,0.6,0.0105,12.92,0.0009,,10.4429,0.0023,
3.6716,4.8629,11.9059,0.5732,0.0073,5.9189,4.3153,0.0,133.6209,95.0,2.4753,97.6249,5.3136,0.0032,-0.0142,-0.1205,264.056,0.0076,1.7174,0.1537,59.5812,10.2455,0.0713,0.1096,0.899,5.6049,2.1583,4.828,193.376,0.4134,1.0,0.0044,2243.34,0.6854,93.1087,201.2587,0.1626,0.0449,1.4697,0.0079,3903.0,839.9429,0.0002,20.19,9.75,5.46,218.1818,0.1218,-0.0033,647.02,,-1942.75,3007.6466,0.44,0.0183,36.5543,0.0504,0.074,72.078,0.0466,0.5206,1.6302,0.0111,0.0,0.1036,13.6,20.8632,3.338,1136.0,0.0209,0.1539,4.0862,5.8356,3.0746,1.0182,8.0836,0.0,0.0462,0.891,14.63,88.3548,,0.3866,0.0207,0.0945,0.0,1.6972,0.126,4.5435,5.5992,3.8838,218.533,2.138,0.934,,3.8246,0.34,0.0313,100.1756,0.0072,61.642,1.0231,1.5644,,106.2567,113.5201,1.8057,0.9541,0.761,0.0037,0.031,4.8475,20.21,12.86,0.3455,0.0999,1.419,0.0067,13.8118,0.1519,0.94,20.1929,53.8764,1.0289,0.9904,1.8133,0.0,4.607,535.7673,0.0206,0.261,0.199,0.0,26.032,0.0201,10.66,3.8408,40.491,3184.0,355.5936,0.0,4.6613,4.1038,28.6321,-2597.0,1.081,15.73,360.2191,0.8614,2541.92,201.7957,0.8434,87.0592,2.0382,6.1785,63.9778,,0.0,2.4107,1713.1426,0.839,0.0,0.0435,0.6791,58.7319,1192.8757,6.6954,0.0473,0.0993,162.0324,5.103,2.83,0.0283,0.9395,3.4612,0.004,1.4345,0.2985,0.0203,1.798,1.9648,0.527,158.2,6.9811,0.033,0.0841,0.9644,0.0,18.2416,-0.0051,0.1125,0.47,10.23,0.1337,4.0639,0.0,64.1668,1.2128,49.1062,0.08,1.1833,0.0169,,0.0117,0.0224,0.0914,2.6669,0.0013,1.4517,0.0,17.365,5477.0,464.7776,0.4954,410.013,0.7371,220.0,2.5791,4.523,0.0064,0.9034,0.0081,0.101,0.7779,0.0597,2.958,0.2187,0.7076,626.81,550.75,34.3378,3.6759,0.4277,0.0528,0.4996,46.8664,0.1867,8.056,0.0026,16.1845,45.2002,0.9729,0.2118,0.0,0.0183,0.096,120.2559,,0.0065,0.0044,2.6,6.1676,6.29,4.9317,0.0282,651.8519,6.2236,15.0879,2.8782,0.1206,0.0108,3.5888,0.0501,3.6728,0.0413,0.0203,0.5746,2.7757,0.1533,7.12,0.0056,0.0004,4.4861,0.0368,6.8878,1.0278,0.0318,0.4883,,46.9959,0.3318,191.4789,157.8055,0.9737,284.6154,8.6976,20.8256,0.0,4.6053,3.8408,2.7778,0.0017,134.9736,0.6028,0.1661,2.2381,66.6948,1.1828,3.1779,5.98,0.0993,,70.0,2220.5445,636.5749,725.3742,340.3301,9.1397,0.0,13.4128,0.0183,1796.1029,0.0238,0.4542,0.2468,1820.0996,0.9796,0.0186,0.507,5.8406,9.9179,35.3366,6.2648,,88.7808,0.0055,0.0012,0.6105,7.116,2.0754,0.0022,0.3075,2.3903,46.8,140.1122,0.2468,0.0245,19.73,46.5097,215.2902,0.0186,1.5811,5.0462,2.7149,1.9897,37.5303,1474.25,205.0171,215.9742,0.0,0.0042,3.0914,0.0936,85.6039,598.0754,398.464,26.1882,754.8984,0.0,761.9285,0.4385,118.6704,0.1317,1.002,2.5579,0.0702,0.4918,49.821,12.86,0.0,0.0251,8723.97,1.9993,0.0,1.4898,0.0327,12.5235,4.9417,0.0064,0.1613,0.0183,0.3864,17.179,64.7663,3000.56,206.2642,0.0078,15.71,0.9109,9.1948,0.135,1.3872,2.5756,232.2952,0.002,0.0683,7.4954,69.4676,24.7946,0.0677,0.0,0.5067,0.2127,-0.021,2875.0,14.14,492.6316,20.991,0.0007,15.74,0.0027,0.3378,182.3391,177.6,6.67,0.0257,2.755,38.6809,3.1477,0.2402,131.6173,0.028,18.3198,13.5387,0.0105,5.9196,1.7163,4.3222,0.0,31.9154,-0.041,100.1756,19.73,8.7588,0.9362,5.8927,5.9924,200.9008,210.8972,2.0355,47.4922,50.179,9.096,,25.6162,37.5729,16.2891,0.0021,0.1665,3.133,1006.1589,1.3,-0.0694,7.6,-0.0003,7.0388,9.6464,0.0014,
3.746,3.4774,8.8617,0.3065,0.0035,4.3518,5.3256,0.0001,141.9782,85.0,,168.43,3.1676,0.0125,-0.0057,-0.0559,259.566,0.0053,1.1668,0.223,58.2501,6.0915,-0.0089,0.1097,0.159,5.7357,1.2929,4.848,103.7729,0.421,1.0,-0.0078,1828.8095,0.5494,0.0,3.0033,0.1639,0.0652,7.3253,0.0169,3951.0,658.8986,0.0002,20.14,13.51,5.52,32.2981,0.1222,-0.0121,629.5355,,-844.75,444.8633,0.75,0.02,27.0626,0.0455,0.319,77.358,0.0633,0.5508,2.7988,0.0145,-0.0411,0.1511,16.68,14.4415,3.233,1008.0,0.0294,0.1088,3.8879,6.2357,4.4077,0.9357,8.0468,0.0001,0.0731,1.974,15.0,86.9473,,0.9029,0.0376,0.1588,-0.031,0.0956,0.4825,18.7893,6.2048,1.4115,173.814,9.036,0.9316,,4.7474,0.2,0.0299,110.4384,0.0039,53.437,1.1675,1.4021,,95.7967,209.7763,1.2511,0.9478,0.7758,0.005,0.06,2.7623,11.9219,11.64,0.313,0.0434,1.4258,0.0242,0.0327,0.1303,0.9652,17.9087,22.5159,0.0373,0.991,1.3536,0.0019,4.595,529.8718,0.0652,0.2438,0.1642,0.0,27.433,-0.0085,6.33,2.9873,53.789,1025.0,351.3536,973.0994,4.7136,2.2358,24.5358,-5760.0,1.015,15.73,351.1336,1.2713,2443.66,4.2553,0.7932,123.9422,1.9408,9.919,69.7889,,0.0028,2.4557,423.1921,0.481,-0.0007,0.0576,0.6193,48.6691,2065.0624,6.2942,-2.505,0.1058,,3.182,2.816,0.0126,0.9951,3.5303,0.0018,1.2858,0.1109,0.0125,0.084,4.3412,0.32,80.3,10.5774,0.031,0.1083,0.9792,0.0006,32.3687,-0.0042,0.0508,0.456,19.02,0.13,5.1584,0.0,64.6928,0.6053,58.2953,0.335,0.6541,0.0104,,0.0059,0.1112,0.1229,1.8175,0.0002,4.5708,-0.014,19.377,1083.0,,0.4488,398.0673,0.5452,559.0822,0.987,4.3539,0.0053,1.319,-0.045,0.185,0.5398,0.067,0.22,0.3099,1.3373,617.6136,2867.0,37.8418,8.122,0.5832,0.0286,0.6927,57.4037,0.1861,17.281,0.0023,18.0882,52.5,0.9799,0.0608,0.0283,0.0182,0.055,113.5847,,0.0044,0.003,3.6,6.2962,5.11,3.6206,0.0116,63.5556,3.2861,18.3953,5.1239,0.1064,0.0198,3.909,0.0141,2.1429,0.0379,0.0095,0.4591,3.0451,0.1862,13.49,0.003,0.0006,,0.0516,3.8383,1.3065,0.0746,0.5019,,40.4247,1.2663,200.9995,136.2036,0.9872,0.0,4.5825,66.3685,-0.0259,3.6151,2.9873,1.0444,0.0013,150.2436,0.6063,0.0159,4.8813,66.1883,1.7066,5.845,21.84,0.1058,,70.0,2249.2556,460.1942,701.7836,440.3238,9.6698,0.0,48.4814,0.02,1804.6017,0.0135,0.4085,0.2235,1193.6006,0.9806,0.0114,0.499,3.7653,10.1025,3.4785,5.3465,,60.3961,0.003,0.0038,0.9695,7.8131,1.7129,0.0037,0.357,2.4196,239.3617,490.0494,0.2235,0.1169,20.08,43.3985,217.792,0.0405,3.0213,4.3958,1.5905,1.1946,25.9611,2867.25,12.0982,35.7485,0.0011,0.0082,5.6095,0.0347,84.1896,406.0449,400.428,19.9673,673.8012,-0.1336,728.8463,1.3143,118.031,0.111,0.9983,5.0467,0.0653,0.4453,49.8037,11.64,0.0001,0.0371,8265.0699,6.1143,0.0,1.6231,0.0503,12.5743,2.5159,0.0053,0.0506,0.0182,0.3366,10.94,35.258,3088.41,35.1587,0.0086,15.86,0.8599,12.1532,0.1322,2.1216,1.8013,903.5714,0.0009,0.0374,9.1932,58.5891,20.1801,0.0227,0.2675,0.0751,0.0728,0.0131,2844.0,77.44,0.0,29.985,0.001,15.83,0.0016,0.1275,191.3297,134.4,3.78,0.0046,4.114,40.7945,3.2512,0.1367,116.2364,0.0603,8.4169,4.3364,0.0085,5.3342,7.1071,3.9304,0.0,56.414,0.0302,110.4384,20.08,8.8519,0.8456,9.0597,2.8636,467.7123,18.8021,2.3341,254.1985,50.1963,3.679,,15.4011,35.1698,14.9108,0.0011,0.3014,2.765,1008.7122,2.5,0.0056,13.3,-0.0011,6.5312,10.4965,0.0019,
5.1693,6.215,8.439,1.744,0.0037,,4.3933,-0.0001,144.85,167.0,,112.9453,6.608,0.0011,-0.0572,-0.065,261.542,0.0203,2.0485,0.2391,57.8978,15.2822,0.0271,0.1096,0.098,4.4142,3.0154,4.78,166.4523,0.4607,1.0,0.009,259.1774,0.6303,30.8473,2.5561,0.1331,0.0369,7.1593,0.0072,564.0,595.0139,0.0015,15.69,8.32,5.24,77.2727,0.1223,-0.0044,629.8745,,-3410.75,328.8539,1.72,0.0102,22.1353,0.0392,0.334,80.386,0.0889,0.5144,2.5226,0.0154,0.092,0.1001,11.63,21.428,3.18,9300.0,0.0396,0.2364,3.6175,4.0344,2.4696,1.0042,7.1876,0.0002,0.0983,1.97,20.78,88.1608,,0.255,0.0482,0.1467,-0.046,0.0821,0.0996,2.454,4.7409,1.3492,245.0861,9.8999,0.9326,,3.2554,0.54,0.0307,44.122,0.0034,99.998,1.5695,1.5166,,104.1067,302.381,2.1668,0.952,0.8866,0.0035,0.0273,2.9055,12.1563,7.87,0.495,0.063,1.4028,0.01,25.5127,0.1912,0.9581,28.7676,23.2658,0.0381,0.962,2.5308,0.0039,4.551,535.7082,0.0295,0.256,0.1837,0.0,22.323,-0.0141,7.77,2.1839,69.563,467.0,357.2545,516.2264,4.7045,2.0821,53.855,-5657.75,1.121,15.64,355.4445,0.9198,2810.12,4.264,0.6925,87.7166,2.1497,6.5117,64.7111,,0.003,2.363,196.8474,0.739,0.0026,0.4844,0.6695,,1717.275,6.9956,-0.1419,0.1638,,4.839,2.931,0.0194,0.9365,3.3738,0.0093,1.2596,0.1325,0.0289,0.084,1.618,0.659,72.0,6.0479,0.0243,0.09,0.9496,-0.0026,10.6174,0.0032,0.0519,0.4702,8.31,0.1348,4.0179,386.3415,64.235,3.0263,54.3235,0.258,0.6881,0.0171,,0.0287,0.0778,0.0531,3.2298,0.0002,2.1001,-0.0158,15.4779,793.0,,0.809,422.8612,0.9101,433.5171,2.8399,4.4233,0.0033,1.012,0.0956,0.085,2.1082,0.0644,0.183,0.1174,1.4541,617.7182,-158.0,69.3855,2.1178,0.6491,0.0753,0.7613,54.393,0.2129,6.842,0.0026,19.5188,60.5,0.9609,0.1372,-0.0124,0.0231,0.1465,127.7295,,0.0086,0.003,2.6,6.2784,6.03,6.6757,0.0128,78.7657,2.5622,13.663,1.5676,0.0608,0.0323,3.188,0.0151,2.7984,0.0191,0.0139,0.6156,4.9871,0.1893,14.521,0.0168,0.0047,,0.0537,3.5963,1.3325,0.0211,0.5695,,47.0653,0.109,202.8416,127.77,0.9882,0.0,7.151,107.7337,-0.0402,3.4953,2.1839,2.4,0.0069,148.9909,0.6056,0.0641,5.366,66.6677,1.1012,2.647,2.78,0.1638,,70.0,2232.5889,5132.9889,700.2145,340.531,10.4161,0.0,10.6336,0.0102,1825.8466,0.0368,0.4509,0.4024,1798.6997,0.9648,0.0099,0.5018,4.2331,9.9727,13.6335,6.8541,,55.1427,0.0051,0.0004,2.1397,7.116,1.7272,0.0035,0.2937,2.3756,37.5,232.687,0.4025,0.1024,13.73,79.3042,185.6799,0.0106,1.3193,2.5586,4.317,1.4504,30.8039,2628.75,7.6279,17.7651,-0.0033,0.0024,1.6412,0.0319,85.2575,580.7433,401.986,14.4873,719.0445,0.0425,722.3498,1.2848,119.6672,0.1487,0.9988,1.8383,0.0542,0.8008,49.7511,7.87,-0.0001,0.07,8394.1499,0.8302,0.0,1.6542,0.0431,12.5088,5.1949,0.0033,0.0539,0.0231,0.4303,10.418,52.4217,,0.0,0.0078,15.72,0.9368,11.0099,0.1387,1.67,3.2911,180.117,0.001,0.0481,6.8825,78.9197,37.6206,0.0391,-0.1104,0.0433,0.2103,0.0227,2908.0,13.92,94.7967,16.213,0.001,15.7,0.0067,0.1503,192.4255,,7.74,0.0169,2.2445,41.4186,2.2227,0.2019,113.2827,0.0201,14.2718,9.0466,0.0092,5.7921,5.4841,7.4832,0.0,18.6262,-0.0294,44.122,13.73,9.094,0.8602,4.6159,3.0264,16.536,14.0162,2.7099,40.412,50.249,8.427,,23.1491,39.3058,24.754,0.0013,0.7623,3.865,998.6588,0.9,-0.0299,4.1,0.0033,9.8987,10.3343,0.0013,
,7.4377,9.5742,0.4296,0.0042,5.8518,5.96,0.0,142.3127,112.0,2.7828,158.09,4.8377,0.0008,-0.0453,-0.0631,265.37,0.0134,2.5168,0.2215,58.6677,6.0959,-0.012,0.1083,0.119,5.2917,1.995,4.786,100.1752,0.3048,1.0,-0.004,886.6192,0.717,185.2632,3.0074,0.0809,0.0388,7.3152,0.008,1960.0,821.2168,0.0002,18.99,5.58,2.29,43.0108,0.1242,-0.0105,629.0573,0.0028,-3855.5,199.8506,,0.0184,24.3727,0.0211,0.344,,0.0296,0.2942,1.0362,0.0087,-0.0468,0.0988,19.31,10.9722,3.272,1711.0,0.0146,0.1322,1.6091,7.4814,1.6683,0.9992,8.3051,0.0,0.0508,1.986,,86.7827,1.555,0.7842,0.0214,0.1801,-0.0164,0.0926,0.5123,4.5473,5.9317,2.34,1062.2041,10.3069,0.9215,3.6149,5.3922,0.22,0.029,,0.0045,55.026,1.1627,1.53,0.9081,97.5822,561.1374,2.5665,0.9506,0.625,0.0044,0.047,2.1729,14.0237,4.48,,0.0916,1.4188,0.0139,2.4182,,0.9609,15.8699,58.1409,0.0432,0.9909,2.3748,0.0029,4.549,534.1482,0.0397,0.2756,0.0985,132.1429,31.051,-0.0279,10.92,1.3214,99.106,375.0,358.1082,0.0,4.6004,2.3929,26.9886,-5349.75,0.117,15.8,358.8636,0.7089,2476.58,4.4814,0.7217,129.6649,1.6633,4.3378,75.4333,0.0009,0.0018,2.4044,176.9717,0.377,0.0002,0.0825,0.6599,50.1268,1748.0885,8.6077,-0.4258,0.0921,146.7674,2.849,2.76,0.0228,0.9815,3.3376,0.0089,1.4148,0.3532,0.0192,0.089,1.7785,0.496,187.2,8.6863,0.0173,0.0853,0.9468,-0.0002,18.009,0.0448,0.1422,0.4601,18.48,0.094,2.2536,0.0,64.4017,2.809,25.4809,0.267,0.6171,0.0096,1.0108,0.0266,0.0871,0.0886,3.9441,0.0001,2.7954,-0.0037,7.3233,461.0,468.2663,0.4586,416.595,,48.1517,1.5831,3.1943,0.0055,1.475,-0.0122,0.164,1.384,0.0592,0.22,0.2259,1.2134,615.0336,10126.6667,43.2437,2.4069,0.5693,0.0135,0.6805,,0.1542,7.409,0.0029,21.3926,66.5,0.9686,0.1481,-0.0156,0.0545,0.0584,156.333,1.0247,0.0067,0.0041,1.7,6.2643,6.31,7.6634,0.0174,110.4294,7.5588,17.6552,1.952,0.0911,0.0479,4.415,0.0236,3.7983,0.0336,0.0228,0.7743,3.5914,0.1569,12.117,0.0042,0.0008,6.2091,0.0329,4.0788,1.3467,0.0909,0.4025,232.4647,31.1496,0.0769,198.1219,128.6364,0.9906,0.0,3.579,184.3837,-0.0644,3.628,1.3214,1.4,0.0016,145.1155,0.6019,0.0193,3.684,66.0405,1.1541,5.6734,5.05,0.0922,0.3616,70.0,2216.7333,880.8657,703.314,272.0358,9.5431,0.0002,52.1953,,1816.1957,0.0056,0.0482,0.2275,983.7998,0.98,0.014,0.5004,6.0161,10.2528,4.2022,3.3392,101.3766,80.3982,0.0028,0.0003,,9.6238,1.9866,0.0015,0.2937,2.2989,185.7143,764.9269,0.2275,0.1018,22.17,76.4324,203.8858,0.012,2.9377,3.9638,1.7692,2.0444,26.436,2663.5,9.4071,14.0792,0.0,0.0033,2.0235,0.0563,83.6583,328.5346,,17.5818,773.9219,-0.047,727.6867,1.265,119.4242,0.0744,0.9968,2.2461,0.0374,0.4515,49.6118,4.48,0.0,0.1163,8966.2599,1.5617,0.0,0.9501,0.0561,12.4349,5.0925,,0.0797,,0.2092,7.592,30.6917,2968.33,16.896,0.0104,15.84,0.098,13.3755,0.1448,1.1127,3.868,503.6335,0.0013,0.076,9.8719,308.498,30.9697,0.0488,-0.0493,0.0519,0.1018,0.1055,2887.0,79.71,82.5152,25.466,0.0005,15.79,0.0043,0.407,188.5788,173.7,7.39,0.0062,3.4996,37.8933,3.6047,0.1372,111.0545,0.0283,60.7637,9.68,0.0103,6.4663,5.8039,5.1519,0.0,31.5069,-0.0053,33.7876,22.17,8.5596,1.1051,8.222,3.3812,50.8365,8.6172,2.9999,161.1354,50.3882,4.901,0.2829,12.9438,47.2458,36.104,0.0014,,4.817,998.6109,2.6,-0.0158,5.18,0.0,,10.5336,0.0016,0.9793
4.4964,12.6108,5.0447,2.4223,0.0037,3.5323,6.9072,0.0001,137.3973,126.0,3.6271,175.9312,7.6776,0.0415,-0.0982,-0.009,268.016,0.0166,3.793,0.2823,59.5695,11.004,0.0005,0.1094,0.039,6.4144,1.9144,4.908,93.9465,0.3382,1.0,-0.006,201.7961,0.8467,0.0,5.0882,0.0895,0.0562,5.1885,0.01,426.0,0.0,0.0005,22.93,8.69,9.46,21.646,0.1195,-0.0111,635.4536,0.0012,-3766.5,193.5019,1.13,0.0097,27.5901,0.0272,0.153,71.784,0.1092,0.1825,2.1676,0.018,0.0963,0.1259,24.18,10.5527,3.169,799.0,0.0476,0.2116,6.8851,7.6348,2.8493,0.8109,7.5705,0.0,0.1305,1.8135,17.99,86.7188,0.8798,0.3279,0.069,0.1064,0.0709,0.1224,0.7661,8.3972,7.2207,1.7597,328.512,3.2135,0.9312,2.0755,6.8638,0.23,0.0289,,0.0024,64.809,1.1536,1.4994,0.8062,101.3511,0.0,3.8755,0.9481,0.8717,0.0052,0.034,5.1645,6.9914,12.43,1.3701,0.1272,1.3906,0.0317,0.5773,0.5631,0.9489,16.2835,24.3523,0.0115,0.9889,2.5314,0.002,4.653,532.7627,0.0824,0.2155,0.0584,200.982,38.322,0.0,7.5,3.9902,113.936,97.0,352.2827,882.1918,4.5122,3.8602,28.1723,-6393.5,0.237,15.75,357.4782,0.7345,2452.52,1.3785,0.5922,112.7761,2.2678,5.9613,75.5778,0.0005,0.0024,2.4469,44.3349,0.899,0.0001,0.1634,0.5347,33.4405,1032.2836,7.0359,-0.8988,0.0949,163.3179,2.34,2.546,0.0333,1.344,4.7612,0.0066,0.8686,0.2126,0.0182,0.025,1.9664,0.755,74.5,9.7048,0.0192,0.0698,0.9648,-0.0001,18.3657,-0.0305,0.094,,16.62,0.1103,3.1755,0.0,64.3889,1.9994,63.9972,0.246,1.2009,0.0161,1.9042,0.0193,0.0769,0.1072,6.4729,0.0013,5.9263,-0.0939,10.145,432.0,468.0357,0.514,408.419,0.9593,720.9945,2.5795,3.4262,0.0027,1.404,-0.0201,0.099,1.7093,0.0614,0.264,0.2406,1.2548,631.3536,-983.75,40.2054,3.8875,0.6805,0.1316,0.8122,142.8333,0.217,8.031,0.003,20.6799,55.5,0.9685,0.2527,-0.0155,0.0139,0.0654,132.1595,1.8558,0.005,0.0027,2.4,6.3128,6.26,12.8839,0.0158,653.913,3.0377,9.5747,2.47,0.0929,0.0243,5.3714,0.0346,2.5324,0.0339,0.0159,0.7567,3.0438,0.1775,12.575,0.0234,0.0016,6.1042,0.0676,6.4802,1.2215,0.1838,0.5613,235.9131,59.0464,4.2686,204.6972,145.7736,0.9716,411.8812,9.458,615.5556,0.005,2.1538,3.9902,1.6,0.0082,147.5245,0.598,,3.9965,65.9402,1.4849,5.1162,10.61,0.0949,0.6046,70.0,2217.4111,358.1781,713.4487,0.0,9.8719,0.0,57.0019,,1878.3495,0.0632,0.089,0.255,918.9004,0.9649,0.0075,0.4964,8.099,9.8338,,4.9649,97.4559,71.5558,0.0041,0.0125,1.5742,8.8918,2.2199,0.0028,0.2171,2.2869,68.75,0.0,0.255,0.0527,12.3,101.0285,230.0452,0.0193,2.6155,4.0619,1.854,1.4078,12.3273,2261.75,3.65,4.2887,0.0018,0.0041,2.4898,0.0431,83.7826,312.4615,400.096,19.4227,741.2251,-0.0849,741.0388,1.0685,117.665,0.1054,0.9985,2.4515,0.0421,0.506,49.6072,12.43,0.0001,0.0554,8707.69,3.0758,0.0,2.8807,0.0351,12.4055,5.9787,,0.1191,,0.3134,16.291,27.8971,3068.78,81.2198,0.0097,15.76,0.2014,8.714,0.1292,1.4802,6.2941,534.2304,0.0008,0.0487,11.6036,103.283,34.1254,0.09,0.1863,0.0185,0.125,0.0181,2805.0,81.63,42.8826,25.498,0.0008,15.74,0.0055,0.2452,194.8254,108.4,8.82,,3.4408,42.6942,4.2163,0.3234,126.3509,0.0326,31.8238,16.8533,0.0175,6.1766,5.4518,5.3097,0.0,28.4126,-0.0071,70.2425,26.62,8.4768,0.8821,7.3586,3.0962,11.3102,6.7569,2.5029,79.2,50.3928,7.874,0.118,12.6745,45.6055,32.9611,0.0008,0.4545,4.678,1002.1417,1.1,-0.0223,6.62,-0.0018,8.0683,9.5052,0.0017,0.9825
4.1552,8.968,10.3597,2.5408,0.0046,3.839,6.405,0.0003,129.1373,155.0,3.7775,130.3091,2.5434,0.0045,-0.0202,0.0014,264.272,0.0071,2.7573,0.322,59.2654,6.354,0.0024,0.1096,0.14,4.4299,1.8897,4.869,75.4018,0.8019,1.0,0.0039,808.1581,0.5671,0.0,3.5711,0.199,0.0388,5.2085,0.0199,1722.0,922.9794,0.0003,16.12,9.39,1.94,61.9718,0.1249,-0.0142,634.2582,,-3927.25,168.9859,1.11,0.016,24.9604,0.0684,0.128,81.212,0.1134,0.148,2.218,0.0087,-0.1301,0.0854,19.93,9.8758,2.91,75.0,0.049,0.0795,1.5023,7.1724,2.6275,1.4096,7.7319,0.0,0.1072,1.8945,17.01,87.0327,,0.2963,0.0609,0.0393,-0.0045,0.0884,0.5711,8.7616,4.843,3.169,1245.613,2.7471,0.923,,5.517,0.28,0.0247,,0.0088,23.634,0.7063,1.5607,,94.26,474.477,2.9324,0.9466,0.8444,0.0053,0.0262,3.2985,12.3092,9.51,0.9136,0.0708,1.4096,0.0129,-0.95,0.3906,0.9254,7.3324,13.6053,0.0394,0.9906,1.521,0.0017,4.61,532.8245,0.0449,0.3505,0.0598,938.8128,35.922,0.0138,10.0099,2.7968,104.336,584.0,361.2482,702.7027,4.5698,3.1985,21.4808,-6341.25,0.36,15.89,363.8927,1.1141,2571.21,4.8034,0.7586,104.2311,1.9063,6.5266,72.3111,,0.0059,2.345,249.613,0.683,0.0015,0.0732,0.9243,38.8102,1108.9456,7.2105,-0.5204,0.1509,155.9008,2.957,2.453,0.0172,1.0501,4.6594,0.0042,1.3131,0.3081,0.0175,0.091,4.2062,0.243,42.0,9.054,0.0683,0.0745,0.9655,-0.0016,35.0946,0.0055,0.1267,0.4557,23.8,0.2355,4.8402,889.6,64.3145,1.3254,45.3938,0.257,0.9953,0.013,,0.0128,0.0868,0.0382,4.7388,0.001,3.1825,-0.0763,20.7022,342.0,467.6646,0.7702,412.8214,1.4357,270.5363,1.1989,7.9497,0.0047,1.239,0.0003,0.078,0.7204,0.0514,0.186,0.0877,3.3645,623.5655,1488.0,28.5736,2.5978,0.8301,0.097,0.9735,63.6387,0.2118,17.364,0.0026,23.4755,68.1001,0.9799,0.4821,0.0545,0.0348,0.0743,126.5963,,0.0054,0.0046,3.5,6.2834,12.33,9.6871,0.0231,0.0,1.6335,12.2165,1.8844,0.0334,0.0283,5.0021,0.0218,3.4941,0.012,0.0123,0.6586,2.2093,0.2031,33.747,0.0245,0.0007,4.6797,0.0364,5.397,0.8115,0.1258,0.5431,,45.0234,0.4596,199.3313,143.8727,0.9858,517.0732,6.8853,0.0,0.0403,4.0302,2.7968,2.1444,0.0083,136.75,0.6065,0.0286,13.4011,65.5737,1.0065,6.9114,10.77,0.1509,,70.0,2167.2,36.5057,718.1342,302.3108,10.087,-0.0006,54.3883,,1755.7161,0.0452,0.1482,0.3824,877.9004,0.9635,0.0139,0.4948,6.6715,9.5541,6.283,7.2165,,74.7088,0.0043,0.0015,1.3668,7.116,4.4515,0.003,0.2329,2.2967,41.9689,0.0,0.3824,0.0428,16.04,100.1006,110.0237,0.0129,3.7524,1.4539,2.2401,1.8787,9.9562,2987.0,14.0527,19.5514,0.0019,0.004,2.0902,0.0743,85.2679,254.632,409.364,20.95,742.6547,-0.4222,743.0945,0.9962,118.3644,0.1553,0.9981,5.1762,0.1277,0.7595,49.6495,9.51,0.0006,0.0665,8889.4001,2.905,0.0,0.6114,0.0135,12.4996,3.4077,,0.0749,,0.4534,11.238,24.1136,2972.12,5.0403,0.0078,15.94,0.3041,4.8391,0.1353,1.4869,4.8598,265.4264,0.0014,0.0417,10.8273,401.8832,38.4143,0.1551,1.2181,0.0584,0.1594,0.0396,2855.0,78.04,632.1782,30.299,0.0008,15.91,0.0024,0.354,189.2443,114.1,4.66,0.0085,4.0774,38.9026,3.6965,0.2409,122.9227,0.0713,112.3241,30.8902,0.0104,13.0808,5.6239,6.9906,0.0,15.4662,-0.0239,45.9641,23.05,8.4896,0.9615,8.9269,3.6815,43.8475,5.3933,3.1423,48.9199,50.3505,4.747,,10.153,41.7239,33.4936,0.0032,0.5272,4.392,1003.0211,0.9,-0.0282,4.98,-0.0019,7.5344,9.9197,0.0019,
3.784,8.4699,11.7663,0.341,0.003,3.3378,5.7628,-0.0002,137.1136,118.0,,98.3694,4.2558,0.0047,-0.0204,-0.0055,264.272,0.0062,3.0849,0.1953,58.9899,9.0965,-0.0143,0.1148,0.1,5.4775,0.5472,4.865,49.4404,0.3044,1.0,0.0067,738.0995,0.5671,74.2707,2.3894,0.0912,0.0192,7.324,0.0133,1587.0,665.5399,0.0005,19.18,8.61,6.32,30.1733,0.1207,-0.0123,628.5009,0.0027,-4080.25,207.5982,0.44,0.0315,33.9495,0.0274,0.447,73.572,0.0538,0.2844,0.9593,0.0122,0.0637,0.0465,19.91,4.2991,3.244,780.0,0.0245,0.1443,4.6093,5.4361,2.4629,1.314,7.7405,0.0001,0.0572,1.9867,15.33,86.3084,1.3716,0.2804,0.0285,0.0781,-0.0236,0.0816,0.6543,6.5389,5.399,2.9835,857.5341,13.1445,0.9315,3.1664,5.6806,0.19,0.0138,49.9274,0.0037,27.577,0.8124,1.3782,0.9327,91.3367,153.0583,3.0983,0.9457,0.8115,0.003,0.0404,2.4506,18.1764,4.49,0.8728,0.0448,1.4266,0.0244,-6.0455,0.3654,0.9399,7.4414,29.2219,0.0494,0.9892,1.688,0.0033,4.601,530.2409,0.0655,0.3413,0.0906,125.4902,24.73,0.0118,11.54,1.4354,45.599,312.0,350.4909,0.0,4.5077,3.798,14.108,-5647.5,0.496,15.76,350.1627,0.7618,2563.53,5.738,0.8224,101.719,1.9614,6.1109,67.9444,0.0008,0.0042,2.3812,130.3061,0.275,0.004,0.1776,0.8699,34.7919,1969.7867,9.3021,-1.797,0.1207,,2.997,2.921,0.0137,1.0219,3.4007,0.0029,1.4445,0.24,0.0051,0.114,2.6079,0.423,104.3,8.6362,0.0521,0.084,0.9742,-0.0039,19.2543,-0.0242,0.1025,,16.73,0.0958,3.5323,472.381,64.3833,0.8838,17.2391,0.238,1.0832,0.014,1.2038,0.0086,0.0816,0.0382,4.4888,-0.0006,4.5887,0.0437,10.294,438.0,,0.5688,410.4054,1.0239,328.7356,1.7464,3.1195,0.0122,1.683,-0.0101,0.126,0.6368,0.0304,0.175,0.0877,2.0516,610.3245,123.75,34.2256,2.3647,0.5171,0.0773,0.6161,85.2469,0.1975,10.703,0.0023,19.6645,58.5,0.9782,0.1058,-0.0538,0.0631,0.0544,174.3834,1.2541,0.0021,0.0046,2.4,6.3412,6.56,8.6548,0.0255,761.5764,4.0686,14.9692,1.8844,0.0981,0.0217,3.5366,0.0167,3.8239,0.0332,0.0161,0.5699,2.6492,0.2036,20.76,0.0033,0.0018,,0.0443,6.4384,1.313,0.1406,0.5225,230.8492,23.5585,0.479,198.4487,140.8964,0.9865,510.6383,2.6208,842.0091,-0.0924,4.6307,1.4354,2.6111,0.001,145.3109,0.5898,,7.1851,66.2019,0.5409,6.1838,7.51,0.1207,0.3829,70.0,2260.7333,343.4156,699.2503,411.0403,9.7568,0.0,64.0311,0.0315,1874.6711,0.0441,0.188,0.2808,458.0,0.9799,0.0186,0.5021,5.6553,9.9394,,4.5566,104.1783,53.0207,0.0038,0.0016,0.5981,6.1976,2.0506,0.0013,0.2936,2.3914,30.6383,313.2867,0.2808,0.1542,17.88,44.8284,195.4714,0.0119,2.6619,4.1008,1.5103,2.1764,23.4878,2707.5,7.8802,11.5235,-0.0011,0.0034,2.0902,0.071,83.9324,164.9756,405.122,26.0455,909.7511,0.2392,733.1998,1.269,118.3418,0.0913,1.002,3.4767,0.1055,0.5546,49.3661,4.49,-0.0002,0.0461,10653.5,2.0844,0.0,2.2998,0.0266,12.58,3.5785,0.0122,0.074,0.0631,0.2889,7.998,17.3251,3052.93,630.303,0.0071,15.81,0.4191,5.9516,0.1355,1.2109,4.3612,0.0,0.0007,0.0484,8.5226,287.6815,26.898,0.039,-0.4595,0.0438,0.2001,0.0174,2840.0,78.86,517.7914,21.962,0.0004,15.85,0.0021,0.2781,188.6918,101.9,5.2,,2.9954,39.3558,2.9296,0.083,114.8509,0.0392,43.5344,7.6765,0.0122,7.1822,5.2799,5.4637,0.0,15.4662,0.0352,49.9274,17.88,8.598,0.8862,6.9006,2.4863,38.8947,7.7556,2.5877,62.965,50.6339,4.823,0.2808,5.4345,53.8067,18.5164,0.0013,0.1867,3.293,1011.8856,0.8,-0.0063,4.98,0.0011,6.4613,10.4929,0.0012,0.9781
3.6251,11.8136,5.6541,1.5104,0.0016,3.0935,7.1458,0.0001,143.1973,108.0,1.9259,105.4614,7.3865,0.0055,-0.0135,-0.0062,265.232,0.0161,4.0354,0.1461,59.4669,9.2306,0.0077,0.1062,0.162,7.3305,2.0297,4.851,87.6077,0.4268,1.0,0.015,2770.0693,0.8193,497.6464,3.3855,0.1608,0.0639,7.0595,0.0122,6706.0,306.1564,0.0004,26.62,15.89,7.52,20.6349,0.1248,-0.0126,644.5455,0.0016,-3801.5,812.7084,1.33,0.0194,29.9212,0.0461,0.8,73.254,0.1518,0.1292,1.3061,0.0124,0.0938,0.1622,23.51,7.7406,3.286,572.0,0.0746,0.2156,5.2515,5.6121,4.5801,1.0969,7.8815,0.0,0.2298,1.9635,14.53,86.1978,1.0994,0.4667,0.1099,0.1875,0.0326,0.1187,0.4084,6.9115,7.553,1.4781,1180.592,24.1149,0.9185,2.6007,6.5026,0.27,0.0159,,0.0026,52.757,0.5788,1.5203,0.7284,82.1311,650.8039,4.1095,0.9484,0.6324,0.0029,0.0628,3.2588,18.3764,8.65,0.2235,0.0473,1.4061,0.0217,-1.7382,0.0949,0.9396,15.5861,19.1364,0.0626,0.9895,3.3472,0.0033,4.601,498.1891,0.0635,0.3056,0.0419,83.683,20.097,0.0424,439.29,2.5421,56.382,327.0,361.5464,0.0,4.539,2.6062,27.2989,-5200.75,0.071,15.51,363.1427,1.1065,2542.56,7.232,0.592,87.7423,1.2925,11.3661,69.8222,0.0005,0.0027,2.41,168.9556,0.845,-0.002,0.1086,0.7271,33.745,3355.2007,7.5761,-1.088,0.102,160.9197,2.114,2.648,0.0124,0.9655,3.3174,0.0083,0.7145,0.2352,0.0191,0.142,2.8592,0.751,49.2,9.4846,0.0472,0.2947,0.9568,0.002,18.5725,-0.0429,0.1124,,14.25,0.1228,4.1534,949.0683,63.9818,2.6001,39.7917,0.085,0.7979,0.0089,0.7747,0.0249,0.0311,0.0739,6.191,0.0003,4.5161,-0.0195,17.2971,1975.0,465.2494,0.5487,420.9236,0.8273,0.0,1.3204,4.3202,0.0069,1.423,0.0178,0.185,1.6691,0.0359,0.239,0.1919,1.5218,626.1691,227.75,21.1895,3.1798,0.3596,0.1308,0.4254,27.0176,0.1642,12.035,0.0023,9.8475,26.3,0.9676,0.1921,-0.0825,0.0171,0.0812,139.5237,0.7676,0.0069,0.005,2.9,6.2023,9.29,12.186,0.0112,733.8008,1.9351,72.1057,2.8541,0.0884,0.0376,2.8006,0.0215,126.6932,0.0304,0.016,0.7399,1.6701,0.1844,15.047,0.0146,0.0011,4.7091,0.046,4.3826,1.3807,0.0822,0.4046,236.5564,38.7985,0.5553,200.6989,139.8018,0.9839,0.0,7.9573,0.0,-0.0325,2.2514,2.5421,2.7444,0.0047,144.9627,0.6017,,4.0572,66.2847,1.7719,3.8981,8.16,0.102,0.2487,70.0,2182.4111,243.6451,717.5894,133.8645,9.8798,-0.0002,42.3007,,1841.6363,0.0631,0.031,0.2709,734.0,0.9692,0.0191,0.5033,3.1969,10.1672,,5.1868,99.0849,47.1907,0.0027,0.0019,1.8156,8.1264,2.8122,0.0017,0.932,2.2915,51.0121,611.3086,0.2709,0.3085,19.38,64.2587,193.2566,0.016,2.2109,3.858,2.0786,88.1774,8.8903,2576.0,12.4472,12.6941,-0.0004,0.0038,3.2275,0.0356,84.5275,221.7825,400.814,21.7382,835.9395,-0.1538,747.5106,1.3015,119.2766,0.1118,1.0,3.682,0.0921,0.5351,49.3705,8.65,0.0002,0.0772,9482.5201,2.5515,0.0,1.9406,0.0497,12.9898,8.3401,,0.0798,,0.3217,11.609,24.246,2983.64,251.1526,0.0086,15.54,0.0595,13.5782,0.1302,1.4529,6.0718,0.0,0.0004,0.0567,5.903,376.3825,30.1312,0.0707,0.4546,0.0703,0.2193,-0.0137,2882.0,81.75,679.7048,17.936,0.0006,15.56,0.0054,0.2729,190.8191,92.3,12.09,,2.3994,39.8187,3.095,0.2268,118.0636,0.0342,35.1869,12.6352,0.0075,11.3112,1.8727,4.6747,0.0,23.4168,0.0233,113.5506,19.38,9.1526,0.9297,4.7132,1.2819,176.4041,37.9753,1.2051,84.3465,50.6295,4.356,0.1596,10.4801,54.5902,18.1479,0.0009,0.5058,4.385,988.7396,1.4,0.004,7.57,0.0004,6.7381,10.6192,0.0009,0.9821
4.4269,8.3457,7.1593,1.8514,0.0059,4.7835,5.7667,-0.0002,151.3336,168.0,,128.417,1.7676,0.0064,-0.025,-0.0639,251.38,0.0077,3.1614,0.2118,58.5769,11.056,0.009,0.1096,0.021,5.6716,2.2823,4.858,95.1938,0.9686,1.0,0.001,685.4047,0.6152,742.8986,3.6453,0.3738,0.0379,7.4342,0.0238,1359.0,0.0,0.0002,20.1,8.41,5.3,57.971,0.1234,-0.0078,638.7436,,-3860.25,543.5975,1.44,0.0157,26.7098,0.1077,0.512,83.116,0.0384,0.1155,5.4852,0.0214,-0.0242,0.0807,17.18,9.2577,3.064,3829.0,0.0171,0.0528,3.5022,5.9172,2.5544,1.4068,7.0658,0.0001,0.1034,2.016,18.27,87.1954,,0.6144,0.0498,0.1492,0.0155,0.1123,0.4723,7.1541,6.3198,1.9096,182.999,14.6845,0.9329,,4.8549,0.46,0.0237,,0.0045,43.094,1.0323,1.5334,,103.4733,162.5397,3.3348,0.9516,0.9174,0.0068,0.0663,2.6086,16.9681,6.99,0.9299,0.0873,1.4258,0.0141,0.9409,0.378,0.9294,16.3326,42.2484,0.0653,0.9909,2.3169,0.0024,4.624,531.4291,0.0495,0.358,0.0383,136.1702,28.443,0.0098,9.32,2.1447,93.73,356.0,353.8718,884.7682,4.5834,2.1547,21.4685,-5602.25,0.166,16.01,354.3973,0.7491,2480.11,6.2004,0.7908,77.1592,2.1392,6.2978,65.6889,,0.004,2.3759,160.3174,0.27,0.0005,0.0611,0.9365,51.4127,940.9917,7.818,-0.0946,0.147,,3.462,2.72,0.0241,0.9777,3.4867,0.0022,0.9118,0.2261,0.0212,0.125,1.1757,0.182,118.9,8.0453,0.0558,0.0899,0.9766,-0.0005,47.4376,-0.0364,0.1003,0.4649,14.03,0.2619,3.6536,0.0,63.9959,0.6399,36.6754,0.19,0.6282,0.0167,,0.0062,0.0623,0.0679,4.3714,-0.0015,3.4688,0.1088,42.131,1154.0,,0.7576,405.3603,1.6732,544.9275,3.9114,10.3539,0.0046,0.946,-0.0967,0.205,0.7935,0.0496,0.271,0.1446,3.4339,621.7755,-4153.75,47.9673,8.5946,0.4955,0.099,0.577,55.5783,0.222,4.766,0.0026,17.7781,44.3999,0.9713,0.2618,0.075,0.0252,0.089,145.1355,,0.0061,0.0043,2.4,6.3782,6.11,8.678,0.0148,102.3785,4.7941,11.3995,1.8935,0.0333,0.0157,4.0153,0.0234,2.987,0.0102,0.0275,0.5424,3.3893,0.1758,34.706,0.0179,0.0006,,0.0879,3.6784,1.3751,0.1055,0.5871,,33.2237,0.6554,200.269,133.5382,0.9799,464.9573,2.555,56.9417,-0.0486,2.5647,2.1447,2.0333,0.0065,152.8991,0.5947,0.0165,11.6523,66.5687,0.8274,3.877,8.19,0.147,,70.0,2171.8556,1756.0259,708.3631,0.0,9.3546,0.0,48.3013,,1856.4217,0.054,0.0648,0.3767,803.5,0.9669,0.0147,0.5097,4.1739,10.2965,3.54,8.7223,,111.5684,0.0039,0.0023,1.7325,7.116,2.0414,0.0077,0.2439,2.3306,113.1148,967.313,0.3767,0.1616,21.79,121.4762,200.7316,0.0438,2.1965,1.4279,3.6823,1.7538,8.9517,2617.5,1.596,13.6008,-0.0019,0.0091,2.1225,0.0454,85.8807,271.6517,412.702,19.0591,749.3412,0.2098,735.0729,1.3157,118.0116,0.1871,0.9989,1.7289,0.1087,0.7492,49.7225,6.99,-0.0002,0.0364,8679.2601,2.0944,0.0,1.5383,0.0405,12.4922,4.8856,,0.0887,,0.5563,8.874,28.5355,2891.17,92.1818,0.0078,15.97,0.1407,10.8525,0.1404,1.2906,4.3332,855.971,0.0016,0.1208,8.5808,56.9252,33.8951,0.085,-0.4093,0.0086,0.1522,0.019,2888.0,65.11,435.6713,22.755,0.0024,15.95,0.0026,0.2593,190.9144,138.3,7.47,0.0043,3.0956,35.8235,3.5045,0.0747,114.4791,0.0834,19.4475,17.0733,0.0085,5.9049,4.1453,7.5886,0.0,23.4995,-0.0236,62.3881,21.79,9.754,0.8872,6.5092,4.7816,35.205,20.5989,2.0443,134.6715,50.2775,12.335,,12.7037,50.7978,30.64,0.0017,0.5623,3.446,1010.6904,2.3,0.0104,4.76,0.0019,7.7171,10.5675,0.0023,
3.9139,11.8428,9.5796,0.8832,0.0049,2.5939,5.6522,-0.0005,145.8445,98.0,,73.5536,4.3737,0.0014,-0.0377,-0.0198,,0.0144,3.7836,0.3814,58.668,10.1548,-0.0358,0.1096,0.112,5.5652,1.6292,4.842,193.0287,0.5666,1.0,-0.0148,139.2082,,463.2883,1.6779,0.358,0.0715,7.39,0.0069,297.0,368.9713,0.0002,19.59,10.14,6.92,141.4365,0.1247,-0.0045,631.2618,,-3498.75,233.9865,1.33,0.0201,27.6301,0.1013,0.561,74.64,0.1578,0.2301,3.6822,0.0154,0.1455,0.1917,17.99,23.6469,3.272,3277.0,0.0729,0.1417,4.7448,2.489,2.9939,1.5683,6.8043,0.0001,0.0747,2.0143,16.0,87.5241,,0.3464,0.0365,0.0892,0.0772,0.0591,0.1745,10.2211,5.9247,3.2029,219.7679,16.4174,0.9324,,5.1072,0.35,0.0768,208.2045,0.0064,82.986,1.2474,1.4966,,102.3433,359.0444,3.9011,0.9479,1.0239,0.0036,0.0291,1.1265,10.9036,3.74,0.7193,0.0468,1.3825,0.0139,0.8073,0.2829,0.9425,23.623,22.3163,0.0561,0.9902,2.4278,0.0033,4.59,535.0164,0.0437,0.3752,0.0767,0.0,15.078,-0.0005,5.92,1.1506,134.25,59.0,352.2445,0.0,4.682,3.8999,40.4475,-5441.5,0.325,15.88,352.0073,0.8151,2465.14,5.7093,0.8122,82.3494,2.4335,7.6142,68.4222,,0.0081,2.3754,26.5879,0.316,0.0,0.0673,1.0181,28.9862,1463.6606,6.6487,-0.0946,0.1667,,2.773,2.771,0.0143,0.9634,3.4171,0.0069,1.0323,0.2315,0.0154,0.115,3.1531,0.439,81.0,7.7421,0.0399,0.0772,0.9627,0.0,12.6788,0.0004,0.0856,,9.05,0.1662,3.2153,0.0,64.2828,2.1196,19.4865,0.222,1.1655,0.0203,,0.0204,0.0778,,6.1911,0.0002,3.1595,-0.0158,30.8643,568.0,,0.834,414.7347,1.3526,0.0,2.1016,6.1188,0.006,0.8703,-0.012,0.079,1.4857,0.1651,0.124,,2.9799,620.3582,-1640.25,58.1666,4.4447,1.0498,0.0987,1.2364,53.1836,0.263,13.077,0.0026,17.4008,56.2,0.9701,0.1356,-0.0752,0.0096,0.1,128.4285,,0.0049,0.0059,2.2,6.5061,5.7,12.3319,0.0248,820.79,3.2858,10.9003,,0.0411,0.023,2.1627,0.0142,2.0111,0.012,0.0171,0.4138,3.9578,0.1874,29.743,0.0086,0.0007,,0.0547,6.6475,1.2887,0.0375,0.6582,,13.243,0.1441,200.547,133.1727,0.9894,0.0,3.0652,246.7762,-0.0903,3.6327,1.1506,2.2667,0.0027,154.3709,0.5958,,10.5837,64.9193,1.9562,2.7661,11.65,0.1667,,70.0,2230.4222,1529.7622,697.1964,0.0,9.2599,-0.0004,18.1087,0.0201,1931.6464,0.0513,0.1214,0.4115,1988.0,0.9731,0.0236,0.5019,3.131,10.0373,,8.837,,61.8918,0.0053,0.0005,1.7819,7.116,1.8459,0.005,0.2653,2.2932,48.5294,130.635,0.4115,0.1822,8.02,163.0249,205.1695,0.0223,1.4336,1.791,2.8088,1.1065,27.7464,2604.25,8.6336,2.2655,0.0015,0.0055,,0.0761,84.9052,677.1873,408.798,19.1927,731.2517,0.5854,724.8264,1.2973,118.1188,0.1921,0.9985,3.9483,0.0734,0.8123,49.3404,3.74,-0.0004,0.0488,8407.0299,3.3604,0.0,1.8045,0.0264,12.4608,5.8042,0.006,0.0566,0.0096,0.5749,3.659,65.0999,3095.78,199.7866,0.0078,15.91,0.2751,6.9233,0.1358,0.8294,6.1491,0.0,0.0012,0.06,5.0108,83.5542,29.0598,0.044,-0.9353,0.0502,0.2102,0.0017,2853.0,78.25,194.4371,16.358,0.0017,15.88,0.0049,0.2645,191.2872,80.3,8.96,,2.2568,37.9213,1.2928,0.0878,113.98,0.0238,15.015,9.0604,0.0068,5.5695,4.7415,4.3465,0.0,,-0.044,208.2045,8.02,9.7997,1.1598,5.2445,3.93,8.4887,10.4383,2.5197,37.5793,50.6596,6.285,,26.397,46.3453,41.708,0.0022,0.4989,2.541,998.1081,1.1,-0.0039,,-0.0015,7.1196,10.3092,0.0013,
,8.5951,13.0775,2.8664,0.0059,2.5017,4.2563,0.0,145.0182,138.0,,114.7643,6.1276,0.0014,-0.031,-0.0321,260.576,0.0101,2.6132,0.2747,57.7658,6.0984,-0.0037,0.1078,0.208,4.7419,0.6179,4.844,183.4106,0.5531,1.0,-0.0075,866.5615,0.7883,0.0,1.9852,0.1103,0.0448,7.2535,0.0232,1890.0,663.3499,0.0003,16.84,13.95,3.53,43.1206,0.1227,-0.0088,642.26,,-3951.75,345.001,,0.0074,22.8899,0.0321,0.431,,0.0046,0.1527,3.2196,0.0128,0.0782,0.1135,11.26,15.0135,3.359,3640.0,0.0022,0.1872,2.4342,5.3306,3.9369,1.253,7.9575,0.0,0.0351,2.023,,86.6896,,0.5612,0.0156,0.1689,0.041,0.0589,0.2923,9.1618,5.4677,3.5326,325.699,12.3724,0.9267,,3.1757,0.26,0.0173,19.0852,0.0038,41.248,1.3771,1.4372,,105.0478,7.5317,2.7683,0.9467,0.8421,0.0059,0.0287,1.5524,9.794,5.73,,0.0843,1.4119,0.0259,0.5564,,0.971,12.992,14.1289,0.0669,0.9908,2.8006,0.0013,4.586,533.9909,0.064,0.3099,0.0562,95.0717,32.204,-0.0113,8.91,1.4904,69.873,638.0,354.5691,531.7784,4.5488,2.1083,18.1064,-5342.5,0.315,15.73,355.1291,0.4381,2511.37,7.9585,0.8291,231.4128,2.2169,9.7776,76.4222,,0.0026,2.4403,272.278,0.412,0.0018,0.0902,0.8264,23.375,918.2161,7.1676,0.2838,0.1178,,3.147,2.99,0.0218,0.9849,3.4836,0.0066,1.2844,0.2602,0.006,0.161,2.4271,0.611,44.0,9.5453,0.0468,0.1087,0.9562,-0.0018,38.6162,-0.0401,0.0997,,21.4,0.1601,1.5702,514.6853,64.2059,2.0996,29.4698,0.251,0.6861,0.0114,,0.0201,0.0819,0.0361,4.4386,-0.0009,4.5321,0.0651,7.355,821.0,,0.6141,411.1503,,122.2997,1.4546,5.5018,0.0023,0.9271,0.0032,0.09,1.0392,0.0381,0.144,0.0802,1.7784,633.63,1129.5,46.2024,3.3422,0.7047,0.095,0.8427,,0.2074,9.979,0.0027,25.0761,68.8,0.9747,0.1037,-0.0203,0.0386,0.0652,127.7313,,0.0019,0.0025,1.2,6.3922,4.9,9.1482,0.0278,0.0,1.752,13.7963,3.2236,0.102,0.0295,4.4723,0.0259,3.027,0.0361,0.0172,0.6754,3.6765,0.2056,17.824,0.0277,0.0009,,0.05,3.6497,1.3329,0.0609,0.5407,,27.1997,0.1425,203.698,142.6727,0.9897,674.2857,3.9957,182.1012,-0.0096,4.7882,1.4904,2.0,0.0094,155.2718,0.5899,,5.9201,65.9546,1.367,6.4612,11.29,0.1178,,70.0,2155.3111,1623.7603,720.08,529.5028,10.0525,0.0001,29.6822,0.0074,1782.0579,0.0491,0.122,0.3051,1364.0,0.9649,0.0092,0.4988,5.4871,9.9713,,9.0976,,78.2177,0.0033,0.0005,,9.1384,1.7714,0.0043,0.3058,2.3805,95.0,0.0,0.3051,0.1388,11.24,30.1941,227.8094,0.0167,3.332,4.2859,2.0686,1.6686,11.9761,2619.0,16.3297,24.3604,0.0021,0.0038,3.3795,0.0862,83.6264,436.5997,,19.4436,703.9214,-0.0502,742.9699,1.2738,119.8088,0.1995,1.0,3.3561,0.0863,0.6063,49.6804,5.73,0.0,0.0585,9085.16,3.4097,0.0,1.3266,0.0469,12.5688,5.8414,0.0023,0.0965,0.0386,0.5815,6.226,52.4028,2922.05,322.2665,0.0099,15.75,0.2629,12.6696,0.1336,1.2753,4.4911,0.0,0.0018,0.0599,9.9229,99.4348,33.5026,0.0337,0.0625,0.1021,0.1543,-0.0287,2864.0,81.55,278.6118,34.801,0.0014,15.76,0.0032,0.3002,193.6455,73.1,9.07,,4.684,36.6141,2.8187,0.1102,123.2291,0.0794,35.4708,7.2155,0.0096,4.6645,5.5179,6.252,0.0,10.1735,-0.0611,19.0852,17.86,8.3006,1.4991,11.0172,4.8102,47.8269,15.3673,3.1921,58.3153,50.3196,4.77,,26.0556,50.2701,22.6997,0.0014,,3.703,1002.2324,1.9,-0.0036,8.4,-0.0021,,10.311,0.002,
3.6251,6.9478,18.5218,0.4989,0.0031,7.395,7.259,-0.0001,135.9391,150.0,2.895,184.1757,8.5593,0.0058,-0.0097,-0.0512,258.188,0.0055,2.242,0.2729,58.704,5.8585,-0.0408,0.1088,0.136,6.5236,4.7827,4.893,210.4752,0.4338,1.0,0.0,383.8215,0.6023,560.0949,3.7537,0.2367,0.1355,7.4327,0.0136,848.0,0.0,0.0004,22.82,17.43,7.46,27.1311,0.122,-0.0136,628.9791,0.002,-3899.75,121.4166,1.33,0.0251,20.3804,0.0654,0.539,73.254,0.0516,0.3503,2.2408,0.0194,0.0501,0.3116,23.07,24.1996,3.166,5974.0,0.025,0.2695,5.4878,8.1675,5.4642,1.104,7.8092,0.0001,0.0968,2.0205,14.53,86.9761,2.3029,0.5148,0.0479,0.1407,0.0673,0.1163,0.3345,22.0988,6.5619,2.8968,751.0549,15.5292,0.9289,5.2892,6.5757,0.17,0.012,71.1973,0.0037,17.131,1.099,1.3439,1.4042,88.6578,0.0,2.3059,0.9383,1.1695,0.0038,0.0444,4.1003,10.3651,16.09,0.2235,0.0549,1.3756,0.0419,2.8727,0.0949,0.9236,5.0517,78.8126,0.0336,0.9902,2.0422,0.0019,4.592,531.52,0.1226,0.2824,0.1009,81.9767,37.644,0.0055,9.75,4.0043,33.816,376.0,350.8382,672.3404,4.4902,3.3966,15.5744,-5662.0,0.366,15.7,349.8073,0.9849,2357.09,3.712,0.8121,102.2096,1.917,12.2572,69.9333,0.0008,0.0026,2.4212,169.7901,0.512,0.0017,0.1238,0.7297,76.6172,2490.6947,10.0382,-2.033,0.1871,160.781,2.899,2.873,0.0123,0.9864,3.4709,0.0021,2.2605,0.3129,0.0442,0.075,5.3585,0.851,252.9,12.5289,0.0444,0.0794,0.9786,-0.0017,21.0152,-0.0344,0.1214,0.463,22.29,0.1227,4.1468,456.2963,63.9952,0.6788,93.9437,0.296,0.8972,0.0158,1.2429,0.0066,0.1003,0.05,3.6736,0.0,8.9117,-0.0019,24.6592,256.0,459.419,0.9296,400.4448,0.8273,0.0,1.4143,4.4614,0.0097,0.8325,-0.0018,0.136,0.5617,0.0282,0.279,0.1216,2.598,620.2,-2785.0,44.6186,2.8694,0.741,0.0838,0.8571,27.0176,0.2752,21.458,0.0025,18.4874,53.3999,0.9814,0.1025,0.0021,0.0352,0.0423,172.4338,1.311,0.0153,0.0028,2.9,6.2427,9.7,7.0223,0.0232,0.0,10.7293,13.7383,1.9869,0.0923,0.0158,5.2656,0.0209,3.4417,0.0325,0.017,0.5231,3.4844,0.1992,25.892,0.0049,0.0012,7.8842,0.0727,5.7861,0.8852,0.0621,0.7484,229.6766,78.6983,0.5976,198.8501,142.2018,0.9638,0.0,4.9899,72.9228,0.019,7.3173,4.0043,2.7,0.0015,145.3182,0.606,0.0183,9.3057,66.0979,3.5271,6.8992,27.64,0.1871,0.3946,70.0,2221.3667,2729.5986,714.9076,940.9611,9.7233,-0.0004,33.9139,0.0251,1717.7731,0.0453,0.1426,0.4589,2121.8999,0.9796,0.0077,0.498,6.1304,9.9424,3.9422,4.217,105.478,88.9982,0.0044,0.0016,1.8156,10.6725,2.9142,0.003,0.2634,2.2726,59.2593,134.4147,0.459,0.1656,19.09,33.0849,109.9947,0.0143,3.5438,4.0605,1.3597,1.8344,27.6524,2588.0,10.1587,14.5286,-0.0024,0.0041,1.881,0.0701,86.4585,694.5231,400.814,17.1273,737.1553,0.0873,735.288,1.3387,116.017,0.0888,0.9997,5.5311,0.0862,0.9065,49.3772,16.09,0.0,0.0373,8768.3301,7.8833,0.0,2.4299,0.04,12.5027,5.1336,0.0097,0.0631,0.0352,0.2633,16.039,65.9521,3022.33,214.5063,0.0116,15.76,0.3155,15.8963,0.1339,1.2667,3.5315,0.0,0.0009,0.0514,12.0549,239.3081,28.4649,0.0402,0.1053,0.0647,0.2079,-0.0067,2837.0,76.44,890.9561,33.949,0.0009,15.76,0.0017,0.3598,189.1268,223.5,7.46,0.0055,4.6171,39.5064,4.2857,0.1511,125.0745,0.0419,30.1544,7.6271,0.0114,10.9409,6.5921,6.7478,0.0,20.1824,0.0016,71.1973,26.58,8.8355,0.96,9.6453,2.5414,21.745,4.5214,2.4039,65.4196,50.6228,5.214,0.2077,28.5523,56.5936,9.7924,0.0013,0.5058,3.008,996.6092,1.6,-0.001,5.13,0.0023,6.7381,10.2606,0.0014,0.98
4.5002,11.4276,17.4192,3.3975,0.0033,3.074,4.6235,0.0001,146.7336,94.0,1.9642,117.0762,4.8859,0.0215,-0.0224,-0.046,248.322,0.0064,3.5478,0.2118,58.078,10.9391,0.0188,0.1139,0.109,5.3666,6.7329,4.844,71.4711,0.5582,1.0,0.0036,1709.5897,0.7006,946.6191,1.271,0.1316,0.0379,7.2382,0.012,4062.0,0.0,0.0003,19.03,14.03,8.95,35.1852,0.1252,-0.0108,644.6773,,-3211.5,279.6861,0.85,0.0268,28.9348,0.0361,0.356,73.838,0.0429,0.2602,1.852,0.0118,-0.0046,0.0807,13.47,6.3203,3.277,7079.0,0.018,0.1192,6.0995,5.9627,4.079,1.4068,8.2615,0.0,0.0461,1.9743,18.36,87.1954,,0.3742,0.0229,0.1037,-0.0071,0.0386,0.2826,6.8461,5.8763,1.6421,585.959,10.2705,0.9267,,3.8327,0.25,0.0168,,0.0038,40.293,0.6711,1.3819,,100.1744,610.6762,3.6927,0.9467,0.9174,0.0038,0.0559,2.0038,15.46,8.27,1.5485,0.1027,1.4137,0.0136,-0.8736,0.656,0.9066,11.7883,63.3155,0.0218,0.9895,2.2654,0.0022,4.586,529.9273,0.0394,0.358,0.075,96.062,31.032,-0.0041,9.5,2.3691,95.314,189.0,351.4509,387.3684,4.5488,2.4871,18.1586,-5393.5,0.166,15.75,354.6036,0.7918,2314.52,2.5833,0.8692,120.7715,2.3342,9.5773,67.2778,,0.0026,2.3752,79.0459,0.362,0.0012,0.0782,0.9365,31.2098,1431.874,4.6333,0.0473,0.147,164.3435,3.462,2.992,0.0338,0.9154,3.4662,0.0042,2.4282,0.2261,0.061,0.051,1.5233,0.492,197.1,9.2436,0.0535,0.1178,0.9674,-0.0011,20.6552,0.0387,0.1003,,19.46,0.1622,3.7159,0.0,63.9959,1.2991,39.6194,0.251,0.7791,0.0092,,0.0126,0.0819,0.0509,5.9971,0.0002,2.7856,-0.014,12.1537,537.0,464.8738,0.7576,405.5035,1.2739,0.0,1.9053,5.6309,0.0091,1.059,0.0084,0.166,0.6533,0.0372,0.092,0.127,1.0662,629.2173,-3497.0,27.0362,1.9589,0.4955,0.0806,0.577,121.5593,0.222,6.177,0.0027,16.4241,50.4001,0.9806,0.0617,-0.0361,0.0406,0.0715,80.3799,,0.0149,0.0034,2.5,6.5494,8.29,11.9858,0.0154,959.5238,8.5158,16.6009,2.3196,0.1077,0.0275,4.3236,0.0276,3.4972,0.038,0.0251,0.6766,2.2336,0.1932,10.84,0.0327,0.0008,5.0688,0.0404,4.2823,1.2778,0.0608,0.5871,,26.1313,2.1828,200.4667,146.4927,0.9843,0.0,3.5392,125.938,0.0464,7.1243,2.3691,2.3667,0.0101,148.9945,0.5934,,3.2514,66.5687,0.8274,6.049,8.6,0.147,,70.0,2169.1111,3192.3654,717.7313,0.0,9.913,-0.0001,30.8742,,1734.8192,0.0459,0.0648,0.3767,565.0996,0.9635,0.0126,0.4949,2.103,10.0698,,8.1616,,57.0066,0.0027,0.0066,1.1512,8.9456,2.6022,0.0026,0.3875,2.3907,46.4789,547.3684,0.3767,0.142,18.1,78.921,221.8944,0.0097,3.0186,4.5044,1.9965,1.7927,25.2106,2612.75,8.3445,7.2338,0.0024,0.003,2.4276,0.039,85.8807,173.6668,407.984,20.8736,660.9779,-0.0947,746.6661,1.3062,118.0116,0.1837,1.003,2.0916,0.1092,0.7492,49.7225,8.27,0.0001,0.0579,8940.9601,3.0316,0.0,2.6021,0.0293,12.522,4.1612,,0.0926,,0.5345,7.561,23.1269,3090.47,202.4307,0.0102,15.7,0.1407,8.1155,0.1404,1.0321,5.9789,0.0,0.0009,0.0819,10.1037,187.0482,25.8781,0.0203,0.242,0.0461,0.1606,-0.0036,2864.0,65.11,487.5,36.076,0.0008,15.75,0.0021,0.2593,190.5537,95.0,6.2,,4.8316,40.8991,2.8766,0.1102,125.6191,0.0399,40.9225,4.465,0.0048,8.2756,5.5179,4.1709,0.0,18.1262,-0.007,66.1687,18.1,9.754,1.0828,11.0498,2.6363,126.483,9.9564,2.3235,103.391,50.2775,6.236,,10.8129,29.558,31.1773,0.0013,0.3422,4.024,1016.6978,1.1,0.0031,5.76,-0.0024,8.9945,10.2283,0.0013,
2.165,7.6898,4.5757,2.409,0.0041,2.9197,5.1408,0.0,143.9618,168.0,,135.4667,6.5406,0.0022,-0.0037,-0.0452,264.272,0.0056,2.4744,0.2747,56.4714,5.4756,0.0075,0.1078,0.136,7.0792,0.5612,4.844,102.9943,0.4797,1.0,0.0057,6052.1411,0.5671,186.7101,0.8758,0.1907,0.0448,7.3075,0.0112,13291.0,733.7691,0.0007,25.16,14.55,12.14,69.4476,0.1214,-0.0111,641.97,,-1239.0,34.5965,1.42,0.0079,30.9212,0.0521,0.363,81.088,0.0655,0.113,2.7149,0.0142,-0.048,0.1135,16.14,11.689,3.238,4760.0,0.0271,0.2149,8.4328,6.2972,3.9672,1.253,8.0018,0.0,0.0429,2.0023,8.62,86.6896,,0.4577,0.0199,0.1724,0.0693,0.0305,0.168,8.6841,6.9359,1.4855,293.466,10.6695,0.9267,,4.5548,0.25,0.0193,,0.0077,52.528,0.8364,1.3619,,104.0133,120.1835,2.6051,0.9467,0.8421,0.005,0.05,1.6713,15.9227,5.99,0.4701,0.0822,1.4182,0.014,-3.2082,0.1926,0.9744,17.2552,25.8181,0.0448,0.9914,3.4793,0.002,4.586,533.6536,0.0367,0.3099,0.0455,62.5995,31.475,-0.0228,10.37,1.6609,121.421,418.0,354.35,613.6471,4.5488,3.4979,22.7362,-5520.25,0.315,15.74,355.4082,0.6557,2523.65,4.5449,0.7447,125.0272,2.1648,10.1282,74.3,,0.0029,2.4247,183.8503,0.811,0.0,0.2292,0.8264,30.3937,939.8456,6.6841,-0.3784,0.1178,,3.147,2.825,0.0215,0.9723,3.4022,0.0034,0.6262,0.2602,0.0055,0.091,4.0074,0.652,85.0,10.2082,0.0376,0.1414,0.9687,0.0,16.6282,0.066,0.0997,0.4644,16.53,0.1387,2.6918,0.0,64.2059,1.0601,25.8099,0.251,1.0355,0.0163,,0.0103,0.0819,0.0382,4.0668,0.0004,2.5857,-0.0326,17.8643,74.0,,0.6141,409.6935,0.7536,104.7619,3.3198,4.8779,0.003,1.144,0.0248,0.17,0.571,0.0413,0.064,0.0877,2.2356,626.0473,-1867.25,29.4721,2.7445,0.7047,0.0905,0.8427,62.3868,0.2074,16.418,0.0027,19.0307,51.3,0.9796,0.1469,0.0094,0.0373,0.0715,114.1104,,0.0018,0.0027,2.0,6.3712,5.04,8.1267,0.0129,365.6566,3.3681,24.5216,1.8844,0.0837,0.0302,4.4167,0.0231,3.5821,0.0276,0.0183,0.7833,2.3583,0.1986,22.435,0.0233,0.0023,,0.0421,6.1941,1.3244,0.0423,0.5407,,20.7721,0.2236,198.9241,143.6582,0.9897,0.0,7.8462,146.0773,0.0341,1.7356,1.6609,2.4778,0.0087,150.1891,0.5934,0.0486,7.6461,65.9546,1.367,5.8111,10.46,0.1178,,70.0,2181.0444,2031.9364,712.6322,270.6882,9.8346,-0.0002,17.2789,,1707.1903,0.0437,0.122,0.3051,1027.0,0.966,0.01,0.4964,3.6327,9.9685,10.4576,8.4702,,193.2378,0.0041,0.0007,1.7512,9.1384,1.7311,0.0036,0.5308,2.3275,56.5022,0.0,0.3051,0.1215,21.57,97.1157,231.0324,0.0136,2.5749,3.5956,1.9965,1.9432,8.0907,2591.25,10.4555,16.1312,0.0026,0.0038,2.0902,0.036,83.6264,283.5761,398.158,23.2082,706.7943,-0.0082,743.5534,1.3008,119.8088,0.186,0.9957,5.455,0.0743,0.6063,49.6804,5.99,0.0001,0.0661,8786.0301,3.1979,0.0,3.4777,0.0482,12.522,8.5892,,0.0802,,0.5397,6.423,29.8663,3055.13,254.9203,0.0099,15.84,0.2629,13.0197,0.1326,1.3968,4.0853,0.0,0.0013,0.0617,10.1061,85.0393,37.5288,0.0461,0.1326,0.0582,0.2089,-0.041,2864.0,81.55,0.0,36.264,0.0011,15.77,0.0017,0.3002,189.0895,89.2,12.9,0.0126,4.8771,37.9309,3.4454,0.2271,120.45,0.033,31.2249,10.7864,0.0083,4.8455,5.5179,7.5662,0.0,15.4662,-0.0545,21.0599,21.57,8.3006,1.0674,11.127,3.3775,0.0,1.3405,2.3521,81.383,50.3196,10.581,,14.572,34.3695,41.5926,0.0024,0.7213,4.796,1003.5267,1.4,-0.0041,4.98,-0.0027,3.9759,10.3362,0.0017,
4.7043,5.2513,10.3972,2.2502,0.0054,7.1213,5.9975,0.0,148.5809,87.0,,117.994,4.3399,0.0013,-0.0264,-0.0814,251.508,0.0087,1.9539,0.296,57.8466,4.9371,-0.0015,0.1096,0.055,5.1589,1.9934,4.863,139.6691,0.4943,1.0,-0.002,5715.6795,0.6394,0.0,5.0058,0.1777,0.0542,7.2715,0.0297,11954.0,0.0,0.0003,18.31,7.93,7.01,55.0206,0.1212,-0.0091,646.6836,,-686.25,104.0401,0.76,0.0157,28.2022,0.0564,0.349,76.992,0.0158,0.255,3.6,0.0226,0.0122,0.1334,19.44,14.74,3.246,1403.0,0.0077,0.1242,4.718,5.6286,2.6136,1.0282,7.5319,0.0,0.0737,2.024,19.12,86.8706,,0.5183,0.0382,0.1168,-0.0198,0.1786,0.588,7.3686,5.9092,3.9088,281.316,10.2842,0.9296,,5.5034,0.46,0.0194,62.3881,0.005,79.075,1.1564,1.4522,,103.0644,81.6537,2.069,0.9491,0.9264,0.0037,0.0519,3.1832,15.6872,8.47,1.8548,0.0702,1.4071,0.0181,-0.6936,0.8235,0.9466,26.0961,62.8858,0.0321,0.9911,2.4379,0.0018,4.615,532.9918,0.0544,0.2429,0.083,194.4242,34.138,-0.0099,9.2599,2.6051,91.628,1853.0,353.2336,405.2219,4.5889,1.2925,41.5859,-5279.5,0.298,15.94,354.9209,0.5916,2698.14,3.8538,0.808,89.8495,2.0121,5.4739,67.0,,0.0028,2.3419,871.1244,0.29,0.0002,0.0733,0.68,77.6921,1012.6747,6.0867,-0.1419,0.1294,,3.478,2.748,0.0174,0.9603,3.3936,0.0038,1.3096,0.2546,0.0189,0.078,1.9192,0.44,163.0,8.4924,0.0461,0.103,0.9655,-0.0002,45.4494,-0.0206,0.1011,0.4641,16.56,0.1461,2.6866,0.0,64.0756,1.1627,40.9305,0.21,0.3934,0.0097,,0.0112,0.0664,0.0626,2.7359,0.0009,3.8668,-0.0707,21.4686,223.0,,0.687,423.0952,2.2472,0.0,1.4446,5.1288,0.0046,0.8845,-0.0961,0.151,0.8961,0.0401,0.364,0.1563,2.6281,630.9964,-377.5,46.4052,3.8846,0.7187,0.1034,0.832,82.5392,0.2464,8.12,0.0026,16.5205,47.5,0.9706,0.1187,-0.0292,0.0252,0.089,110.5367,,0.0066,0.0031,1.8,6.2026,7.63,5.4196,0.0273,107.6243,6.0412,17.0702,2.1749,0.0342,0.0302,4.723,0.0196,3.2396,0.0117,0.0262,0.4559,3.4952,0.2088,26.453,0.0218,0.0007,,0.0927,2.2343,1.3273,0.0989,0.5936,,43.4896,0.1302,201.5791,144.8691,0.9893,389.4737,2.8013,79.3612,0.0337,3.8882,2.6051,2.8889,0.0066,151.9,0.6011,0.0152,8.9689,66.1344,1.5577,5.0405,9.15,0.1293,,70.0,2200.0666,585.619,722.8043,0.0,9.6373,-0.0001,61.233,0.0157,1816.0409,0.0521,0.1372,0.34,1247.3003,0.9698,0.0124,0.4982,1.6552,10.1385,3.2694,7.6049,,89.8302,0.0033,0.0005,0.9871,7.116,2.5731,0.005,0.3435,2.3289,51.9231,0.0,0.3401,0.1172,18.51,101.9795,190.1486,0.0194,2.5608,1.4685,3.6823,1.7374,18.2747,3214.5,4.3299,57.645,-0.0024,0.0043,2.2183,0.0915,86.3794,400.3282,406.438,20.6936,710.7979,0.0248,751.0064,1.2702,118.7712,0.1525,0.9989,2.2301,0.0864,0.6734,49.5086,8.47,0.0,0.0646,8462.0301,2.4191,0.0,2.0728,0.0334,12.4922,5.2008,0.0046,0.0621,0.0252,0.4717,12.265,41.7632,3065.45,371.6556,0.0078,15.94,0.2509,8.8028,0.1389,1.3954,2.6886,316.7357,0.0015,0.1214,9.737,94.6441,25.239,0.0361,0.0248,0.0293,0.2409,-0.0071,2892.0,79.0,326.9631,27.584,0.0017,15.92,0.0028,0.2931,191.9418,218.3,7.9,0.0048,3.6729,37.3966,2.9335,0.0855,124.1755,0.0949,27.7795,8.1739,0.0035,7.4031,4.5762,3.8991,0.0,24.4475,-0.0193,62.3881,18.51,8.5615,0.8279,7.7487,4.4537,0.0,4.2239,2.159,62.6845,50.4915,4.435,,19.6496,41.3879,25.2994,0.0016,0.3055,2.951,1006.5471,1.5,-0.0196,5.47,0.0024,9.1259,10.3524,0.0014,
4.3062,9.018,10.9625,2.2928,0.0033,3.9022,5.7609,0.0,145.3782,97.0,2.3739,106.2166,3.6698,0.0092,0.0156,-0.03,261.888,0.012,2.8547,0.1681,58.5715,3.6465,-0.0244,0.1143,0.162,6.0358,1.2591,4.79,70.8369,0.3955,1.0,0.0055,1923.9608,0.7858,210.3129,3.398,0.1668,0.0626,7.3277,0.0131,4366.0,578.4897,0.0003,21.1,9.23,6.76,44.1219,0.1252,-0.0086,620.0764,,-4919.5,259.7678,1.23,0.0079,21.725,0.0422,0.436,78.832,0.0678,0.2602,3.2067,0.009,0.0,0.1556,20.47,7.3485,3.601,3540.0,0.0281,0.1038,4.6499,4.179,2.6303,0.9518,7.9697,0.0,0.0867,1.996,17.34,86.8271,,0.2977,0.0356,0.076,0.0,0.112,0.4484,3.4268,6.3996,4.4669,585.959,12.6925,0.9336,,5.8362,0.29,0.0089,,0.0038,21.491,1.5291,1.405,,100.1744,321.7082,2.9514,0.9527,0.9854,0.0037,0.0544,2.9956,12.9264,6.6,1.1586,0.0833,1.401,0.0128,3.1382,0.4815,0.9564,5.9728,45.0277,0.0762,0.9905,3.1969,0.0,4.563,535.6282,0.0413,0.2332,0.075,33.4794,25.932,-0.012,9.11,1.9219,78.299,430.0,350.74,0.0,4.731,1.8481,17.6817,-5646.0,1.038,15.66,349.5791,0.9381,2432.09,8.3166,0.7308,92.0532,2.2411,7.4461,67.5333,,0.0,2.3154,193.6722,0.216,0.0,0.0842,0.6295,46.1396,1431.874,5.1444,0.0,0.1131,141.6068,2.133,3.811,0.0225,0.9597,3.4351,0.0075,1.6235,0.1474,0.012,0.166,3.545,0.38,131.0,7.7408,0.0498,0.0689,0.9527,-0.0012,18.0055,0.0571,0.0586,,10.29,0.1214,4.1461,0.0,64.326,2.4133,39.1417,0.178,0.5996,0.0138,,0.023,0.0621,0.0772,4.7647,0.0,2.9457,0.0,15.4819,555.0,465.5432,0.5891,415.3478,1.1079,188.8889,2.7894,4.2183,0.003,1.286,0.015,0.184,1.2414,0.0191,0.249,0.1715,1.4759,607.15,6063.0,59.5973,3.8682,0.4552,0.0916,0.5284,104.5758,0.2295,14.724,0.0024,16.4241,50.4001,0.9702,0.0745,0.0,0.0373,0.0839,94.5309,,0.0044,0.0072,2.8,6.3337,8.29,9.4135,0.0295,610.6667,5.3863,10.8262,3.5168,0.0733,0.0299,3.7536,0.0315,3.0971,0.0266,0.0166,0.9524,4.7497,0.2058,14.87,0.0221,0.0008,2.9645,0.0316,3.1553,1.0471,0.0745,0.6339,,48.4328,0.9537,198.6416,123.9582,0.9662,0.0,2.009,222.8524,0.0,4.5759,1.9219,1.9889,0.0064,150.4745,0.5989,,4.8927,66.1354,1.7597,2.7319,3.67,0.1131,,70.0,2169.1111,2009.2543,690.8573,393.1286,9.3764,0.0,46.7185,,1837.5534,0.0511,0.4294,0.2942,671.0,0.966,0.0293,0.5012,5.9253,10.3549,,7.0362,,223.8064,0.0044,0.0034,1.5603,7.3894,2.6022,0.0042,0.2426,2.3481,45.2514,340.6953,0.2941,0.1484,13.73,85.0584,121.5434,0.0194,1.6595,3.1227,2.3243,1.7008,25.2106,2508.25,12.383,17.1434,0.0,0.0045,3.7073,0.1034,86.15,231.6439,402.678,16.8618,800.0857,0.0,712.5823,1.3082,117.8416,0.1444,0.9973,4.4254,0.0978,0.5875,49.9248,6.6,0.0,0.0668,9131.1501,1.1323,0.0,2.1742,0.0268,12.4769,7.8219,,0.1216,,0.4457,10.522,24.2071,3049.58,58.3869,0.0084,15.74,0.8808,7.254,0.131,1.0321,4.7389,0.0,0.0009,0.0472,8.0531,187.0482,26.585,0.0224,0.0,0.0665,0.157,0.0459,2860.0,3.625,627.9294,19.878,0.0012,15.7,0.0039,0.1698,189.2653,119.0,11.77,,2.7896,41.7414,2.2614,0.0638,107.0964,0.0371,40.9225,5.3024,0.0115,8.2756,3.7624,4.3908,0.0,21.8212,0.0211,21.0599,13.73,8.8424,1.0773,5.9222,2.6363,88.7489,9.83,2.3235,117.1975,50.0752,8.161,,8.8537,33.9208,22.1578,0.0013,0.5089,5.244,1007.5156,0.9,0.0028,9.21,-0.0006,7.5338,10.7514,0.0014,
